server/assets/luts/bright.cube
TITLE "Bright"
LUT_3D_SIZE 9
0.050000 0.050000 0.050000
0.187500 0.050000 0.050000
0.325000 0.050000 0.050000
0.462500 0.050000 0.050000
0.600000 0.050000 0.050000
0.737500 0.050000 0.050000
0.875000 0.050000 0.050000
1.000000 0.050000 0.050000
1.000000 0.050000 0.050000
0.050000 0.187500 0.050000
0.187500 0.187500 0.050000
0.325000 0.187500 0.050000
0.462500 0.187500 0.050000
0.600000 0.187500 0.050000
0.737500 0.187500 0.050000
0.875000 0.187500 0.050000
1.000000 0.187500 0.050000
1.000000 0.187500 0.050000
0.050000 0.325000 0.050000
0.187500 0.325000 0.050000
0.325000 0.325000 0.050000
0.462500 0.325000 0.050000
0.600000 0.325000 0.050000
0.737500 0.325000 0.050000
0.875000 0.325000 0.050000
1.000000 0.325000 0.050000
1.000000 0.325000 0.050000
0.050000 0.462500 0.050000
0.187500 0.462500 0.050000
0.325000 0.462500 0.050000
0.462500 0.462500 0.050000
0.600000 0.462500 0.050000
0.737500 0.462500 0.050000
0.875000 0.462500 0.050000
1.000000 0.462500 0.050000
1.000000 0.462500 0.050000
0.050000 0.600000 0.050000
0.187500 0.600000 0.050000
0.325000 0.600000 0.050000
0.462500 0.600000 0.050000
0.600000 0.600000 0.050000
0.737500 0.600000 0.050000
0.875000 0.600000 0.050000
1.000000 0.600000 0.050000
1.000000 0.600000 0.050000
0.050000 0.737500 0.050000
0.187500 0.737500 0.050000
0.325000 0.737500 0.050000
0.462500 0.737500 0.050000
0.600000 0.737500 0.050000
0.737500 0.737500 0.050000
0.875000 0.737500 0.050000
1.000000 0.737500 0.050000
1.000000 0.737500 0.050000
0.050000 0.875000 0.050000
0.187500 0.875000 0.050000
0.325000 0.875000 0.050000
0.462500 0.875000 0.050000
0.600000 0.875000 0.050000
0.737500 0.875000 0.050000
0.875000 0.875000 0.050000
1.000000 0.875000 0.050000
1.000000 0.875000 0.050000
0.050000 1.000000 0.050000
0.187500 1.000000 0.050000
0.325000 1.000000 0.050000
0.462500 1.000000 0.050000
0.600000 1.000000 0.050000
0.737500 1.000000 0.050000
0.875000 1.000000 0.050000
1.000000 1.000000 0.050000
1.000000 1.000000 0.050000
0.050000 1.000000 0.050000
0.187500 1.000000 0.050000
0.325000 1.000000 0.050000
0.462500 1.000000 0.050000
0.600000 1.000000 0.050000
0.737500 1.000000 0.050000
0.875000 1.000000 0.050000
1.000000 1.000000 0.050000
1.000000 1.000000 0.050000
0.050000 0.050000 0.181250
0.187500 0.050000 0.181250
0.325000 0.050000 0.181250
0.462500 0.050000 0.181250
0.600000 0.050000 0.181250
0.737500 0.050000 0.181250
0.875000 0.050000 0.181250
1.000000 0.050000 0.181250
1.000000 0.050000 0.181250
0.050000 0.187500 0.181250
0.187500 0.187500 0.181250
0.325000 0.187500 0.181250
0.462500 0.187500 0.181250
0.600000 0.187500 0.181250
0.737500 0.187500 0.181250
0.875000 0.187500 0.181250
1.000000 0.187500 0.181250
1.000000 0.187500 0.181250
0.050000 0.325000 0.181250
0.187500 0.325000 0.181250
0.325000 0.325000 0.181250
0.462500 0.325000 0.181250
0.600000 0.325000 0.181250
0.737500 0.325000 0.181250
0.875000 0.325000 0.181250
1.000000 0.325000 0.181250
1.000000 0.325000 0.181250
0.050000 0.462500 0.181250
0.187500 0.462500 0.181250
0.325000 0.462500 0.181250
0.462500 0.462500 0.181250
0.600000 0.462500 0.181250
0.737500 0.462500 0.181250
0.875000 0.462500 0.181250
1.000000 0.462500 0.181250
1.000000 0.462500 0.181250
0.050000 0.600000 0.181250
0.187500 0.600000 0.181250
0.325000 0.600000 0.181250
0.462500 0.600000 0.181250
0.600000 0.600000 0.181250
0.737500 0.600000 0.181250
0.875000 0.600000 0.181250
1.000000 0.600000 0.181250
1.000000 0.600000 0.181250
0.050000 0.737500 0.181250
0.187500 0.737500 0.181250
0.325000 0.737500 0.181250
0.462500 0.737500 0.181250
0.600000 0.737500 0.181250
0.737500 0.737500 0.181250
0.875000 0.737500 0.181250
1.000000 0.737500 0.181250
1.000000 0.737500 0.181250
0.050000 0.875000 0.181250
0.187500 0.875000 0.181250
0.325000 0.875000 0.181250
0.462500 0.875000 0.181250
0.600000 0.875000 0.181250
0.737500 0.875000 0.181250
0.875000 0.875000 0.181250
1.000000 0.875000 0.181250
1.000000 0.875000 0.181250
0.050000 1.000000 0.181250
0.187500 1.000000 0.181250
0.325000 1.000000 0.181250
0.462500 1.000000 0.181250
0.600000 1.000000 0.181250
0.737500 1.000000 0.181250
0.875000 1.000000 0.181250
1.000000 1.000000 0.181250
1.000000 1.000000 0.181250
0.050000 1.000000 0.181250
0.187500 1.000000 0.181250
0.325000 1.000000 0.181250
0.462500 1.000000 0.181250
0.600000 1.000000 0.181250
0.737500 1.000000 0.181250
0.875000 1.000000 0.181250
1.000000 1.000000 0.181250
1.000000 1.000000 0.181250
0.050000 0.050000 0.312500
0.187500 0.050000 0.312500
0.325000 0.050000 0.312500
0.462500 0.050000 0.312500
0.600000 0.050000 0.312500
0.737500 0.050000 0.312500
0.875000 0.050000 0.312500
1.000000 0.050000 0.312500
1.000000 0.050000 0.312500
0.050000 0.187500 0.312500
0.187500 0.187500 0.312500
0.325000 0.187500 0.312500
0.462500 0.187500 0.312500
0.600000 0.187500 0.312500
0.737500 0.187500 0.312500
0.875000 0.187500 0.312500
1.000000 0.187500 0.312500
1.000000 0.187500 0.312500
0.050000 0.325000 0.312500
0.187500 0.325000 0.312500
0.325000 0.325000 0.312500
0.462500 0.325000 0.312500
0.600000 0.325000 0.312500
0.737500 0.325000 0.312500
0.875000 0.325000 0.312500
1.000000 0.325000 0.312500
1.000000 0.325000 0.312500
0.050000 0.462500 0.312500
0.187500 0.462500 0.312500
0.325000 0.462500 0.312500
0.462500 0.462500 0.312500
0.600000 0.462500 0.312500
0.737500 0.462500 0.312500
0.875000 0.462500 0.312500
1.000000 0.462500 0.312500
1.000000 0.462500 0.312500
0.050000 0.600000 0.312500
0.187500 0.600000 0.312500
0.325000 0.600000 0.312500
0.462500 0.600000 0.312500
0.600000 0.600000 0.312500
0.737500 0.600000 0.312500
0.875000 0.600000 0.312500
1.000000 0.600000 0.312500
1.000000 0.600000 0.312500
0.050000 0.737500 0.312500
0.187500 0.737500 0.312500
0.325000 0.737500 0.312500
0.462500 0.737500 0.312500
0.600000 0.737500 0.312500
0.737500 0.737500 0.312500
0.875000 0.737500 0.312500
1.000000 0.737500 0.312500
1.000000 0.737500 0.312500
0.050000 0.875000 0.312500
0.187500 0.875000 0.312500
0.325000 0.875000 0.312500
0.462500 0.875000 0.312500
0.600000 0.875000 0.312500
0.737500 0.875000 0.312500
0.875000 0.875000 0.312500
1.000000 0.875000 0.312500
1.000000 0.875000 0.312500
0.050000 1.000000 0.312500
0.187500 1.000000 0.312500
0.325000 1.000000 0.312500
0.462500 1.000000 0.312500
0.600000 1.000000 0.312500
0.737500 1.000000 0.312500
0.875000 1.000000 0.312500
1.000000 1.000000 0.312500
1.000000 1.000000 0.312500
0.050000 1.000000 0.312500
0.187500 1.000000 0.312500
0.325000 1.000000 0.312500
0.462500 1.000000 0.312500
0.600000 1.000000 0.312500
0.737500 1.000000 0.312500
0.875000 1.000000 0.312500
1.000000 1.000000 0.312500
1.000000 1.000000 0.312500
0.050000 0.050000 0.443750
0.187500 0.050000 0.443750
0.325000 0.050000 0.443750
0.462500 0.050000 0.443750
0.600000 0.050000 0.443750
0.737500 0.050000 0.443750
0.875000 0.050000 0.443750
1.000000 0.050000 0.443750
1.000000 0.050000 0.443750
0.050000 0.187500 0.443750
0.187500 0.187500 0.443750
0.325000 0.187500 0.443750
0.462500 0.187500 0.443750
0.600000 0.187500 0.443750
0.737500 0.187500 0.443750
0.875000 0.187500 0.443750
1.000000 0.187500 0.443750
1.000000 0.187500 0.443750
0.050000 0.325000 0.443750
0.187500 0.325000 0.443750
0.325000 0.325000 0.443750
0.462500 0.325000 0.443750
0.600000 0.325000 0.443750
0.737500 0.325000 0.443750
0.875000 0.325000 0.443750
1.000000 0.325000 0.443750
1.000000 0.325000 0.443750
0.050000 0.462500 0.443750
0.187500 0.462500 0.443750
0.325000 0.462500 0.443750
0.462500 0.462500 0.443750
0.600000 0.462500 0.443750
0.737500 0.462500 0.443750
0.875000 0.462500 0.443750
1.000000 0.462500 0.443750
1.000000 0.462500 0.443750
0.050000 0.600000 0.443750
0.187500 0.600000 0.443750
0.325000 0.600000 0.443750
0.462500 0.600000 0.443750
0.600000 0.600000 0.443750
0.737500 0.600000 0.443750
0.875000 0.600000 0.443750
1.000000 0.600000 0.443750
1.000000 0.600000 0.443750
0.050000 0.737500 0.443750
0.187500 0.737500 0.443750
0.325000 0.737500 0.443750
0.462500 0.737500 0.443750
0.600000 0.737500 0.443750
0.737500 0.737500 0.443750
0.875000 0.737500 0.443750
1.000000 0.737500 0.443750
1.000000 0.737500 0.443750
0.050000 0.875000 0.443750
0.187500 0.875000 0.443750
0.325000 0.875000 0.443750
0.462500 0.875000 0.443750
0.600000 0.875000 0.443750
0.737500 0.875000 0.443750
0.875000 0.875000 0.443750
1.000000 0.875000 0.443750
1.000000 0.875000 0.443750
0.050000 1.000000 0.443750
0.187500 1.000000 0.443750
0.325000 1.000000 0.443750
0.462500 1.000000 0.443750
0.600000 1.000000 0.443750
0.737500 1.000000 0.443750
0.875000 1.000000 0.443750
1.000000 1.000000 0.443750
1.000000 1.000000 0.443750
0.050000 1.000000 0.443750
0.187500 1.000000 0.443750
0.325000 1.000000 0.443750
0.462500 1.000000 0.443750
0.600000 1.000000 0.443750
0.737500 1.000000 0.443750
0.875000 1.000000 0.443750
1.000000 1.000000 0.443750
1.000000 1.000000 0.443750
0.050000 0.050000 0.575000
0.187500 0.050000 0.575000
0.325000 0.050000 0.575000
0.462500 0.050000 0.575000
0.600000 0.050000 0.575000
0.737500 0.050000 0.575000
0.875000 0.050000 0.575000
1.000000 0.050000 0.575000
1.000000 0.050000 0.575000
0.050000 0.187500 0.575000
0.187500 0.187500 0.575000
0.325000 0.187500 0.575000
0.462500 0.187500 0.575000
0.600000 0.187500 0.575000
0.737500 0.187500 0.575000
0.875000 0.187500 0.575000
1.000000 0.187500 0.575000
1.000000 0.187500 0.575000
0.050000 0.325000 0.575000
0.187500 0.325000 0.575000
0.325000 0.325000 0.575000
0.462500 0.325000 0.575000
0.600000 0.325000 0.575000
0.737500 0.325000 0.575000
0.875000 0.325000 0.575000
1.000000 0.325000 0.575000
1.000000 0.325000 0.575000
0.050000 0.462500 0.575000
0.187500 0.462500 0.575000
0.325000 0.462500 0.575000
0.462500 0.462500 0.575000
0.600000 0.462500 0.575000
0.737500 0.462500 0.575000
0.875000 0.462500 0.575000
1.000000 0.462500 0.575000
1.000000 0.462500 0.575000
0.050000 0.600000 0.575000
0.187500 0.600000 0.575000
0.325000 0.600000 0.575000
0.462500 0.600000 0.575000
0.600000 0.600000 0.575000
0.737500 0.600000 0.575000
0.875000 0.600000 0.575000
1.000000 0.600000 0.575000
1.000000 0.600000 0.575000
0.050000 0.737500 0.575000
0.187500 0.737500 0.575000
0.325000 0.737500 0.575000
0.462500 0.737500 0.575000
0.600000 0.737500 0.575000
0.737500 0.737500 0.575000
0.875000 0.737500 0.575000
1.000000 0.737500 0.575000
1.000000 0.737500 0.575000
0.050000 0.875000 0.575000
0.187500 0.875000 0.575000
0.325000 0.875000 0.575000
0.462500 0.875000 0.575000
0.600000 0.875000 0.575000
0.737500 0.875000 0.575000
0.875000 0.875000 0.575000
1.000000 0.875000 0.575000
1.000000 0.875000 0.575000
0.050000 1.000000 0.575000
0.187500 1.000000 0.575000
0.325000 1.000000 0.575000
0.462500 1.000000 0.575000
0.600000 1.000000 0.575000
0.737500 1.000000 0.575000
0.875000 1.000000 0.575000
1.000000 1.000000 0.575000
1.000000 1.000000 0.575000
0.050000 1.000000 0.575000
0.187500 1.000000 0.575000
0.325000 1.000000 0.575000
0.462500 1.000000 0.575000
0.600000 1.000000 0.575000
0.737500 1.000000 0.575000
0.875000 1.000000 0.575000
1.000000 1.000000 0.575000
1.000000 1.000000 0.575000
0.050000 0.050000 0.706250
0.187500 0.050000 0.706250
0.325000 0.050000 0.706250
0.462500 0.050000 0.706250
0.600000 0.050000 0.706250
0.737500 0.050000 0.706250
0.875000 0.050000 0.706250
1.000000 0.050000 0.706250
1.000000 0.050000 0.706250
0.050000 0.187500 0.706250
0.187500 0.187500 0.706250
0.325000 0.187500 0.706250
0.462500 0.187500 0.706250
0.600000 0.187500 0.706250
0.737500 0.187500 0.706250
0.875000 0.187500 0.706250
1.000000 0.187500 0.706250
1.000000 0.187500 0.706250
0.050000 0.325000 0.706250
0.187500 0.325000 0.706250
0.325000 0.325000 0.706250
0.462500 0.325000 0.706250
0.600000 0.325000 0.706250
0.737500 0.325000 0.706250
0.875000 0.325000 0.706250
1.000000 0.325000 0.706250
1.000000 0.325000 0.706250
0.050000 0.462500 0.706250
0.187500 0.462500 0.706250
0.325000 0.462500 0.706250
0.462500 0.462500 0.706250
0.600000 0.462500 0.706250
0.737500 0.462500 0.706250
0.875000 0.462500 0.706250
1.000000 0.462500 0.706250
1.000000 0.462500 0.706250
0.050000 0.600000 0.706250
0.187500 0.600000 0.706250
0.325000 0.600000 0.706250
0.462500 0.600000 0.706250
0.600000 0.600000 0.706250
0.737500 0.600000 0.706250
0.875000 0.600000 0.706250
1.000000 0.600000 0.706250
1.000000 0.600000 0.706250
0.050000 0.737500 0.706250
0.187500 0.737500 0.706250
0.325000 0.737500 0.706250
0.462500 0.737500 0.706250
0.600000 0.737500 0.706250
0.737500 0.737500 0.706250
0.875000 0.737500 0.706250
1.000000 0.737500 0.706250
1.000000 0.737500 0.706250
0.050000 0.875000 0.706250
0.187500 0.875000 0.706250
0.325000 0.875000 0.706250
0.462500 0.875000 0.706250
0.600000 0.875000 0.706250
0.737500 0.875000 0.706250
0.875000 0.875000 0.706250
1.000000 0.875000 0.706250
1.000000 0.875000 0.706250
0.050000 1.000000 0.706250
0.187500 1.000000 0.706250
0.325000 1.000000 0.706250
0.462500 1.000000 0.706250
0.600000 1.000000 0.706250
0.737500 1.000000 0.706250
0.875000 1.000000 0.706250
1.000000 1.000000 0.706250
1.000000 1.000000 0.706250
0.050000 1.000000 0.706250
0.187500 1.000000 0.706250
0.325000 1.000000 0.706250
0.462500 1.000000 0.706250
0.600000 1.000000 0.706250
0.737500 1.000000 0.706250
0.875000 1.000000 0.706250
1.000000 1.000000 0.706250
1.000000 1.000000 0.706250
0.050000 0.050000 0.837500
0.187500 0.050000 0.837500
0.325000 0.050000 0.837500
0.462500 0.050000 0.837500
0.600000 0.050000 0.837500
0.737500 0.050000 0.837500
0.875000 0.050000 0.837500
1.000000 0.050000 0.837500
1.000000 0.050000 0.837500
0.050000 0.187500 0.837500
0.187500 0.187500 0.837500
0.325000 0.187500 0.837500
0.462500 0.187500 0.837500
0.600000 0.187500 0.837500
0.737500 0.187500 0.837500
0.875000 0.187500 0.837500
1.000000 0.187500 0.837500
1.000000 0.187500 0.837500
0.050000 0.325000 0.837500
0.187500 0.325000 0.837500
0.325000 0.325000 0.837500
0.462500 0.325000 0.837500
0.600000 0.325000 0.837500
0.737500 0.325000 0.837500
0.875000 0.325000 0.837500
1.000000 0.325000 0.837500
1.000000 0.325000 0.837500
0.050000 0.462500 0.837500
0.187500 0.462500 0.837500
0.325000 0.462500 0.837500
0.462500 0.462500 0.837500
0.600000 0.462500 0.837500
0.737500 0.462500 0.837500
0.875000 0.462500 0.837500
1.000000 0.462500 0.837500
1.000000 0.462500 0.837500
0.050000 0.600000 0.837500
0.187500 0.600000 0.837500
0.325000 0.600000 0.837500
0.462500 0.600000 0.837500
0.600000 0.600000 0.837500
0.737500 0.600000 0.837500
0.875000 0.600000 0.837500
1.000000 0.600000 0.837500
1.000000 0.600000 0.837500
0.050000 0.737500 0.837500
0.187500 0.737500 0.837500
0.325000 0.737500 0.837500
0.462500 0.737500 0.837500
0.600000 0.737500 0.837500
0.737500 0.737500 0.837500
0.875000 0.737500 0.837500
1.000000 0.737500 0.837500
1.000000 0.737500 0.837500
0.050000 0.875000 0.837500
0.187500 0.875000 0.837500
0.325000 0.875000 0.837500
0.462500 0.875000 0.837500
0.600000 0.875000 0.837500
0.737500 0.875000 0.837500
0.875000 0.875000 0.837500
1.000000 0.875000 0.837500
1.000000 0.875000 0.837500
0.050000 1.000000 0.837500
0.187500 1.000000 0.837500
0.325000 1.000000 0.837500
0.462500 1.000000 0.837500
0.600000 1.000000 0.837500
0.737500 1.000000 0.837500
0.875000 1.000000 0.837500
1.000000 1.000000 0.837500
1.000000 1.000000 0.837500
0.050000 1.000000 0.837500
0.187500 1.000000 0.837500
0.325000 1.000000 0.837500
0.462500 1.000000 0.837500
0.600000 1.000000 0.837500
0.737500 1.000000 0.837500
0.875000 1.000000 0.837500
1.000000 1.000000 0.837500
1.000000 1.000000 0.837500
0.050000 0.050000 0.968750
0.187500 0.050000 0.968750
0.325000 0.050000 0.968750
0.462500 0.050000 0.968750
0.600000 0.050000 0.968750
0.737500 0.050000 0.968750
0.875000 0.050000 0.968750
1.000000 0.050000 0.968750
1.000000 0.050000 0.968750
0.050000 0.187500 0.968750
0.187500 0.187500 0.968750
0.325000 0.187500 0.968750
0.462500 0.187500 0.968750
0.600000 0.187500 0.968750
0.737500 0.187500 0.968750
0.875000 0.187500 0.968750
1.000000 0.187500 0.968750
1.000000 0.187500 0.968750
0.050000 0.325000 0.968750
0.187500 0.325000 0.968750
0.325000 0.325000 0.968750
0.462500 0.325000 0.968750
0.600000 0.325000 0.968750
0.737500 0.325000 0.968750
0.875000 0.325000 0.968750
1.000000 0.325000 0.968750
1.000000 0.325000 0.968750
0.050000 0.462500 0.968750
0.187500 0.462500 0.968750
0.325000 0.462500 0.968750
0.462500 0.462500 0.968750
0.600000 0.462500 0.968750
0.737500 0.462500 0.968750
0.875000 0.462500 0.968750
1.000000 0.462500 0.968750
1.000000 0.462500 0.968750
0.050000 0.600000 0.968750
0.187500 0.600000 0.968750
0.325000 0.600000 0.968750
0.462500 0.600000 0.968750
0.600000 0.600000 0.968750
0.737500 0.600000 0.968750
0.875000 0.600000 0.968750
1.000000 0.600000 0.968750
1.000000 0.600000 0.968750
0.050000 0.737500 0.968750
0.187500 0.737500 0.968750
0.325000 0.737500 0.968750
0.462500 0.737500 0.968750
0.600000 0.737500 0.968750
0.737500 0.737500 0.968750
0.875000 0.737500 0.968750
1.000000 0.737500 0.968750
1.000000 0.737500 0.968750
0.050000 0.875000 0.968750
0.187500 0.875000 0.968750
0.325000 0.875000 0.968750
0.462500 0.875000 0.968750
0.600000 0.875000 0.968750
0.737500 0.875000 0.968750
0.875000 0.875000 0.968750
1.000000 0.875000 0.968750
1.000000 0.875000 0.968750
0.050000 1.000000 0.968750
0.187500 1.000000 0.968750
0.325000 1.000000 0.968750
0.462500 1.000000 0.968750
0.600000 1.000000 0.968750
0.737500 1.000000 0.968750
0.875000 1.000000 0.968750
1.000000 1.000000 0.968750
1.000000 1.000000 0.968750
0.050000 1.000000 0.968750
0.187500 1.000000 0.968750
0.325000 1.000000 0.968750
0.462500 1.000000 0.968750
0.600000 1.000000 0.968750
0.737500 1.000000 0.968750
0.875000 1.000000 0.968750
1.000000 1.000000 0.968750
1.000000 1.000000 0.968750
0.050000 0.050000 1.000000
0.187500 0.050000 1.000000
0.325000 0.050000 1.000000
0.462500 0.050000 1.000000
0.600000 0.050000 1.000000
0.737500 0.050000 1.000000
0.875000 0.050000 1.000000
1.000000 0.050000 1.000000
1.000000 0.050000 1.000000
0.050000 0.187500 1.000000
0.187500 0.187500 1.000000
0.325000 0.187500 1.000000
0.462500 0.187500 1.000000
0.600000 0.187500 1.000000
0.737500 0.187500 1.000000
0.875000 0.187500 1.000000
1.000000 0.187500 1.000000
1.000000 0.187500 1.000000
0.050000 0.325000 1.000000
0.187500 0.325000 1.000000
0.325000 0.325000 1.000000
0.462500 0.325000 1.000000
0.600000 0.325000 1.000000
0.737500 0.325000 1.000000
0.875000 0.325000 1.000000
1.000000 0.325000 1.000000
1.000000 0.325000 1.000000
0.050000 0.462500 1.000000
0.187500 0.462500 1.000000
0.325000 0.462500 1.000000
0.462500 0.462500 1.000000
0.600000 0.462500 1.000000
0.737500 0.462500 1.000000
0.875000 0.462500 1.000000
1.000000 0.462500 1.000000
1.000000 0.462500 1.000000
0.050000 0.600000 1.000000
0.187500 0.600000 1.000000
0.325000 0.600000 1.000000
0.462500 0.600000 1.000000
0.600000 0.600000 1.000000
0.737500 0.600000 1.000000
0.875000 0.600000 1.000000
1.000000 0.600000 1.000000
1.000000 0.600000 1.000000
0.050000 0.737500 1.000000
0.187500 0.737500 1.000000
0.325000 0.737500 1.000000
0.462500 0.737500 1.000000
0.600000 0.737500 1.000000
0.737500 0.737500 1.000000
0.875000 0.737500 1.000000
1.000000 0.737500 1.000000
1.000000 0.737500 1.000000
0.050000 0.875000 1.000000
0.187500 0.875000 1.000000
0.325000 0.875000 1.000000
0.462500 0.875000 1.000000
0.600000 0.875000 1.000000
0.737500 0.875000 1.000000
0.875000 0.875000 1.000000
1.000000 0.875000 1.000000
1.000000 0.875000 1.000000
0.050000 1.000000 1.000000
0.187500 1.000000 1.000000
0.325000 1.000000 1.000000
0.462500 1.000000 1.000000
0.600000 1.000000 1.000000
0.737500 1.000000 1.000000
0.875000 1.000000 1.000000
1.000000 1.000000 1.000000
1.000000 1.000000 1.000000
0.050000 1.000000 1.000000
0.187500 1.000000 1.000000
0.325000 1.000000 1.000000
0.462500 1.000000 1.000000
0.600000 1.000000 1.000000
0.737500 1.000000 1.000000
0.875000 1.000000 1.000000
1.000000 1.000000 1.000000
1.000000 1.000000 1.000000
