server/assets/luts/bright.cube
TITLE "Bright"
LUT_3D_SIZE 17
0.050000 0.050000 0.050000
0.118750 0.050000 0.050000
0.187500 0.050000 0.050000
0.256250 0.050000 0.050000
0.325000 0.050000 0.050000
0.393750 0.050000 0.050000
0.462500 0.050000 0.050000
0.531250 0.050000 0.050000
0.600000 0.050000 0.050000
0.668750 0.050000 0.050000
0.737500 0.050000 0.050000
0.806250 0.050000 0.050000
0.875000 0.050000 0.050000
0.943750 0.050000 0.050000
1.000000 0.050000 0.050000
1.000000 0.050000 0.050000
1.000000 0.050000 0.050000
0.050000 0.118750 0.050000
0.118750 0.118750 0.050000
0.187500 0.118750 0.050000
0.256250 0.118750 0.050000
0.325000 0.118750 0.050000
0.393750 0.118750 0.050000
0.462500 0.118750 0.050000
0.531250 0.118750 0.050000
0.600000 0.118750 0.050000
0.668750 0.118750 0.050000
0.737500 0.118750 0.050000
0.806250 0.118750 0.050000
0.875000 0.118750 0.050000
0.943750 0.118750 0.050000
1.000000 0.118750 0.050000
1.000000 0.118750 0.050000
1.000000 0.118750 0.050000
0.050000 0.187500 0.050000
0.118750 0.187500 0.050000
0.187500 0.187500 0.050000
0.256250 0.187500 0.050000
0.325000 0.187500 0.050000
0.393750 0.187500 0.050000
0.462500 0.187500 0.050000
0.531250 0.187500 0.050000
0.600000 0.187500 0.050000
0.668750 0.187500 0.050000
0.737500 0.187500 0.050000
0.806250 0.187500 0.050000
0.875000 0.187500 0.050000
0.943750 0.187500 0.050000
1.000000 0.187500 0.050000
1.000000 0.187500 0.050000
1.000000 0.187500 0.050000
0.050000 0.256250 0.050000
0.118750 0.256250 0.050000
0.187500 0.256250 0.050000
0.256250 0.256250 0.050000
0.325000 0.256250 0.050000
0.393750 0.256250 0.050000
0.462500 0.256250 0.050000
0.531250 0.256250 0.050000
0.600000 0.256250 0.050000
0.668750 0.256250 0.050000
0.737500 0.256250 0.050000
0.806250 0.256250 0.050000
0.875000 0.256250 0.050000
0.943750 0.256250 0.050000
1.000000 0.256250 0.050000
1.000000 0.256250 0.050000
1.000000 0.256250 0.050000
0.050000 0.325000 0.050000
0.118750 0.325000 0.050000
0.187500 0.325000 0.050000
0.256250 0.325000 0.050000
0.325000 0.325000 0.050000
0.393750 0.325000 0.050000
0.462500 0.325000 0.050000
0.531250 0.325000 0.050000
0.600000 0.325000 0.050000
0.668750 0.325000 0.050000
0.737500 0.325000 0.050000
0.806250 0.325000 0.050000
0.875000 0.325000 0.050000
0.943750 0.325000 0.050000
1.000000 0.325000 0.050000
1.000000 0.325000 0.050000
1.000000 0.325000 0.050000
0.050000 0.393750 0.050000
0.118750 0.393750 0.050000
0.187500 0.393750 0.050000
0.256250 0.393750 0.050000
0.325000 0.393750 0.050000
0.393750 0.393750 0.050000
0.462500 0.393750 0.050000
0.531250 0.393750 0.050000
0.600000 0.393750 0.050000
0.668750 0.393750 0.050000
0.737500 0.393750 0.050000
0.806250 0.393750 0.050000
0.875000 0.393750 0.050000
0.943750 0.393750 0.050000
1.000000 0.393750 0.050000
1.000000 0.393750 0.050000
1.000000 0.393750 0.050000
0.050000 0.462500 0.050000
0.118750 0.462500 0.050000
0.187500 0.462500 0.050000
0.256250 0.462500 0.050000
0.325000 0.462500 0.050000
0.393750 0.462500 0.050000
0.462500 0.462500 0.050000
0.531250 0.462500 0.050000
0.600000 0.462500 0.050000
0.668750 0.462500 0.050000
0.737500 0.462500 0.050000
0.806250 0.462500 0.050000
0.875000 0.462500 0.050000
0.943750 0.462500 0.050000
1.000000 0.462500 0.050000
1.000000 0.462500 0.050000
1.000000 0.462500 0.050000
0.050000 0.531250 0.050000
0.118750 0.531250 0.050000
0.187500 0.531250 0.050000
0.256250 0.531250 0.050000
0.325000 0.531250 0.050000
0.393750 0.531250 0.050000
0.462500 0.531250 0.050000
0.531250 0.531250 0.050000
0.600000 0.531250 0.050000
0.668750 0.531250 0.050000
0.737500 0.531250 0.050000
0.806250 0.531250 0.050000
0.875000 0.531250 0.050000
0.943750 0.531250 0.050000
1.000000 0.531250 0.050000
1.000000 0.531250 0.050000
1.000000 0.531250 0.050000
0.050000 0.600000 0.050000
0.118750 0.600000 0.050000
0.187500 0.600000 0.050000
0.256250 0.600000 0.050000
0.325000 0.600000 0.050000
0.393750 0.600000 0.050000
0.462500 0.600000 0.050000
0.531250 0.600000 0.050000
0.600000 0.600000 0.050000
0.668750 0.600000 0.050000
0.737500 0.600000 0.050000
0.806250 0.600000 0.050000
0.875000 0.600000 0.050000
0.943750 0.600000 0.050000
1.000000 0.600000 0.050000
1.000000 0.600000 0.050000
1.000000 0.600000 0.050000
0.050000 0.668750 0.050000
0.118750 0.668750 0.050000
0.187500 0.668750 0.050000
0.256250 0.668750 0.050000
0.325000 0.668750 0.050000
0.393750 0.668750 0.050000
0.462500 0.668750 0.050000
0.531250 0.668750 0.050000
0.600000 0.668750 0.050000
0.668750 0.668750 0.050000
0.737500 0.668750 0.050000
0.806250 0.668750 0.050000
0.875000 0.668750 0.050000
0.943750 0.668750 0.050000
1.000000 0.668750 0.050000
1.000000 0.668750 0.050000
1.000000 0.668750 0.050000
0.050000 0.737500 0.050000
0.118750 0.737500 0.050000
0.187500 0.737500 0.050000
0.256250 0.737500 0.050000
0.325000 0.737500 0.050000
0.393750 0.737500 0.050000
0.462500 0.737500 0.050000
0.531250 0.737500 0.050000
0.600000 0.737500 0.050000
0.668750 0.737500 0.050000
0.737500 0.737500 0.050000
0.806250 0.737500 0.050000
0.875000 0.737500 0.050000
0.943750 0.737500 0.050000
1.000000 0.737500 0.050000
1.000000 0.737500 0.050000
1.000000 0.737500 0.050000
0.050000 0.806250 0.050000
0.118750 0.806250 0.050000
0.187500 0.806250 0.050000
0.256250 0.806250 0.050000
0.325000 0.806250 0.050000
0.393750 0.806250 0.050000
0.462500 0.806250 0.050000
0.531250 0.806250 0.050000
0.600000 0.806250 0.050000
0.668750 0.806250 0.050000
0.737500 0.806250 0.050000
0.806250 0.806250 0.050000
0.875000 0.806250 0.050000
0.943750 0.806250 0.050000
1.000000 0.806250 0.050000
1.000000 0.806250 0.050000
1.000000 0.806250 0.050000
0.050000 0.875000 0.050000
0.118750 0.875000 0.050000
0.187500 0.875000 0.050000
0.256250 0.875000 0.050000
0.325000 0.875000 0.050000
0.393750 0.875000 0.050000
0.462500 0.875000 0.050000
0.531250 0.875000 0.050000
0.600000 0.875000 0.050000
0.668750 0.875000 0.050000
0.737500 0.875000 0.050000
0.806250 0.875000 0.050000
0.875000 0.875000 0.050000
0.943750 0.875000 0.050000
1.000000 0.875000 0.050000
1.000000 0.875000 0.050000
1.000000 0.875000 0.050000
0.050000 0.943750 0.050000
0.118750 0.943750 0.050000
0.187500 0.943750 0.050000
0.256250 0.943750 0.050000
0.325000 0.943750 0.050000
0.393750 0.943750 0.050000
0.462500 0.943750 0.050000
0.531250 0.943750 0.050000
0.600000 0.943750 0.050000
0.668750 0.943750 0.050000
0.737500 0.943750 0.050000
0.806250 0.943750 0.050000
0.875000 0.943750 0.050000
0.943750 0.943750 0.050000
1.000000 0.943750 0.050000
1.000000 0.943750 0.050000
1.000000 0.943750 0.050000
0.050000 1.000000 0.050000
0.118750 1.000000 0.050000
0.187500 1.000000 0.050000
0.256250 1.000000 0.050000
0.325000 1.000000 0.050000
0.393750 1.000000 0.050000
0.462500 1.000000 0.050000
0.531250 1.000000 0.050000
0.600000 1.000000 0.050000
0.668750 1.000000 0.050000
0.737500 1.000000 0.050000
0.806250 1.000000 0.050000
0.875000 1.000000 0.050000
0.943750 1.000000 0.050000
1.000000 1.000000 0.050000
1.000000 1.000000 0.050000
1.000000 1.000000 0.050000
0.050000 1.000000 0.050000
0.118750 1.000000 0.050000
0.187500 1.000000 0.050000
0.256250 1.000000 0.050000
0.325000 1.000000 0.050000
0.393750 1.000000 0.050000
0.462500 1.000000 0.050000
0.531250 1.000000 0.050000
0.600000 1.000000 0.050000
0.668750 1.000000 0.050000
0.737500 1.000000 0.050000
0.806250 1.000000 0.050000
0.875000 1.000000 0.050000
0.943750 1.000000 0.050000
1.000000 1.000000 0.050000
1.000000 1.000000 0.050000
1.000000 1.000000 0.050000
0.050000 1.000000 0.050000
0.118750 1.000000 0.050000
0.187500 1.000000 0.050000
0.256250 1.000000 0.050000
0.325000 1.000000 0.050000
0.393750 1.000000 0.050000
0.462500 1.000000 0.050000
0.531250 1.000000 0.050000
0.600000 1.000000 0.050000
0.668750 1.000000 0.050000
0.737500 1.000000 0.050000
0.806250 1.000000 0.050000
0.875000 1.000000 0.050000
0.943750 1.000000 0.050000
1.000000 1.000000 0.050000
1.000000 1.000000 0.050000
1.000000 1.000000 0.050000
0.050000 0.050000 0.115625
0.118750 0.050000 0.115625
0.187500 0.050000 0.115625
0.256250 0.050000 0.115625
0.325000 0.050000 0.115625
0.393750 0.050000 0.115625
0.462500 0.050000 0.115625
0.531250 0.050000 0.115625
0.600000 0.050000 0.115625
0.668750 0.050000 0.115625
0.737500 0.050000 0.115625
0.806250 0.050000 0.115625
0.875000 0.050000 0.115625
0.943750 0.050000 0.115625
1.000000 0.050000 0.115625
1.000000 0.050000 0.115625
1.000000 0.050000 0.115625
0.050000 0.118750 0.115625
0.118750 0.118750 0.115625
0.187500 0.118750 0.115625
0.256250 0.118750 0.115625
0.325000 0.118750 0.115625
0.393750 0.118750 0.115625
0.462500 0.118750 0.115625
0.531250 0.118750 0.115625
0.600000 0.118750 0.115625
0.668750 0.118750 0.115625
0.737500 0.118750 0.115625
0.806250 0.118750 0.115625
0.875000 0.118750 0.115625
0.943750 0.118750 0.115625
1.000000 0.118750 0.115625
1.000000 0.118750 0.115625
1.000000 0.118750 0.115625
0.050000 0.187500 0.115625
0.118750 0.187500 0.115625
0.187500 0.187500 0.115625
0.256250 0.187500 0.115625
0.325000 0.187500 0.115625
0.393750 0.187500 0.115625
0.462500 0.187500 0.115625
0.531250 0.187500 0.115625
0.600000 0.187500 0.115625
0.668750 0.187500 0.115625
0.737500 0.187500 0.115625
0.806250 0.187500 0.115625
0.875000 0.187500 0.115625
0.943750 0.187500 0.115625
1.000000 0.187500 0.115625
1.000000 0.187500 0.115625
1.000000 0.187500 0.115625
0.050000 0.256250 0.115625
0.118750 0.256250 0.115625
0.187500 0.256250 0.115625
0.256250 0.256250 0.115625
0.325000 0.256250 0.115625
0.393750 0.256250 0.115625
0.462500 0.256250 0.115625
0.531250 0.256250 0.115625
0.600000 0.256250 0.115625
0.668750 0.256250 0.115625
0.737500 0.256250 0.115625
0.806250 0.256250 0.115625
0.875000 0.256250 0.115625
0.943750 0.256250 0.115625
1.000000 0.256250 0.115625
1.000000 0.256250 0.115625
1.000000 0.256250 0.115625
0.050000 0.325000 0.115625
0.118750 0.325000 0.115625
0.187500 0.325000 0.115625
0.256250 0.325000 0.115625
0.325000 0.325000 0.115625
0.393750 0.325000 0.115625
0.462500 0.325000 0.115625
0.531250 0.325000 0.115625
0.600000 0.325000 0.115625
0.668750 0.325000 0.115625
0.737500 0.325000 0.115625
0.806250 0.325000 0.115625
0.875000 0.325000 0.115625
0.943750 0.325000 0.115625
1.000000 0.325000 0.115625
1.000000 0.325000 0.115625
1.000000 0.325000 0.115625
0.050000 0.393750 0.115625
0.118750 0.393750 0.115625
0.187500 0.393750 0.115625
0.256250 0.393750 0.115625
0.325000 0.393750 0.115625
0.393750 0.393750 0.115625
0.462500 0.393750 0.115625
0.531250 0.393750 0.115625
0.600000 0.393750 0.115625
0.668750 0.393750 0.115625
0.737500 0.393750 0.115625
0.806250 0.393750 0.115625
0.875000 0.393750 0.115625
0.943750 0.393750 0.115625
1.000000 0.393750 0.115625
1.000000 0.393750 0.115625
1.000000 0.393750 0.115625
0.050000 0.462500 0.115625
0.118750 0.462500 0.115625
0.187500 0.462500 0.115625
0.256250 0.462500 0.115625
0.325000 0.462500 0.115625
0.393750 0.462500 0.115625
0.462500 0.462500 0.115625
0.531250 0.462500 0.115625
0.600000 0.462500 0.115625
0.668750 0.462500 0.115625
0.737500 0.462500 0.115625
0.806250 0.462500 0.115625
0.875000 0.462500 0.115625
0.943750 0.462500 0.115625
1.000000 0.462500 0.115625
1.000000 0.462500 0.115625
1.000000 0.462500 0.115625
0.050000 0.531250 0.115625
0.118750 0.531250 0.115625
0.187500 0.531250 0.115625
0.256250 0.531250 0.115625
0.325000 0.531250 0.115625
0.393750 0.531250 0.115625
0.462500 0.531250 0.115625
0.531250 0.531250 0.115625
0.600000 0.531250 0.115625
0.668750 0.531250 0.115625
0.737500 0.531250 0.115625
0.806250 0.531250 0.115625
0.875000 0.531250 0.115625
0.943750 0.531250 0.115625
1.000000 0.531250 0.115625
1.000000 0.531250 0.115625
1.000000 0.531250 0.115625
0.050000 0.600000 0.115625
0.118750 0.600000 0.115625
0.187500 0.600000 0.115625
0.256250 0.600000 0.115625
0.325000 0.600000 0.115625
0.393750 0.600000 0.115625
0.462500 0.600000 0.115625
0.531250 0.600000 0.115625
0.600000 0.600000 0.115625
0.668750 0.600000 0.115625
0.737500 0.600000 0.115625
0.806250 0.600000 0.115625
0.875000 0.600000 0.115625
0.943750 0.600000 0.115625
1.000000 0.600000 0.115625
1.000000 0.600000 0.115625
1.000000 0.600000 0.115625
0.050000 0.668750 0.115625
0.118750 0.668750 0.115625
0.187500 0.668750 0.115625
0.256250 0.668750 0.115625
0.325000 0.668750 0.115625
0.393750 0.668750 0.115625
0.462500 0.668750 0.115625
0.531250 0.668750 0.115625
0.600000 0.668750 0.115625
0.668750 0.668750 0.115625
0.737500 0.668750 0.115625
0.806250 0.668750 0.115625
0.875000 0.668750 0.115625
0.943750 0.668750 0.115625
1.000000 0.668750 0.115625
1.000000 0.668750 0.115625
1.000000 0.668750 0.115625
0.050000 0.737500 0.115625
0.118750 0.737500 0.115625
0.187500 0.737500 0.115625
0.256250 0.737500 0.115625
0.325000 0.737500 0.115625
0.393750 0.737500 0.115625
0.462500 0.737500 0.115625
0.531250 0.737500 0.115625
0.600000 0.737500 0.115625
0.668750 0.737500 0.115625
0.737500 0.737500 0.115625
0.806250 0.737500 0.115625
0.875000 0.737500 0.115625
0.943750 0.737500 0.115625
1.000000 0.737500 0.115625
1.000000 0.737500 0.115625
1.000000 0.737500 0.115625
0.050000 0.806250 0.115625
0.118750 0.806250 0.115625
0.187500 0.806250 0.115625
0.256250 0.806250 0.115625
0.325000 0.806250 0.115625
0.393750 0.806250 0.115625
0.462500 0.806250 0.115625
0.531250 0.806250 0.115625
0.600000 0.806250 0.115625
0.668750 0.806250 0.115625
0.737500 0.806250 0.115625
0.806250 0.806250 0.115625
0.875000 0.806250 0.115625
0.943750 0.806250 0.115625
1.000000 0.806250 0.115625
1.000000 0.806250 0.115625
1.000000 0.806250 0.115625
0.050000 0.875000 0.115625
0.118750 0.875000 0.115625
0.187500 0.875000 0.115625
0.256250 0.875000 0.115625
0.325000 0.875000 0.115625
0.393750 0.875000 0.115625
0.462500 0.875000 0.115625
0.531250 0.875000 0.115625
0.600000 0.875000 0.115625
0.668750 0.875000 0.115625
0.737500 0.875000 0.115625
0.806250 0.875000 0.115625
0.875000 0.875000 0.115625
0.943750 0.875000 0.115625
1.000000 0.875000 0.115625
1.000000 0.875000 0.115625
1.000000 0.875000 0.115625
0.050000 0.943750 0.115625
0.118750 0.943750 0.115625
0.187500 0.943750 0.115625
0.256250 0.943750 0.115625
0.325000 0.943750 0.115625
0.393750 0.943750 0.115625
0.462500 0.943750 0.115625
0.531250 0.943750 0.115625
0.600000 0.943750 0.115625
0.668750 0.943750 0.115625
0.737500 0.943750 0.115625
0.806250 0.943750 0.115625
0.875000 0.943750 0.115625
0.943750 0.943750 0.115625
1.000000 0.943750 0.115625
1.000000 0.943750 0.115625
1.000000 0.943750 0.115625
0.050000 1.000000 0.115625
0.118750 1.000000 0.115625
0.187500 1.000000 0.115625
0.256250 1.000000 0.115625
0.325000 1.000000 0.115625
0.393750 1.000000 0.115625
0.462500 1.000000 0.115625
0.531250 1.000000 0.115625
0.600000 1.000000 0.115625
0.668750 1.000000 0.115625
0.737500 1.000000 0.115625
0.806250 1.000000 0.115625
0.875000 1.000000 0.115625
0.943750 1.000000 0.115625
1.000000 1.000000 0.115625
1.000000 1.000000 0.115625
1.000000 1.000000 0.115625
0.050000 1.000000 0.115625
0.118750 1.000000 0.115625
0.187500 1.000000 0.115625
0.256250 1.000000 0.115625
0.325000 1.000000 0.115625
0.393750 1.000000 0.115625
0.462500 1.000000 0.115625
0.531250 1.000000 0.115625
0.600000 1.000000 0.115625
0.668750 1.000000 0.115625
0.737500 1.000000 0.115625
0.806250 1.000000 0.115625
0.875000 1.000000 0.115625
0.943750 1.000000 0.115625
1.000000 1.000000 0.115625
1.000000 1.000000 0.115625
1.000000 1.000000 0.115625
0.050000 1.000000 0.115625
0.118750 1.000000 0.115625
0.187500 1.000000 0.115625
0.256250 1.000000 0.115625
0.325000 1.000000 0.115625
0.393750 1.000000 0.115625
0.462500 1.000000 0.115625
0.531250 1.000000 0.115625
0.600000 1.000000 0.115625
0.668750 1.000000 0.115625
0.737500 1.000000 0.115625
0.806250 1.000000 0.115625
0.875000 1.000000 0.115625
0.943750 1.000000 0.115625
1.000000 1.000000 0.115625
1.000000 1.000000 0.115625
1.000000 1.000000 0.115625
0.050000 0.050000 0.181250
0.118750 0.050000 0.181250
0.187500 0.050000 0.181250
0.256250 0.050000 0.181250
0.325000 0.050000 0.181250
0.393750 0.050000 0.181250
0.462500 0.050000 0.181250
0.531250 0.050000 0.181250
0.600000 0.050000 0.181250
0.668750 0.050000 0.181250
0.737500 0.050000 0.181250
0.806250 0.050000 0.181250
0.875000 0.050000 0.181250
0.943750 0.050000 0.181250
1.000000 0.050000 0.181250
1.000000 0.050000 0.181250
1.000000 0.050000 0.181250
0.050000 0.118750 0.181250
0.118750 0.118750 0.181250
0.187500 0.118750 0.181250
0.256250 0.118750 0.181250
0.325000 0.118750 0.181250
0.393750 0.118750 0.181250
0.462500 0.118750 0.181250
0.531250 0.118750 0.181250
0.600000 0.118750 0.181250
0.668750 0.118750 0.181250
0.737500 0.118750 0.181250
0.806250 0.118750 0.181250
0.875000 0.118750 0.181250
0.943750 0.118750 0.181250
1.000000 0.118750 0.181250
1.000000 0.118750 0.181250
1.000000 0.118750 0.181250
0.050000 0.187500 0.181250
0.118750 0.187500 0.181250
0.187500 0.187500 0.181250
0.256250 0.187500 0.181250
0.325000 0.187500 0.181250
0.393750 0.187500 0.181250
0.462500 0.187500 0.181250
0.531250 0.187500 0.181250
0.600000 0.187500 0.181250
0.668750 0.187500 0.181250
0.737500 0.187500 0.181250
0.806250 0.187500 0.181250
0.875000 0.187500 0.181250
0.943750 0.187500 0.181250
1.000000 0.187500 0.181250
1.000000 0.187500 0.181250
1.000000 0.187500 0.181250
0.050000 0.256250 0.181250
0.118750 0.256250 0.181250
0.187500 0.256250 0.181250
0.256250 0.256250 0.181250
0.325000 0.256250 0.181250
0.393750 0.256250 0.181250
0.462500 0.256250 0.181250
0.531250 0.256250 0.181250
0.600000 0.256250 0.181250
0.668750 0.256250 0.181250
0.737500 0.256250 0.181250
0.806250 0.256250 0.181250
0.875000 0.256250 0.181250
0.943750 0.256250 0.181250
1.000000 0.256250 0.181250
1.000000 0.256250 0.181250
1.000000 0.256250 0.181250
0.050000 0.325000 0.181250
0.118750 0.325000 0.181250
0.187500 0.325000 0.181250
0.256250 0.325000 0.181250
0.325000 0.325000 0.181250
0.393750 0.325000 0.181250
0.462500 0.325000 0.181250
0.531250 0.325000 0.181250
0.600000 0.325000 0.181250
0.668750 0.325000 0.181250
0.737500 0.325000 0.181250
0.806250 0.325000 0.181250
0.875000 0.325000 0.181250
0.943750 0.325000 0.181250
1.000000 0.325000 0.181250
1.000000 0.325000 0.181250
1.000000 0.325000 0.181250
0.050000 0.393750 0.181250
0.118750 0.393750 0.181250
0.187500 0.393750 0.181250
0.256250 0.393750 0.181250
0.325000 0.393750 0.181250
0.393750 0.393750 0.181250
0.462500 0.393750 0.181250
0.531250 0.393750 0.181250
0.600000 0.393750 0.181250
0.668750 0.393750 0.181250
0.737500 0.393750 0.181250
0.806250 0.393750 0.181250
0.875000 0.393750 0.181250
0.943750 0.393750 0.181250
1.000000 0.393750 0.181250
1.000000 0.393750 0.181250
1.000000 0.393750 0.181250
0.050000 0.462500 0.181250
0.118750 0.462500 0.181250
0.187500 0.462500 0.181250
0.256250 0.462500 0.181250
0.325000 0.462500 0.181250
0.393750 0.462500 0.181250
0.462500 0.462500 0.181250
0.531250 0.462500 0.181250
0.600000 0.462500 0.181250
0.668750 0.462500 0.181250
0.737500 0.462500 0.181250
0.806250 0.462500 0.181250
0.875000 0.462500 0.181250
0.943750 0.462500 0.181250
1.000000 0.462500 0.181250
1.000000 0.462500 0.181250
1.000000 0.462500 0.181250
0.050000 0.531250 0.181250
0.118750 0.531250 0.181250
0.187500 0.531250 0.181250
0.256250 0.531250 0.181250
0.325000 0.531250 0.181250
0.393750 0.531250 0.181250
0.462500 0.531250 0.181250
0.531250 0.531250 0.181250
0.600000 0.531250 0.181250
0.668750 0.531250 0.181250
0.737500 0.531250 0.181250
0.806250 0.531250 0.181250
0.875000 0.531250 0.181250
0.943750 0.531250 0.181250
1.000000 0.531250 0.181250
1.000000 0.531250 0.181250
1.000000 0.531250 0.181250
0.050000 0.600000 0.181250
0.118750 0.600000 0.181250
0.187500 0.600000 0.181250
0.256250 0.600000 0.181250
0.325000 0.600000 0.181250
0.393750 0.600000 0.181250
0.462500 0.600000 0.181250
0.531250 0.600000 0.181250
0.600000 0.600000 0.181250
0.668750 0.600000 0.181250
0.737500 0.600000 0.181250
0.806250 0.600000 0.181250
0.875000 0.600000 0.181250
0.943750 0.600000 0.181250
1.000000 0.600000 0.181250
1.000000 0.600000 0.181250
1.000000 0.600000 0.181250
0.050000 0.668750 0.181250
0.118750 0.668750 0.181250
0.187500 0.668750 0.181250
0.256250 0.668750 0.181250
0.325000 0.668750 0.181250
0.393750 0.668750 0.181250
0.462500 0.668750 0.181250
0.531250 0.668750 0.181250
0.600000 0.668750 0.181250
0.668750 0.668750 0.181250
0.737500 0.668750 0.181250
0.806250 0.668750 0.181250
0.875000 0.668750 0.181250
0.943750 0.668750 0.181250
1.000000 0.668750 0.181250
1.000000 0.668750 0.181250
1.000000 0.668750 0.181250
0.050000 0.737500 0.181250
0.118750 0.737500 0.181250
0.187500 0.737500 0.181250
0.256250 0.737500 0.181250
0.325000 0.737500 0.181250
0.393750 0.737500 0.181250
0.462500 0.737500 0.181250
0.531250 0.737500 0.181250
0.600000 0.737500 0.181250
0.668750 0.737500 0.181250
0.737500 0.737500 0.181250
0.806250 0.737500 0.181250
0.875000 0.737500 0.181250
0.943750 0.737500 0.181250
1.000000 0.737500 0.181250
1.000000 0.737500 0.181250
1.000000 0.737500 0.181250
0.050000 0.806250 0.181250
0.118750 0.806250 0.181250
0.187500 0.806250 0.181250
0.256250 0.806250 0.181250
0.325000 0.806250 0.181250
0.393750 0.806250 0.181250
0.462500 0.806250 0.181250
0.531250 0.806250 0.181250
0.600000 0.806250 0.181250
0.668750 0.806250 0.181250
0.737500 0.806250 0.181250
0.806250 0.806250 0.181250
0.875000 0.806250 0.181250
0.943750 0.806250 0.181250
1.000000 0.806250 0.181250
1.000000 0.806250 0.181250
1.000000 0.806250 0.181250
0.050000 0.875000 0.181250
0.118750 0.875000 0.181250
0.187500 0.875000 0.181250
0.256250 0.875000 0.181250
0.325000 0.875000 0.181250
0.393750 0.875000 0.181250
0.462500 0.875000 0.181250
0.531250 0.875000 0.181250
0.600000 0.875000 0.181250
0.668750 0.875000 0.181250
0.737500 0.875000 0.181250
0.806250 0.875000 0.181250
0.875000 0.875000 0.181250
0.943750 0.875000 0.181250
1.000000 0.875000 0.181250
1.000000 0.875000 0.181250
1.000000 0.875000 0.181250
0.050000 0.943750 0.181250
0.118750 0.943750 0.181250
0.187500 0.943750 0.181250
0.256250 0.943750 0.181250
0.325000 0.943750 0.181250
0.393750 0.943750 0.181250
0.462500 0.943750 0.181250
0.531250 0.943750 0.181250
0.600000 0.943750 0.181250
0.668750 0.943750 0.181250
0.737500 0.943750 0.181250
0.806250 0.943750 0.181250
0.875000 0.943750 0.181250
0.943750 0.943750 0.181250
1.000000 0.943750 0.181250
1.000000 0.943750 0.181250
1.000000 0.943750 0.181250
0.050000 1.000000 0.181250
0.118750 1.000000 0.181250
0.187500 1.000000 0.181250
0.256250 1.000000 0.181250
0.325000 1.000000 0.181250
0.393750 1.000000 0.181250
0.462500 1.000000 0.181250
0.531250 1.000000 0.181250
0.600000 1.000000 0.181250
0.668750 1.000000 0.181250
0.737500 1.000000 0.181250
0.806250 1.000000 0.181250
0.875000 1.000000 0.181250
0.943750 1.000000 0.181250
1.000000 1.000000 0.181250
1.000000 1.000000 0.181250
1.000000 1.000000 0.181250
0.050000 1.000000 0.181250
0.118750 1.000000 0.181250
0.187500 1.000000 0.181250
0.256250 1.000000 0.181250
0.325000 1.000000 0.181250
0.393750 1.000000 0.181250
0.462500 1.000000 0.181250
0.531250 1.000000 0.181250
0.600000 1.000000 0.181250
0.668750 1.000000 0.181250
0.737500 1.000000 0.181250
0.806250 1.000000 0.181250
0.875000 1.000000 0.181250
0.943750 1.000000 0.181250
1.000000 1.000000 0.181250
1.000000 1.000000 0.181250
1.000000 1.000000 0.181250
0.050000 1.000000 0.181250
0.118750 1.000000 0.181250
0.187500 1.000000 0.181250
0.256250 1.000000 0.181250
0.325000 1.000000 0.181250
0.393750 1.000000 0.181250
0.462500 1.000000 0.181250
0.531250 1.000000 0.181250
0.600000 1.000000 0.181250
0.668750 1.000000 0.181250
0.737500 1.000000 0.181250
0.806250 1.000000 0.181250
0.875000 1.000000 0.181250
0.943750 1.000000 0.181250
1.000000 1.000000 0.181250
1.000000 1.000000 0.181250
1.000000 1.000000 0.181250
0.050000 0.050000 0.246875
0.118750 0.050000 0.246875
0.187500 0.050000 0.246875
0.256250 0.050000 0.246875
0.325000 0.050000 0.246875
0.393750 0.050000 0.246875
0.462500 0.050000 0.246875
0.531250 0.050000 0.246875
0.600000 0.050000 0.246875
0.668750 0.050000 0.246875
0.737500 0.050000 0.246875
0.806250 0.050000 0.246875
0.875000 0.050000 0.246875
0.943750 0.050000 0.246875
1.000000 0.050000 0.246875
1.000000 0.050000 0.246875
1.000000 0.050000 0.246875
0.050000 0.118750 0.246875
0.118750 0.118750 0.246875
0.187500 0.118750 0.246875
