server/assets/luts/bright.cube
TITLE "Bright"
LUT_3D_SIZE 5
0.050000 0.050000 0.050000
0.325000 0.050000 0.050000
0.600000 0.050000 0.050000
0.875000 0.050000 0.050000
1.000000 0.050000 0.050000
0.050000 0.325000 0.050000
0.325000 0.325000 0.050000
0.600000 0.325000 0.050000
0.875000 0.325000 0.050000
1.000000 0.325000 0.050000
0.050000 0.600000 0.050000
0.325000 0.600000 0.050000
0.600000 0.600000 0.050000
0.875000 0.600000 0.050000
1.000000 0.600000 0.050000
0.050000 0.875000 0.050000
0.325000 0.875000 0.050000
0.600000 0.875000 0.050000
0.875000 0.875000 0.050000
1.000000 0.875000 0.050000
0.050000 1.000000 0.050000
0.325000 1.000000 0.050000
0.600000 1.000000 0.050000
0.875000 1.000000 0.050000
1.000000 1.000000 0.050000
0.050000 0.050000 0.312500
0.325000 0.050000 0.312500
0.600000 0.050000 0.312500
0.875000 0.050000 0.312500
1.000000 0.050000 0.312500
0.050000 0.325000 0.312500
0.325000 0.325000 0.312500
0.600000 0.325000 0.312500
0.875000 0.325000 0.312500
1.000000 0.325000 0.312500
0.050000 0.600000 0.312500
0.325000 0.600000 0.312500
0.600000 0.600000 0.312500
0.875000 0.600000 0.312500
1.000000 0.600000 0.312500
0.050000 0.875000 0.312500
0.325000 0.875000 0.312500
0.600000 0.875000 0.312500
0.875000 0.875000 0.312500
1.000000 0.875000 0.312500
0.050000 1.000000 0.312500
0.325000 1.000000 0.312500
0.600000 1.000000 0.312500
0.875000 1.000000 0.312500
1.000000 1.000000 0.312500
0.050000 0.050000 0.575000
0.325000 0.050000 0.575000
0.600000 0.050000 0.575000
0.875000 0.050000 0.575000
1.000000 0.050000 0.575000
0.050000 0.325000 0.575000
0.325000 0.325000 0.575000
0.600000 0.325000 0.575000
0.875000 0.325000 0.575000
1.000000 0.325000 0.575000
0.050000 0.600000 0.575000
0.325000 0.600000 0.575000
0.600000 0.600000 0.575000
0.875000 0.600000 0.575000
1.000000 0.600000 0.575000
0.050000 0.875000 0.575000
0.325000 0.875000 0.575000
0.600000 0.875000 0.575000
0.875000 0.875000 0.575000
1.000000 0.875000 0.575000
0.050000 1.000000 0.575000
0.325000 1.000000 0.575000
0.600000 1.000000 0.575000
0.875000 1.000000 0.575000
1.000000 1.000000 0.575000
0.050000 0.050000 0.837500
0.325000 0.050000 0.837500
0.600000 0.050000 0.837500
0.875000 0.050000 0.837500
1.000000 0.050000 0.837500
0.050000 0.325000 0.837500
0.325000 0.325000 0.837500
0.600000 0.325000 0.837500
0.875000 0.325000 0.837500
1.000000 0.325000 0.837500
0.050000 0.600000 0.837500
0.325000 0.600000 0.837500
0.600000 0.600000 0.837500
0.875000 0.600000 0.837500
1.000000 0.600000 0.837500
0.050000 0.875000 0.837500
0.325000 0.875000 0.837500
0.600000 0.875000 0.837500
0.875000 0.875000 0.837500
1.000000 0.875000 0.837500
0.050000 1.000000 0.837500
0.325000 1.000000 0.837500
0.600000 1.000000 0.837500
0.875000 1.000000 0.837500
1.000000 1.000000 0.837500
0.050000 0.050000 1.000000
0.325000 0.050000 1.000000
0.600000 0.050000 1.000000
0.875000 0.050000 1.000000
1.000000 0.050000 1.000000
0.050000 0.325000 1.000000
0.325000 0.325000 1.000000
0.600000 0.325000 1.000000
0.875000 0.325000 1.000000
1.000000 0.325000 1.000000
0.050000 0.600000 1.000000
0.325000 0.600000 1.000000
0.600000 0.600000 1.000000
0.875000 0.600000 1.000000
1.000000 0.600000 1.000000
0.050000 0.875000 1.000000
0.325000 0.875000 1.000000
0.600000 0.875000 1.000000
0.875000 0.875000 1.000000
1.000000 0.875000 1.000000
0.050000 1.000000 1.000000
0.325000 1.000000 1.000000
0.600000 1.000000 1.000000
0.875000 1.000000 1.000000
1.000000 1.000000 1.000000
