server/assets/luts/cinematic.cube
TITLE "Cinematic"
LUT_3D_SIZE 5
0.020000 0.000000 0.050000
0.295000 0.000000 0.050000
0.570000 0.000000 0.050000
0.845000 0.000000 0.050000
1.000000 0.000000 0.050000
0.020000 0.237500 0.050000
0.295000 0.237500 0.050000
0.570000 0.237500 0.050000
0.845000 0.237500 0.050000
1.000000 0.237500 0.050000
0.020000 0.475000 0.050000
0.295000 0.475000 0.050000
0.570000 0.475000 0.050000
0.845000 0.475000 0.050000
1.000000 0.475000 0.050000
0.020000 0.712500 0.050000
0.295000 0.712500 0.050000
0.570000 0.712500 0.050000
0.845000 0.712500 0.050000
1.000000 0.712500 0.050000
0.020000 0.950000 0.050000
0.295000 0.950000 0.050000
0.570000 0.950000 0.050000
0.845000 0.950000 0.050000
1.000000 0.950000 0.050000
0.020000 0.000000 0.275000
0.295000 0.000000 0.275000
0.570000 0.000000 0.275000
0.845000 0.000000 0.275000
1.000000 0.000000 0.275000
0.020000 0.237500 0.275000
0.295000 0.237500 0.275000
0.570000 0.237500 0.275000
0.845000 0.237500 0.275000
1.000000 0.237500 0.275000
0.020000 0.475000 0.275000
0.295000 0.475000 0.275000
0.570000 0.475000 0.275000
0.845000 0.475000 0.275000
1.000000 0.475000 0.275000
0.020000 0.712500 0.275000
0.295000 0.712500 0.275000
0.570000 0.712500 0.275000
0.845000 0.712500 0.275000
1.000000 0.712500 0.275000
0.020000 0.950000 0.275000
0.295000 0.950000 0.275000
0.570000 0.950000 0.275000
0.845000 0.950000 0.275000
1.000000 0.950000 0.275000
0.020000 0.000000 0.500000
0.295000 0.000000 0.500000
0.570000 0.000000 0.500000
0.845000 0.000000 0.500000
1.000000 0.000000 0.500000
0.020000 0.237500 0.500000
0.295000 0.237500 0.500000
0.570000 0.237500 0.500000
0.845000 0.237500 0.500000
1.000000 0.237500 0.500000
0.020000 0.475000 0.500000
0.295000 0.475000 0.500000
0.570000 0.475000 0.500000
0.845000 0.475000 0.500000
1.000000 0.475000 0.500000
0.020000 0.712500 0.500000
0.295000 0.712500 0.500000
0.570000 0.712500 0.500000
0.845000 0.712500 0.500000
1.000000 0.712500 0.500000
0.020000 0.950000 0.500000
0.295000 0.950000 0.500000
0.570000 0.950000 0.500000
0.845000 0.950000 0.500000
1.000000 0.950000 0.500000
0.020000 0.000000 0.725000
0.295000 0.000000 0.725000
0.570000 0.000000 0.725000
0.845000 0.000000 0.725000
1.000000 0.000000 0.725000
0.020000 0.237500 0.725000
0.295000 0.237500 0.725000
0.570000 0.237500 0.725000
0.845000 0.237500 0.725000
1.000000 0.237500 0.725000
0.020000 0.475000 0.725000
0.295000 0.475000 0.725000
0.570000 0.475000 0.725000
0.845000 0.475000 0.725000
1.000000 0.475000 0.725000
0.020000 0.712500 0.725000
0.295000 0.712500 0.725000
0.570000 0.712500 0.725000
0.845000 0.712500 0.725000
1.000000 0.712500 0.725000
0.020000 0.950000 0.725000
0.295000 0.950000 0.725000
0.570000 0.950000 0.725000
0.845000 0.950000 0.725000
1.000000 0.950000 0.725000
0.020000 0.000000 0.950000
0.295000 0.000000 0.950000
0.570000 0.000000 0.950000
0.845000 0.000000 0.950000
1.000000 0.000000 0.950000
0.020000 0.237500 0.950000
0.295000 0.237500 0.950000
0.570000 0.237500 0.950000
0.845000 0.237500 0.950000
1.000000 0.237500 0.950000
0.020000 0.475000 0.950000
0.295000 0.475000 0.950000
0.570000 0.475000 0.950000
0.845000 0.475000 0.950000
1.000000 0.475000 0.950000
0.020000 0.712500 0.950000
0.295000 0.712500 0.950000
0.570000 0.712500 0.950000
0.845000 0.712500 0.950000
1.000000 0.712500 0.950000
0.020000 0.950000 0.950000
0.295000 0.950000 0.950000
0.570000 0.950000 0.950000
0.845000 0.950000 0.950000
1.000000 0.950000 0.950000
