server/assets/luts/cinematic.cube
TITLE "Cinematic"
LUT_3D_SIZE 17
0.020000 0.000000 0.050000
0.088750 0.000000 0.050000
0.157500 0.000000 0.050000
0.226250 0.000000 0.050000
0.295000 0.000000 0.050000
0.363750 0.000000 0.050000
0.432500 0.000000 0.050000
0.501250 0.000000 0.050000
0.570000 0.000000 0.050000
0.638750 0.000000 0.050000
0.707500 0.000000 0.050000
0.776250 0.000000 0.050000
0.845000 0.000000 0.050000
0.913750 0.000000 0.050000
0.982500 0.000000 0.050000
1.000000 0.000000 0.050000
1.000000 0.000000 0.050000
0.020000 0.059375 0.050000
0.088750 0.059375 0.050000
0.157500 0.059375 0.050000
0.226250 0.059375 0.050000
0.295000 0.059375 0.050000
0.363750 0.059375 0.050000
0.432500 0.059375 0.050000
0.501250 0.059375 0.050000
0.570000 0.059375 0.050000
0.638750 0.059375 0.050000
0.707500 0.059375 0.050000
0.776250 0.059375 0.050000
0.845000 0.059375 0.050000
0.913750 0.059375 0.050000
0.982500 0.059375 0.050000
1.000000 0.059375 0.050000
1.000000 0.059375 0.050000
0.020000 0.118750 0.050000
0.088750 0.118750 0.050000
0.157500 0.118750 0.050000
0.226250 0.118750 0.050000
0.295000 0.118750 0.050000
0.363750 0.118750 0.050000
0.432500 0.118750 0.050000
0.501250 0.118750 0.050000
0.570000 0.118750 0.050000
0.638750 0.118750 0.050000
0.707500 0.118750 0.050000
0.776250 0.118750 0.050000
0.845000 0.118750 0.050000
0.913750 0.118750 0.050000
0.982500 0.118750 0.050000
1.000000 0.118750 0.050000
1.000000 0.118750 0.050000
0.020000 0.178125 0.050000
0.088750 0.178125 0.050000
0.157500 0.178125 0.050000
0.226250 0.178125 0.050000
0.295000 0.178125 0.050000
0.363750 0.178125 0.050000
0.432500 0.178125 0.050000
0.501250 0.178125 0.050000
0.570000 0.178125 0.050000
0.638750 0.178125 0.050000
0.707500 0.178125 0.050000
0.776250 0.178125 0.050000
0.845000 0.178125 0.050000
0.913750 0.178125 0.050000
0.982500 0.178125 0.050000
1.000000 0.178125 0.050000
1.000000 0.178125 0.050000
0.020000 0.237500 0.050000
0.088750 0.237500 0.050000
0.157500 0.237500 0.050000
0.226250 0.237500 0.050000
0.295000 0.237500 0.050000
0.363750 0.237500 0.050000
0.432500 0.237500 0.050000
0.501250 0.237500 0.050000
0.570000 0.237500 0.050000
0.638750 0.237500 0.050000
0.707500 0.237500 0.050000
0.776250 0.237500 0.050000
0.845000 0.237500 0.050000
0.913750 0.237500 0.050000
0.982500 0.237500 0.050000
1.000000 0.237500 0.050000
1.000000 0.237500 0.050000
0.020000 0.296875 0.050000
0.088750 0.296875 0.050000
0.157500 0.296875 0.050000
0.226250 0.296875 0.050000
0.295000 0.296875 0.050000
0.363750 0.296875 0.050000
0.432500 0.296875 0.050000
0.501250 0.296875 0.050000
0.570000 0.296875 0.050000
0.638750 0.296875 0.050000
0.707500 0.296875 0.050000
0.776250 0.296875 0.050000
0.845000 0.296875 0.050000
0.913750 0.296875 0.050000
0.982500 0.296875 0.050000
1.000000 0.296875 0.050000
1.000000 0.296875 0.050000
0.020000 0.356250 0.050000
0.088750 0.356250 0.050000
0.157500 0.356250 0.050000
0.226250 0.356250 0.050000
0.295000 0.356250 0.050000
0.363750 0.356250 0.050000
0.432500 0.356250 0.050000
0.501250 0.356250 0.050000
0.570000 0.356250 0.050000
0.638750 0.356250 0.050000
0.707500 0.356250 0.050000
0.776250 0.356250 0.050000
0.845000 0.356250 0.050000
0.913750 0.356250 0.050000
0.982500 0.356250 0.050000
1.000000 0.356250 0.050000
1.000000 0.356250 0.050000
0.020000 0.415625 0.050000
0.088750 0.415625 0.050000
0.157500 0.415625 0.050000
0.226250 0.415625 0.050000
0.295000 0.415625 0.050000
0.363750 0.415625 0.050000
0.432500 0.415625 0.050000
0.501250 0.415625 0.050000
0.570000 0.415625 0.050000
0.638750 0.415625 0.050000
0.707500 0.415625 0.050000
0.776250 0.415625 0.050000
0.845000 0.415625 0.050000
0.913750 0.415625 0.050000
0.982500 0.415625 0.050000
1.000000 0.415625 0.050000
1.000000 0.415625 0.050000
0.020000 0.475000 0.050000
0.088750 0.475000 0.050000
0.157500 0.475000 0.050000
0.226250 0.475000 0.050000
0.295000 0.475000 0.050000
0.363750 0.475000 0.050000
0.432500 0.475000 0.050000
0.501250 0.475000 0.050000
0.570000 0.475000 0.050000
0.638750 0.475000 0.050000
0.707500 0.475000 0.050000
0.776250 0.475000 0.050000
0.845000 0.475000 0.050000
0.913750 0.475000 0.050000
0.982500 0.475000 0.050000
1.000000 0.475000 0.050000
1.000000 0.475000 0.050000
0.020000 0.534375 0.050000
0.088750 0.534375 0.050000
0.157500 0.534375 0.050000
0.226250 0.534375 0.050000
0.295000 0.534375 0.050000
0.363750 0.534375 0.050000
0.432500 0.534375 0.050000
0.501250 0.534375 0.050000
0.570000 0.534375 0.050000
0.638750 0.534375 0.050000
0.707500 0.534375 0.050000
0.776250 0.534375 0.050000
0.845000 0.534375 0.050000
0.913750 0.534375 0.050000
0.982500 0.534375 0.050000
1.000000 0.534375 0.050000
1.000000 0.534375 0.050000
0.020000 0.593750 0.050000
0.088750 0.593750 0.050000
0.157500 0.593750 0.050000
0.226250 0.593750 0.050000
0.295000 0.593750 0.050000
0.363750 0.593750 0.050000
0.432500 0.593750 0.050000
0.501250 0.593750 0.050000
0.570000 0.593750 0.050000
0.638750 0.593750 0.050000
0.707500 0.593750 0.050000
0.776250 0.593750 0.050000
0.845000 0.593750 0.050000
0.913750 0.593750 0.050000
0.982500 0.593750 0.050000
1.000000 0.593750 0.050000
1.000000 0.593750 0.050000
0.020000 0.653125 0.050000
0.088750 0.653125 0.050000
0.157500 0.653125 0.050000
0.226250 0.653125 0.050000
0.295000 0.653125 0.050000
0.363750 0.653125 0.050000
0.432500 0.653125 0.050000
0.501250 0.653125 0.050000
0.570000 0.653125 0.050000
0.638750 0.653125 0.050000
0.707500 0.653125 0.050000
0.776250 0.653125 0.050000
0.845000 0.653125 0.050000
0.913750 0.653125 0.050000
0.982500 0.653125 0.050000
1.000000 0.653125 0.050000
1.000000 0.653125 0.050000
0.020000 0.712500 0.050000
0.088750 0.712500 0.050000
0.157500 0.712500 0.050000
0.226250 0.712500 0.050000
0.295000 0.712500 0.050000
0.363750 0.712500 0.050000
0.432500 0.712500 0.050000
0.501250 0.712500 0.050000
0.570000 0.712500 0.050000
0.638750 0.712500 0.050000
0.707500 0.712500 0.050000
0.776250 0.712500 0.050000
0.845000 0.712500 0.050000
0.913750 0.712500 0.050000
0.982500 0.712500 0.050000
1.000000 0.712500 0.050000
1.000000 0.712500 0.050000
0.020000 0.771875 0.050000
0.088750 0.771875 0.050000
0.157500 0.771875 0.050000
0.226250 0.771875 0.050000
0.295000 0.771875 0.050000
0.363750 0.771875 0.050000
0.432500 0.771875 0.050000
0.501250 0.771875 0.050000
0.570000 0.771875 0.050000
0.638750 0.771875 0.050000
0.707500 0.771875 0.050000
0.776250 0.771875 0.050000
0.845000 0.771875 0.050000
0.913750 0.771875 0.050000
0.982500 0.771875 0.050000
1.000000 0.771875 0.050000
1.000000 0.771875 0.050000
0.020000 0.831250 0.050000
0.088750 0.831250 0.050000
0.157500 0.831250 0.050000
0.226250 0.831250 0.050000
0.295000 0.831250 0.050000
0.363750 0.831250 0.050000
0.432500 0.831250 0.050000
0.501250 0.831250 0.050000
0.570000 0.831250 0.050000
0.638750 0.831250 0.050000
0.707500 0.831250 0.050000
0.776250 0.831250 0.050000
0.845000 0.831250 0.050000
0.913750 0.831250 0.050000
0.982500 0.831250 0.050000
1.000000 0.831250 0.050000
1.000000 0.831250 0.050000
0.020000 0.890625 0.050000
0.088750 0.890625 0.050000
0.157500 0.890625 0.050000
0.226250 0.890625 0.050000
0.295000 0.890625 0.050000
0.363750 0.890625 0.050000
0.432500 0.890625 0.050000
0.501250 0.890625 0.050000
0.570000 0.890625 0.050000
0.638750 0.890625 0.050000
0.707500 0.890625 0.050000
0.776250 0.890625 0.050000
0.845000 0.890625 0.050000
0.913750 0.890625 0.050000
0.982500 0.890625 0.050000
1.000000 0.890625 0.050000
1.000000 0.890625 0.050000
0.020000 0.950000 0.050000
0.088750 0.950000 0.050000
0.157500 0.950000 0.050000
0.226250 0.950000 0.050000
0.295000 0.950000 0.050000
0.363750 0.950000 0.050000
0.432500 0.950000 0.050000
0.501250 0.950000 0.050000
0.570000 0.950000 0.050000
0.638750 0.950000 0.050000
0.707500 0.950000 0.050000
0.776250 0.950000 0.050000
0.845000 0.950000 0.050000
0.913750 0.950000 0.050000
0.982500 0.950000 0.050000
1.000000 0.950000 0.050000
1.000000 0.950000 0.050000
0.020000 0.000000 0.106250
0.088750 0.000000 0.106250
0.157500 0.000000 0.106250
0.226250 0.000000 0.106250
0.295000 0.000000 0.106250
0.363750 0.000000 0.106250
0.432500 0.000000 0.106250
0.501250 0.000000 0.106250
0.570000 0.000000 0.106250
0.638750 0.000000 0.106250
0.707500 0.000000 0.106250
0.776250 0.000000 0.106250
0.845000 0.000000 0.106250
0.913750 0.000000 0.106250
0.982500 0.000000 0.106250
1.000000 0.000000 0.106250
1.000000 0.000000 0.106250
0.020000 0.059375 0.106250
0.088750 0.059375 0.106250
0.157500 0.059375 0.106250
0.226250 0.059375 0.106250
0.295000 0.059375 0.106250
0.363750 0.059375 0.106250
0.432500 0.059375 0.106250
0.501250 0.059375 0.106250
0.570000 0.059375 0.106250
0.638750 0.059375 0.106250
0.707500 0.059375 0.106250
0.776250 0.059375 0.106250
0.845000 0.059375 0.106250
0.913750 0.059375 0.106250
0.982500 0.059375 0.106250
1.000000 0.059375 0.106250
1.000000 0.059375 0.106250
0.020000 0.118750 0.106250
0.088750 0.118750 0.106250
0.157500 0.118750 0.106250
0.226250 0.118750 0.106250
0.295000 0.118750 0.106250
0.363750 0.118750 0.106250
0.432500 0.118750 0.106250
0.501250 0.118750 0.106250
0.570000 0.118750 0.106250
0.638750 0.118750 0.106250
0.707500 0.118750 0.106250
0.776250 0.118750 0.106250
0.845000 0.118750 0.106250
0.913750 0.118750 0.106250
0.982500 0.118750 0.106250
1.000000 0.118750 0.106250
1.000000 0.118750 0.106250
0.020000 0.178125 0.106250
0.088750 0.178125 0.106250
0.157500 0.178125 0.106250
0.226250 0.178125 0.106250
0.295000 0.178125 0.106250
0.363750 0.178125 0.106250
0.432500 0.178125 0.106250
0.501250 0.178125 0.106250
0.570000 0.178125 0.106250
0.638750 0.178125 0.106250
0.707500 0.178125 0.106250
0.776250 0.178125 0.106250
0.845000 0.178125 0.106250
0.913750 0.178125 0.106250
0.982500 0.178125 0.106250
1.000000 0.178125 0.106250
1.000000 0.178125 0.106250
0.020000 0.237500 0.106250
0.088750 0.237500 0.106250
0.157500 0.237500 0.106250
0.226250 0.237500 0.106250
0.295000 0.237500 0.106250
0.363750 0.237500 0.106250
0.432500 0.237500 0.106250
0.501250 0.237500 0.106250
0.570000 0.237500 0.106250
0.638750 0.237500 0.106250
0.707500 0.237500 0.106250
0.776250 0.237500 0.106250
0.845000 0.237500 0.106250
0.913750 0.237500 0.106250
0.982500 0.237500 0.106250
1.000000 0.237500 0.106250
1.000000 0.237500 0.106250
0.020000 0.296875 0.106250
0.088750 0.296875 0.106250
0.157500 0.296875 0.106250
0.226250 0.296875 0.106250
0.295000 0.296875 0.106250
0.363750 0.296875 0.106250
0.432500 0.296875 0.106250
0.501250 0.296875 0.106250
0.570000 0.296875 0.106250
0.638750 0.296875 0.106250
0.707500 0.296875 0.106250
0.776250 0.296875 0.106250
0.845000 0.296875 0.106250
0.913750 0.296875 0.106250
0.982500 0.296875 0.106250
1.000000 0.296875 0.106250
1.000000 0.296875 0.106250
0.020000 0.356250 0.106250
0.088750 0.356250 0.106250
0.157500 0.356250 0.106250
0.226250 0.356250 0.106250
0.295000 0.356250 0.106250
0.363750 0.356250 0.106250
0.432500 0.356250 0.106250
0.501250 0.356250 0.106250
0.570000 0.356250 0.106250
0.638750 0.356250 0.106250
0.707500 0.356250 0.106250
0.776250 0.356250 0.106250
0.845000 0.356250 0.106250
0.913750 0.356250 0.106250
0.982500 0.356250 0.106250
1.000000 0.356250 0.106250
1.000000 0.356250 0.106250
0.020000 0.415625 0.106250
0.088750 0.415625 0.106250
0.157500 0.415625 0.106250
0.226250 0.415625 0.106250
0.295000 0.415625 0.106250
0.363750 0.415625 0.106250
0.432500 0.415625 0.106250
0.501250 0.415625 0.106250
0.570000 0.415625 0.106250
0.638750 0.415625 0.106250
0.707500 0.415625 0.106250
0.776250 0.415625 0.106250
0.845000 0.415625 0.106250
0.913750 0.415625 0.106250
0.982500 0.415625 0.106250
1.000000 0.415625 0.106250
1.000000 0.415625 0.106250
0.020000 0.475000 0.106250
0.088750 0.475000 0.106250
0.157500 0.475000 0.106250
0.226250 0.475000 0.106250
0.295000 0.475000 0.106250
0.363750 0.475000 0.106250
0.432500 0.475000 0.106250
0.501250 0.475000 0.106250
0.570000 0.475000 0.106250
0.638750 0.475000 0.106250
0.707500 0.475000 0.106250
0.776250 0.475000 0.106250
0.845000 0.475000 0.106250
0.913750 0.475000 0.106250
0.982500 0.475000 0.106250
1.000000 0.475000 0.106250
1.000000 0.475000 0.106250
0.020000 0.534375 0.106250
0.088750 0.534375 0.106250
0.157500 0.534375 0.106250
0.226250 0.534375 0.106250
0.295000 0.534375 0.106250
0.363750 0.534375 0.106250
0.432500 0.534375 0.106250
0.501250 0.534375 0.106250
0.570000 0.534375 0.106250
0.638750 0.534375 0.106250
0.707500 0.534375 0.106250
0.776250 0.534375 0.106250
0.845000 0.534375 0.106250
0.913750 0.534375 0.106250
0.982500 0.534375 0.106250
1.000000 0.534375 0.106250
1.000000 0.534375 0.106250
0.020000 0.593750 0.106250
0.088750 0.593750 0.106250
0.157500 0.593750 0.106250
0.226250 0.593750 0.106250
0.295000 0.593750 0.106250
0.363750 0.593750 0.106250
0.432500 0.593750 0.106250
0.501250 0.593750 0.106250
0.570000 0.593750 0.106250
0.638750 0.593750 0.106250
0.707500 0.593750 0.106250
0.776250 0.593750 0.106250
0.845000 0.593750 0.106250
0.913750 0.593750 0.106250
0.982500 0.593750 0.106250
1.000000 0.593750 0.106250
1.000000 0.593750 0.106250
0.020000 0.653125 0.106250
0.088750 0.653125 0.106250
0.157500 0.653125 0.106250
0.226250 0.653125 0.106250
0.295000 0.653125 0.106250
0.363750 0.653125 0.106250
0.432500 0.653125 0.106250
0.501250 0.653125 0.106250
0.570000 0.653125 0.106250
0.638750 0.653125 0.106250
0.707500 0.653125 0.106250
0.776250 0.653125 0.106250
0.845000 0.653125 0.106250
0.913750 0.653125 0.106250
0.982500 0.653125 0.106250
1.000000 0.653125 0.106250
1.000000 0.653125 0.106250
0.020000 0.712500 0.106250
0.088750 0.712500 0.106250
0.157500 0.712500 0.106250
0.226250 0.712500 0.106250
0.295000 0.712500 0.106250
0.363750 0.712500 0.106250
0.432500 0.712500 0.106250
0.501250 0.712500 0.106250
0.570000 0.712500 0.106250
0.638750 0.712500 0.106250
0.707500 0.712500 0.106250
0.776250 0.712500 0.106250
0.845000 0.712500 0.106250
0.913750 0.712500 0.106250
0.982500 0.712500 0.106250
1.000000 0.712500 0.106250
1.000000 0.712500 0.106250
0.020000 0.771875 0.106250
0.088750 0.771875 0.106250
0.157500 0.771875 0.106250
0.226250 0.771875 0.106250
0.295000 0.771875 0.106250
0.363750 0.771875 0.106250
0.432500 0.771875 0.106250
0.501250 0.771875 0.106250
0.570000 0.771875 0.106250
0.638750 0.771875 0.106250
0.707500 0.771875 0.106250
0.776250 0.771875 0.106250
0.845000 0.771875 0.106250
0.913750 0.771875 0.106250
0.982500 0.771875 0.106250
1.000000 0.771875 0.106250
1.000000 0.771875 0.106250
0.020000 0.831250 0.106250
0.088750 0.831250 0.106250
0.157500 0.831250 0.106250
0.226250 0.831250 0.106250
0.295000 0.831250 0.106250
0.363750 0.831250 0.106250
0.432500 0.831250 0.106250
0.501250 0.831250 0.106250
0.570000 0.831250 0.106250
0.638750 0.831250 0.106250
0.707500 0.831250 0.106250
0.776250 0.831250 0.106250
0.845000 0.831250 0.106250
0.913750 0.831250 0.106250
0.982500 0.831250 0.106250
1.000000 0.831250 0.106250
1.000000 0.831250 0.106250
0.020000 0.890625 0.106250
0.088750 0.890625 0.106250
0.157500 0.890625 0.106250
0.226250 0.890625 0.106250
0.295000 0.890625 0.106250
0.363750 0.890625 0.106250
0.432500 0.890625 0.106250
0.501250 0.890625 0.106250
0.570000 0.890625 0.106250
0.638750 0.890625 0.106250
0.707500 0.890625 0.106250
0.776250 0.890625 0.106250
0.845000 0.890625 0.106250
0.913750 0.890625 0.106250
0.982500 0.890625 0.106250
1.000000 0.890625 0.106250
1.000000 0.890625 0.106250
0.020000 0.950000 0.106250
0.088750 0.950000 0.106250
0.157500 0.950000 0.106250
0.226250 0.950000 0.106250
0.295000 0.950000 0.106250
0.363750 0.950000 0.106250
0.432500 0.950000 0.106250
0.501250 0.950000 0.106250
0.570000 0.950000 0.106250
0.638750 0.950000 0.106250
0.707500 0.950000 0.106250
0.776250 0.950000 0.106250
0.845000 0.950000 0.106250
0.913750 0.950000 0.106250
0.982500 0.950000 0.106250
1.000000 0.950000 0.106250
1.000000 0.950000 0.106250
0.020000 0.000000 0.162500
0.088750 0.000000 0.162500
0.157500 0.000000 0.162500
0.226250 0.000000 0.162500
0.295000 0.000000 0.162500
0.363750 0.000000 0.162500
0.432500 0.000000 0.162500
0.501250 0.000000 0.162500
0.570000 0.000000 0.162500
0.638750 0.000000 0.162500
0.707500 0.000000 0.162500
0.776250 0.000000 0.162500
0.845000 0.000000 0.162500
0.913750 0.000000 0.162500
0.982500 0.000000 0.162500
1.000000 0.000000 0.162500
1.000000 0.000000 0.162500
0.020000 0.059375 0.162500
0.088750 0.059375 0.162500
0.157500 0.059375 0.162500
0.226250 0.059375 0.162500
0.295000 0.059375 0.162500
0.363750 0.059375 0.162500
0.432500 0.059375 0.162500
0.501250 0.059375 0.162500
0.570000 0.059375 0.162500
0.638750 0.059375 0.162500
0.707500 0.059375 0.162500
0.776250 0.059375 0.162500
0.845000 0.059375 0.162500
0.913750 0.059375 0.162500
0.982500 0.059375 0.162500
1.000000 0.059375 0.162500
1.000000 0.059375 0.162500
0.020000 0.118750 0.162500
0.088750 0.118750 0.162500
0.157500 0.118750 0.162500
0.226250 0.118750 0.162500
0.295000 0.118750 0.162500
0.363750 0.118750 0.162500
0.432500 0.118750 0.162500
0.501250 0.118750 0.162500
0.570000 0.118750 0.162500
0.638750 0.118750 0.162500
0.707500 0.118750 0.162500
0.776250 0.118750 0.162500
0.845000 0.118750 0.162500
0.913750 0.118750 0.162500
0.982500 0.118750 0.162500
1.000000 0.118750 0.162500
1.000000 0.118750 0.162500
0.020000 0.178125 0.162500
0.088750 0.178125 0.162500
0.157500 0.178125 0.162500
0.226250 0.178125 0.162500
0.295000 0.178125 0.162500
0.363750 0.178125 0.162500
0.432500 0.178125 0.162500
0.501250 0.178125 0.162500
0.570000 0.178125 0.162500
0.638750 0.178125 0.162500
0.707500 0.178125 0.162500
0.776250 0.178125 0.162500
0.845000 0.178125 0.162500
0.913750 0.178125 0.162500
0.982500 0.178125 0.162500
1.000000 0.178125 0.162500
1.000000 0.178125 0.162500
0.020000 0.237500 0.162500
0.088750 0.237500 0.162500
0.157500 0.237500 0.162500
0.226250 0.237500 0.162500
0.295000 0.237500 0.162500
0.363750 0.237500 0.162500
0.432500 0.237500 0.162500
0.501250 0.237500 0.162500
0.570000 0.237500 0.162500
0.638750 0.237500 0.162500
0.707500 0.237500 0.162500
0.776250 0.237500 0.162500
0.845000 0.237500 0.162500
0.913750 0.237500 0.162500
0.982500 0.237500 0.162500
1.000000 0.237500 0.162500
1.000000 0.237500 0.162500
0.020000 0.296875 0.162500
0.088750 0.296875 0.162500
0.157500 0.296875 0.162500
0.226250 0.296875 0.162500
0.295000 0.296875 0.162500
0.363750 0.296875 0.162500
0.432500 0.296875 0.162500
0.501250 0.296875 0.162500
0.570000 0.296875 0.162500
0.638750 0.296875 0.162500
0.707500 0.296875 0.162500
0.776250 0.296875 0.162500
0.845000 0.296875 0.162500
0.913750 0.296875 0.162500
0.982500 0.296875 0.162500
1.000000 0.296875 0.162500
1.000000 0.296875 0.162500
0.020000 0.356250 0.162500
0.088750 0.356250 0.162500
0.157500 0.356250 0.162500
0.226250 0.356250 0.162500
0.295000 0.356250 0.162500
0.363750 0.356250 0.162500
0.432500 0.356250 0.162500
0.501250 0.356250 0.162500
0.570000 0.356250 0.162500
0.638750 0.356250 0.162500
0.707500 0.356250 0.162500
0.776250 0.356250 0.162500
0.845000 0.356250 0.162500
0.913750 0.356250 0.162500
0.982500 0.356250 0.162500
1.000000 0.356250 0.162500
1.000000 0.356250 0.162500
0.020000 0.415625 0.162500
0.088750 0.415625 0.162500
0.157500 0.415625 0.162500
0.226250 0.415625 0.162500
0.295000 0.415625 0.162500
0.363750 0.415625 0.162500
0.432500 0.415625 0.162500
0.501250 0.415625 0.162500
0.570000 0.415625 0.162500
0.638750 0.415625 0.162500
0.707500 0.415625 0.162500
0.776250 0.415625 0.162500
0.845000 0.415625 0.162500
0.913750 0.415625 0.162500
0.982500 0.415625 0.162500
1.000000 0.415625 0.162500
1.000000 0.415625 0.162500
0.020000 0.475000 0.162500
0.088750 0.475000 0.162500
0.157500 0.475000 0.162500
0.226250 0.475000 0.162500
0.295000 0.475000 0.162500
0.363750 0.475000 0.162500
0.432500 0.475000 0.162500
0.501250 0.475000 0.162500
0.570000 0.475000 0.162500
0.638750 0.475000 0.162500
0.707500 0.475000 0.162500
0.776250 0.475000 0.162500
0.845000 0.475000 0.162500
0.913750 0.475000 0.162500
0.982500 0.475000 0.162500
1.000000 0.475000 0.162500
1.000000 0.475000 0.162500
0.020000 0.534375 0.162500
0.088750 0.534375 0.162500
0.157500 0.534375 0.162500
0.226250 0.534375 0.162500
0.295000 0.534375 0.162500
0.363750 0.534375 0.162500
0.432500 0.534375 0.162500
0.501250 0.534375 0.162500
0.570000 0.534375 0.162500
0.638750 0.534375 0.162500
0.707500 0.534375 0.162500
0.776250 0.534375 0.162500
0.845000 0.534375 0.162500
0.913750 0.534375 0.162500
0.982500 0.534375 0.162500
1.000000 0.534375 0.162500
1.000000 0.534375 0.162500
0.020000 0.593750 0.162500
0.088750 0.593750 0.162500
0.157500 0.593750 0.162500
0.226250 0.593750 0.162500
0.295000 0.593750 0.162500
0.363750 0.593750 0.162500
0.432500 0.593750 0.162500
0.501250 0.593750 0.162500
0.570000 0.593750 0.162500
0.638750 0.593750 0.162500
0.707500 0.593750 0.162500
0.776250 0.593750 0.162500
0.845000 0.593750 0.162500
0.913750 0.593750 0.162500
0.982500 0.593750 0.162500
1.000000 0.593750 0.162500
1.000000 0.593750 0.162500
0.020000 0.653125 0.162500
0.088750 0.653125 0.162500
0.157500 0.653125 0.162500
0.226250 0.653125 0.162500
0.295000 0.653125 0.162500
0.363750 0.653125 0.162500
0.432500 0.653125 0.162500
0.501250 0.653125 0.162500
0.570000 0.653125 0.162500
0.638750 0.653125 0.162500
0.707500 0.653125 0.162500
0.776250 0.653125 0.162500
0.845000 0.653125 0.162500
0.913750 0.653125 0.162500
0.982500 0.653125 0.162500
1.000000 0.653125 0.162500
1.000000 0.653125 0.162500
0.020000 0.712500 0.162500
0.088750 0.712500 0.162500
0.157500 0.712500 0.162500
0.226250 0.712500 0.162500
0.295000 0.712500 0.162500
0.363750 0.712500 0.162500
0.432500 0.712500 0.162500
0.501250 0.712500 0.162500
0.570000 0.712500 0.162500
0.638750 0.712500 0.162500
0.707500 0.712500 0.162500
0.776250 0.712500 0.162500
0.845000 0.712500 0.162500
0.913750 0.712500 0.162500
0.982500 0.712500 0.162500
1.000000 0.712500 0.162500
1.000000 0.712500 0.162500
0.020000 0.771875 0.162500
0.088750 0.771875 0.162500
0.157500 0.771875 0.162500
0.226250 0.771875 0.162500
0.295000 0.771875 0.162500
0.363750 0.771875 0.162500
0.432500 0.771875 0.162500
0.501250 0.771875 0.162500
0.570000 0.771875 0.162500
0.638750 0.771875 0.162500
0.707500 0.771875 0.162500
0.776250 0.771875 0.162500
0.845000 0.771875 0.162500
0.913750 0.771875 0.162500
0.982500 0.771875 0.162500
1.000000 0.771875 0.162500
1.000000 0.771875 0.162500
0.020000 0.831250 0.162500
0.088750 0.831250 0.162500
0.157500 0.831250 0.162500
0.226250 0.831250 0.162500
0.295000 0.831250 0.162500
0.363750 0.831250 0.162500
0.432500 0.831250 0.162500
0.501250 0.831250 0.162500
0.570000 0.831250 0.162500
0.638750 0.831250 0.162500
0.707500 0.831250 0.162500
0.776250 0.831250 0.162500
0.845000 0.831250 0.162500
0.913750 0.831250 0.162500
0.982500 0.831250 0.162500
1.000000 0.831250 0.162500
1.000000 0.831250 0.162500
0.020000 0.890625 0.162500
0.088750 0.890625 0.162500
0.157500 0.890625 0.162500
0.226250 0.890625 0.162500
0.295000 0.890625 0.162500
0.363750 0.890625 0.162500
0.432500 0.890625 0.162500
0.501250 0.890625 0.162500
0.570000 0.890625 0.162500
0.638750 0.890625 0.162500
0.707500 0.890625 0.162500
0.776250 0.890625 0.162500
0.845000 0.890625 0.162500
0.913750 0.890625 0.162500
0.982500 0.890625 0.162500
1.000000 0.890625 0.162500
1.000000 0.890625 0.162500
0.020000 0.950000 0.162500
0.088750 0.950000 0.162500
0.157500 0.950000 0.162500
0.226250 0.950000 0.162500
0.295000 0.950000 0.162500
0.363750 0.950000 0.162500
0.432500 0.950000 0.162500
0.501250 0.950000 0.162500
0.570000 0.950000 0.162500
0.638750 0.950000 0.162500
0.707500 0.950000 0.162500
0.776250 0.950000 0.162500
0.845000 0.950000 0.162500
0.913750 0.950000 0.162500
0.982500 0.950000 0.162500
1.000000 0.950000 0.162500
1.000000 0.950000 0.162500
0.020000 0.000000 0.218750
0.088750 0.000000 0.218750
0.157500 0.000000 0.218750
0.226250 0.000000 0.218750
0.295000 0.000000 0.218750
0.363750 0.000000 0.218750
0.432500 0.000000 0.218750
0.501250 0.000000 0.218750
0.570000 0.000000 0.218750
0.638750 0.000000 0.218750
0.707500 0.000000 0.218750
0.776250 0.000000 0.218750
0.845000 0.000000 0.218750
0.913750 0.000000 0.218750
0.982500 0.000000 0.218750
1.000000 0.000000 0.218750
1.000000 0.000000 0.218750
0.020000 0.059375 0.218750
0.088750 0.059375 0.218750
0.157500 0.059375 0.218750
