server/assets/luts/cinematic.cube
TITLE "Cinematic"
LUT_3D_SIZE 9
0.020000 0.000000 0.050000
0.157500 0.000000 0.050000
0.295000 0.000000 0.050000
0.432500 0.000000 0.050000
0.570000 0.000000 0.050000
0.707500 0.000000 0.050000
0.845000 0.000000 0.050000
0.982500 0.000000 0.050000
1.000000 0.000000 0.050000
0.020000 0.118750 0.050000
0.157500 0.118750 0.050000
0.295000 0.118750 0.050000
0.432500 0.118750 0.050000
0.570000 0.118750 0.050000
0.707500 0.118750 0.050000
0.845000 0.118750 0.050000
0.982500 0.118750 0.050000
1.000000 0.118750 0.050000
0.020000 0.237500 0.050000
0.157500 0.237500 0.050000
0.295000 0.237500 0.050000
0.432500 0.237500 0.050000
0.570000 0.237500 0.050000
0.707500 0.237500 0.050000
0.845000 0.237500 0.050000
0.982500 0.237500 0.050000
1.000000 0.237500 0.050000
0.020000 0.356250 0.050000
0.157500 0.356250 0.050000
0.295000 0.356250 0.050000
0.432500 0.356250 0.050000
0.570000 0.356250 0.050000
0.707500 0.356250 0.050000
0.845000 0.356250 0.050000
0.982500 0.356250 0.050000
1.000000 0.356250 0.050000
0.020000 0.475000 0.050000
0.157500 0.475000 0.050000
0.295000 0.475000 0.050000
0.432500 0.475000 0.050000
0.570000 0.475000 0.050000
0.707500 0.475000 0.050000
0.845000 0.475000 0.050000
0.982500 0.475000 0.050000
1.000000 0.475000 0.050000
0.020000 0.593750 0.050000
0.157500 0.593750 0.050000
0.295000 0.593750 0.050000
0.432500 0.593750 0.050000
0.570000 0.593750 0.050000
0.707500 0.593750 0.050000
0.845000 0.593750 0.050000
0.982500 0.593750 0.050000
1.000000 0.593750 0.050000
0.020000 0.712500 0.050000
0.157500 0.712500 0.050000
0.295000 0.712500 0.050000
0.432500 0.712500 0.050000
0.570000 0.712500 0.050000
0.707500 0.712500 0.050000
0.845000 0.712500 0.050000
0.982500 0.712500 0.050000
1.000000 0.712500 0.050000
0.020000 0.831250 0.050000
0.157500 0.831250 0.050000
0.295000 0.831250 0.050000
0.432500 0.831250 0.050000
0.570000 0.831250 0.050000
0.707500 0.831250 0.050000
0.845000 0.831250 0.050000
0.982500 0.831250 0.050000
1.000000 0.831250 0.050000
0.020000 0.950000 0.050000
0.157500 0.950000 0.050000
0.295000 0.950000 0.050000
0.432500 0.950000 0.050000
0.570000 0.950000 0.050000
0.707500 0.950000 0.050000
0.845000 0.950000 0.050000
0.982500 0.950000 0.050000
1.000000 0.950000 0.050000
0.020000 0.000000 0.162500
0.157500 0.000000 0.162500
0.295000 0.000000 0.162500
0.432500 0.000000 0.162500
0.570000 0.000000 0.162500
0.707500 0.000000 0.162500
0.845000 0.000000 0.162500
0.982500 0.000000 0.162500
1.000000 0.000000 0.162500
0.020000 0.118750 0.162500
0.157500 0.118750 0.162500
0.295000 0.118750 0.162500
0.432500 0.118750 0.162500
0.570000 0.118750 0.162500
0.707500 0.118750 0.162500
0.845000 0.118750 0.162500
0.982500 0.118750 0.162500
1.000000 0.118750 0.162500
0.020000 0.237500 0.162500
0.157500 0.237500 0.162500
0.295000 0.237500 0.162500
0.432500 0.237500 0.162500
0.570000 0.237500 0.162500
0.707500 0.237500 0.162500
0.845000 0.237500 0.162500
0.982500 0.237500 0.162500
1.000000 0.237500 0.162500
0.020000 0.356250 0.162500
0.157500 0.356250 0.162500
0.295000 0.356250 0.162500
0.432500 0.356250 0.162500
0.570000 0.356250 0.162500
0.707500 0.356250 0.162500
0.845000 0.356250 0.162500
0.982500 0.356250 0.162500
1.000000 0.356250 0.162500
0.020000 0.475000 0.162500
0.157500 0.475000 0.162500
0.295000 0.475000 0.162500
0.432500 0.475000 0.162500
0.570000 0.475000 0.162500
0.707500 0.475000 0.162500
0.845000 0.475000 0.162500
0.982500 0.475000 0.162500
1.000000 0.475000 0.162500
0.020000 0.593750 0.162500
0.157500 0.593750 0.162500
0.295000 0.593750 0.162500
0.432500 0.593750 0.162500
0.570000 0.593750 0.162500
0.707500 0.593750 0.162500
0.845000 0.593750 0.162500
0.982500 0.593750 0.162500
1.000000 0.593750 0.162500
0.020000 0.712500 0.162500
0.157500 0.712500 0.162500
0.295000 0.712500 0.162500
0.432500 0.712500 0.162500
0.570000 0.712500 0.162500
0.707500 0.712500 0.162500
0.845000 0.712500 0.162500
0.982500 0.712500 0.162500
1.000000 0.712500 0.162500
0.020000 0.831250 0.162500
0.157500 0.831250 0.162500
0.295000 0.831250 0.162500
0.432500 0.831250 0.162500
0.570000 0.831250 0.162500
0.707500 0.831250 0.162500
0.845000 0.831250 0.162500
0.982500 0.831250 0.162500
1.000000 0.831250 0.162500
0.020000 0.950000 0.162500
0.157500 0.950000 0.162500
0.295000 0.950000 0.162500
0.432500 0.950000 0.162500
0.570000 0.950000 0.162500
0.707500 0.950000 0.162500
0.845000 0.950000 0.162500
0.982500 0.950000 0.162500
1.000000 0.950000 0.162500
0.020000 0.000000 0.275000
0.157500 0.000000 0.275000
0.295000 0.000000 0.275000
0.432500 0.000000 0.275000
0.570000 0.000000 0.275000
0.707500 0.000000 0.275000
0.845000 0.000000 0.275000
0.982500 0.000000 0.275000
1.000000 0.000000 0.275000
0.020000 0.118750 0.275000
0.157500 0.118750 0.275000
0.295000 0.118750 0.275000
0.432500 0.118750 0.275000
0.570000 0.118750 0.275000
0.707500 0.118750 0.275000
0.845000 0.118750 0.275000
0.982500 0.118750 0.275000
1.000000 0.118750 0.275000
0.020000 0.237500 0.275000
0.157500 0.237500 0.275000
0.295000 0.237500 0.275000
0.432500 0.237500 0.275000
0.570000 0.237500 0.275000
0.707500 0.237500 0.275000
0.845000 0.237500 0.275000
0.982500 0.237500 0.275000
1.000000 0.237500 0.275000
0.020000 0.356250 0.275000
0.157500 0.356250 0.275000
0.295000 0.356250 0.275000
0.432500 0.356250 0.275000
0.570000 0.356250 0.275000
0.707500 0.356250 0.275000
0.845000 0.356250 0.275000
0.982500 0.356250 0.275000
1.000000 0.356250 0.275000
0.020000 0.475000 0.275000
0.157500 0.475000 0.275000
0.295000 0.475000 0.275000
0.432500 0.475000 0.275000
0.570000 0.475000 0.275000
0.707500 0.475000 0.275000
0.845000 0.475000 0.275000
0.982500 0.475000 0.275000
1.000000 0.475000 0.275000
0.020000 0.593750 0.275000
0.157500 0.593750 0.275000
0.295000 0.593750 0.275000
0.432500 0.593750 0.275000
0.570000 0.593750 0.275000
0.707500 0.593750 0.275000
0.845000 0.593750 0.275000
0.982500 0.593750 0.275000
1.000000 0.593750 0.275000
0.020000 0.712500 0.275000
0.157500 0.712500 0.275000
0.295000 0.712500 0.275000
0.432500 0.712500 0.275000
0.570000 0.712500 0.275000
0.707500 0.712500 0.275000
0.845000 0.712500 0.275000
0.982500 0.712500 0.275000
1.000000 0.712500 0.275000
0.020000 0.831250 0.275000
0.157500 0.831250 0.275000
0.295000 0.831250 0.275000
0.432500 0.831250 0.275000
0.570000 0.831250 0.275000
0.707500 0.831250 0.275000
0.845000 0.831250 0.275000
0.982500 0.831250 0.275000
1.000000 0.831250 0.275000
0.020000 0.950000 0.275000
0.157500 0.950000 0.275000
0.295000 0.950000 0.275000
0.432500 0.950000 0.275000
0.570000 0.950000 0.275000
0.707500 0.950000 0.275000
0.845000 0.950000 0.275000
0.982500 0.950000 0.275000
1.000000 0.950000 0.275000
0.020000 0.000000 0.387500
0.157500 0.000000 0.387500
0.295000 0.000000 0.387500
0.432500 0.000000 0.387500
0.570000 0.000000 0.387500
0.707500 0.000000 0.387500
0.845000 0.000000 0.387500
0.982500 0.000000 0.387500
1.000000 0.000000 0.387500
0.020000 0.118750 0.387500
0.157500 0.118750 0.387500
0.295000 0.118750 0.387500
0.432500 0.118750 0.387500
0.570000 0.118750 0.387500
0.707500 0.118750 0.387500
0.845000 0.118750 0.387500
0.982500 0.118750 0.387500
1.000000 0.118750 0.387500
0.020000 0.237500 0.387500
0.157500 0.237500 0.387500
0.295000 0.237500 0.387500
0.432500 0.237500 0.387500
0.570000 0.237500 0.387500
0.707500 0.237500 0.387500
0.845000 0.237500 0.387500
0.982500 0.237500 0.387500
1.000000 0.237500 0.387500
0.020000 0.356250 0.387500
0.157500 0.356250 0.387500
0.295000 0.356250 0.387500
0.432500 0.356250 0.387500
0.570000 0.356250 0.387500
0.707500 0.356250 0.387500
0.845000 0.356250 0.387500
0.982500 0.356250 0.387500
1.000000 0.356250 0.387500
0.020000 0.475000 0.387500
0.157500 0.475000 0.387500
0.295000 0.475000 0.387500
0.432500 0.475000 0.387500
0.570000 0.475000 0.387500
0.707500 0.475000 0.387500
0.845000 0.475000 0.387500
0.982500 0.475000 0.387500
1.000000 0.475000 0.387500
0.020000 0.593750 0.387500
0.157500 0.593750 0.387500
0.295000 0.593750 0.387500
0.432500 0.593750 0.387500
0.570000 0.593750 0.387500
0.707500 0.593750 0.387500
0.845000 0.593750 0.387500
0.982500 0.593750 0.387500
1.000000 0.593750 0.387500
0.020000 0.712500 0.387500
0.157500 0.712500 0.387500
0.295000 0.712500 0.387500
0.432500 0.712500 0.387500
0.570000 0.712500 0.387500
0.707500 0.712500 0.387500
0.845000 0.712500 0.387500
0.982500 0.712500 0.387500
1.000000 0.712500 0.387500
0.020000 0.831250 0.387500
0.157500 0.831250 0.387500
0.295000 0.831250 0.387500
0.432500 0.831250 0.387500
0.570000 0.831250 0.387500
0.707500 0.831250 0.387500
0.845000 0.831250 0.387500
0.982500 0.831250 0.387500
1.000000 0.831250 0.387500
0.020000 0.950000 0.387500
0.157500 0.950000 0.387500
0.295000 0.950000 0.387500
0.432500 0.950000 0.387500
0.570000 0.950000 0.387500
0.707500 0.950000 0.387500
0.845000 0.950000 0.387500
0.982500 0.950000 0.387500
1.000000 0.950000 0.387500
0.020000 0.000000 0.500000
0.157500 0.000000 0.500000
0.295000 0.000000 0.500000
0.432500 0.000000 0.500000
0.570000 0.000000 0.500000
0.707500 0.000000 0.500000
0.845000 0.000000 0.500000
0.982500 0.000000 0.500000
1.000000 0.000000 0.500000
0.020000 0.118750 0.500000
0.157500 0.118750 0.500000
0.295000 0.118750 0.500000
0.432500 0.118750 0.500000
0.570000 0.118750 0.500000
0.707500 0.118750 0.500000
0.845000 0.118750 0.500000
0.982500 0.118750 0.500000
1.000000 0.118750 0.500000
0.020000 0.237500 0.500000
0.157500 0.237500 0.500000
0.295000 0.237500 0.500000
0.432500 0.237500 0.500000
0.570000 0.237500 0.500000
0.707500 0.237500 0.500000
0.845000 0.237500 0.500000
0.982500 0.237500 0.500000
1.000000 0.237500 0.500000
0.020000 0.356250 0.500000
0.157500 0.356250 0.500000
0.295000 0.356250 0.500000
0.432500 0.356250 0.500000
0.570000 0.356250 0.500000
0.707500 0.356250 0.500000
0.845000 0.356250 0.500000
0.982500 0.356250 0.500000
1.000000 0.356250 0.500000
0.020000 0.475000 0.500000
0.157500 0.475000 0.500000
0.295000 0.475000 0.500000
0.432500 0.475000 0.500000
0.570000 0.475000 0.500000
0.707500 0.475000 0.500000
0.845000 0.475000 0.500000
0.982500 0.475000 0.500000
1.000000 0.475000 0.500000
0.020000 0.593750 0.500000
0.157500 0.593750 0.500000
0.295000 0.593750 0.500000
0.432500 0.593750 0.500000
0.570000 0.593750 0.500000
0.707500 0.593750 0.500000
0.845000 0.593750 0.500000
0.982500 0.593750 0.500000
1.000000 0.593750 0.500000
0.020000 0.712500 0.500000
0.157500 0.712500 0.500000
0.295000 0.712500 0.500000
0.432500 0.712500 0.500000
0.570000 0.712500 0.500000
0.707500 0.712500 0.500000
0.845000 0.712500 0.500000
0.982500 0.712500 0.500000
1.000000 0.712500 0.500000
0.020000 0.831250 0.500000
0.157500 0.831250 0.500000
0.295000 0.831250 0.500000
0.432500 0.831250 0.500000
0.570000 0.831250 0.500000
0.707500 0.831250 0.500000
0.845000 0.831250 0.500000
0.982500 0.831250 0.500000
1.000000 0.831250 0.500000
0.020000 0.950000 0.500000
0.157500 0.950000 0.500000
0.295000 0.950000 0.500000
0.432500 0.950000 0.500000
0.570000 0.950000 0.500000
0.707500 0.950000 0.500000
0.845000 0.950000 0.500000
0.982500 0.950000 0.500000
1.000000 0.950000 0.500000
0.020000 0.000000 0.612500
0.157500 0.000000 0.612500
0.295000 0.000000 0.612500
0.432500 0.000000 0.612500
0.570000 0.000000 0.612500
0.707500 0.000000 0.612500
0.845000 0.000000 0.612500
0.982500 0.000000 0.612500
1.000000 0.000000 0.612500
0.020000 0.118750 0.612500
0.157500 0.118750 0.612500
0.295000 0.118750 0.612500
0.432500 0.118750 0.612500
0.570000 0.118750 0.612500
0.707500 0.118750 0.612500
0.845000 0.118750 0.612500
0.982500 0.118750 0.612500
1.000000 0.118750 0.612500
0.020000 0.237500 0.612500
0.157500 0.237500 0.612500
0.295000 0.237500 0.612500
0.432500 0.237500 0.612500
0.570000 0.237500 0.612500
0.707500 0.237500 0.612500
0.845000 0.237500 0.612500
0.982500 0.237500 0.612500
1.000000 0.237500 0.612500
0.020000 0.356250 0.612500
0.157500 0.356250 0.612500
0.295000 0.356250 0.612500
0.432500 0.356250 0.612500
0.570000 0.356250 0.612500
0.707500 0.356250 0.612500
0.845000 0.356250 0.612500
0.982500 0.356250 0.612500
1.000000 0.356250 0.612500
0.020000 0.475000 0.612500
0.157500 0.475000 0.612500
0.295000 0.475000 0.612500
0.432500 0.475000 0.612500
0.570000 0.475000 0.612500
0.707500 0.475000 0.612500
0.845000 0.475000 0.612500
0.982500 0.475000 0.612500
1.000000 0.475000 0.612500
0.020000 0.593750 0.612500
0.157500 0.593750 0.612500
0.295000 0.593750 0.612500
0.432500 0.593750 0.612500
0.570000 0.593750 0.612500
0.707500 0.593750 0.612500
0.845000 0.593750 0.612500
0.982500 0.593750 0.612500
1.000000 0.593750 0.612500
0.020000 0.712500 0.612500
0.157500 0.712500 0.612500
0.295000 0.712500 0.612500
0.432500 0.712500 0.612500
0.570000 0.712500 0.612500
0.707500 0.712500 0.612500
0.845000 0.712500 0.612500
0.982500 0.712500 0.612500
1.000000 0.712500 0.612500
0.020000 0.831250 0.612500
0.157500 0.831250 0.612500
0.295000 0.831250 0.612500
0.432500 0.831250 0.612500
0.570000 0.831250 0.612500
0.707500 0.831250 0.612500
0.845000 0.831250 0.612500
0.982500 0.831250 0.612500
1.000000 0.831250 0.612500
0.020000 0.950000 0.612500
0.157500 0.950000 0.612500
0.295000 0.950000 0.612500
0.432500 0.950000 0.612500
0.570000 0.950000 0.612500
0.707500 0.950000 0.612500
0.845000 0.950000 0.612500
0.982500 0.950000 0.612500
1.000000 0.950000 0.612500
0.020000 0.000000 0.725000
0.157500 0.000000 0.725000
0.295000 0.000000 0.725000
0.432500 0.000000 0.725000
0.570000 0.000000 0.725000
0.707500 0.000000 0.725000
0.845000 0.000000 0.725000
0.982500 0.000000 0.725000
1.000000 0.000000 0.725000
0.020000 0.118750 0.725000
0.157500 0.118750 0.725000
0.295000 0.118750 0.725000
0.432500 0.118750 0.725000
0.570000 0.118750 0.725000
0.707500 0.118750 0.725000
0.845000 0.118750 0.725000
0.982500 0.118750 0.725000
1.000000 0.118750 0.725000
0.020000 0.237500 0.725000
0.157500 0.237500 0.725000
0.295000 0.237500 0.725000
0.432500 0.237500 0.725000
0.570000 0.237500 0.725000
0.707500 0.237500 0.725000
0.845000 0.237500 0.725000
0.982500 0.237500 0.725000
1.000000 0.237500 0.725000
0.020000 0.356250 0.725000
0.157500 0.356250 0.725000
0.295000 0.356250 0.725000
0.432500 0.356250 0.725000
0.570000 0.356250 0.725000
0.707500 0.356250 0.725000
0.845000 0.356250 0.725000
0.982500 0.356250 0.725000
1.000000 0.356250 0.725000
0.020000 0.475000 0.725000
0.157500 0.475000 0.725000
0.295000 0.475000 0.725000
0.432500 0.475000 0.725000
0.570000 0.475000 0.725000
0.707500 0.475000 0.725000
0.845000 0.475000 0.725000
0.982500 0.475000 0.725000
1.000000 0.475000 0.725000
0.020000 0.593750 0.725000
0.157500 0.593750 0.725000
0.295000 0.593750 0.725000
0.432500 0.593750 0.725000
0.570000 0.593750 0.725000
0.707500 0.593750 0.725000
0.845000 0.593750 0.725000
0.982500 0.593750 0.725000
1.000000 0.593750 0.725000
0.020000 0.712500 0.725000
0.157500 0.712500 0.725000
0.295000 0.712500 0.725000
0.432500 0.712500 0.725000
0.570000 0.712500 0.725000
0.707500 0.712500 0.725000
0.845000 0.712500 0.725000
0.982500 0.712500 0.725000
1.000000 0.712500 0.725000
0.020000 0.831250 0.725000
0.157500 0.831250 0.725000
0.295000 0.831250 0.725000
0.432500 0.831250 0.725000
0.570000 0.831250 0.725000
0.707500 0.831250 0.725000
0.845000 0.831250 0.725000
0.982500 0.831250 0.725000
1.000000 0.831250 0.725000
0.020000 0.950000 0.725000
0.157500 0.950000 0.725000
0.295000 0.950000 0.725000
0.432500 0.950000 0.725000
0.570000 0.950000 0.725000
0.707500 0.950000 0.725000
0.845000 0.950000 0.725000
0.982500 0.950000 0.725000
1.000000 0.950000 0.725000
0.020000 0.000000 0.837500
0.157500 0.000000 0.837500
0.295000 0.000000 0.837500
0.432500 0.000000 0.837500
0.570000 0.000000 0.837500
0.707500 0.000000 0.837500
0.845000 0.000000 0.837500
0.982500 0.000000 0.837500
1.000000 0.000000 0.837500
0.020000 0.118750 0.837500
0.157500 0.118750 0.837500
0.295000 0.118750 0.837500
0.432500 0.118750 0.837500
0.570000 0.118750 0.837500
0.707500 0.118750 0.837500
0.845000 0.118750 0.837500
0.982500 0.118750 0.837500
1.000000 0.118750 0.837500
0.020000 0.237500 0.837500
0.157500 0.237500 0.837500
0.295000 0.237500 0.837500
0.432500 0.237500 0.837500
0.570000 0.237500 0.837500
0.707500 0.237500 0.837500
0.845000 0.237500 0.837500
0.982500 0.237500 0.837500
1.000000 0.237500 0.837500
0.020000 0.356250 0.837500
0.157500 0.356250 0.837500
0.295000 0.356250 0.837500
0.432500 0.356250 0.837500
0.570000 0.356250 0.837500
0.707500 0.356250 0.837500
0.845000 0.356250 0.837500
0.982500 0.356250 0.837500
1.000000 0.356250 0.837500
0.020000 0.475000 0.837500
0.157500 0.475000 0.837500
0.295000 0.475000 0.837500
0.432500 0.475000 0.837500
0.570000 0.475000 0.837500
0.707500 0.475000 0.837500
0.845000 0.475000 0.837500
0.982500 0.475000 0.837500
1.000000 0.475000 0.837500
0.020000 0.593750 0.837500
0.157500 0.593750 0.837500
0.295000 0.593750 0.837500
0.432500 0.593750 0.837500
0.570000 0.593750 0.837500
0.707500 0.593750 0.837500
0.845000 0.593750 0.837500
0.982500 0.593750 0.837500
1.000000 0.593750 0.837500
0.020000 0.712500 0.837500
0.157500 0.712500 0.837500
0.295000 0.712500 0.837500
0.432500 0.712500 0.837500
0.570000 0.712500 0.837500
0.707500 0.712500 0.837500
0.845000 0.712500 0.837500
0.982500 0.712500 0.837500
1.000000 0.712500 0.837500
0.020000 0.831250 0.837500
0.157500 0.831250 0.837500
0.295000 0.831250 0.837500
0.432500 0.831250 0.837500
0.570000 0.831250 0.837500
0.707500 0.831250 0.837500
0.845000 0.831250 0.837500
0.982500 0.831250 0.837500
1.000000 0.831250 0.837500
0.020000 0.950000 0.837500
0.157500 0.950000 0.837500
0.295000 0.950000 0.837500
0.432500 0.950000 0.837500
0.570000 0.950000 0.837500
0.707500 0.950000 0.837500
0.845000 0.950000 0.837500
0.982500 0.950000 0.837500
1.000000 0.950000 0.837500
0.020000 0.000000 0.950000
0.157500 0.000000 0.950000
0.295000 0.000000 0.950000
0.432500 0.000000 0.950000
0.570000 0.000000 0.950000
0.707500 0.000000 0.950000
0.845000 0.000000 0.950000
0.982500 0.000000 0.950000
1.000000 0.000000 0.950000
0.020000 0.118750 0.950000
0.157500 0.118750 0.950000
0.295000 0.118750 0.950000
0.432500 0.118750 0.950000
0.570000 0.118750 0.950000
0.707500 0.118750 0.950000
0.845000 0.118750 0.950000
0.982500 0.118750 0.950000
1.000000 0.118750 0.950000
0.020000 0.237500 0.950000
0.157500 0.237500 0.950000
0.295000 0.237500 0.950000
0.432500 0.237500 0.950000
0.570000 0.237500 0.950000
0.707500 0.237500 0.950000
0.845000 0.237500 0.950000
0.982500 0.237500 0.950000
1.000000 0.237500 0.950000
0.020000 0.356250 0.950000
0.157500 0.356250 0.950000
0.295000 0.356250 0.950000
0.432500 0.356250 0.950000
0.570000 0.356250 0.950000
0.707500 0.356250 0.950000
0.845000 0.356250 0.950000
0.982500 0.356250 0.950000
1.000000 0.356250 0.950000
0.020000 0.475000 0.950000
0.157500 0.475000 0.950000
0.295000 0.475000 0.950000
0.432500 0.475000 0.950000
0.570000 0.475000 0.950000
0.707500 0.475000 0.950000
0.845000 0.475000 0.950000
0.982500 0.475000 0.950000
1.000000 0.475000 0.950000
0.020000 0.593750 0.950000
0.157500 0.593750 0.950000
0.295000 0.593750 0.950000
0.432500 0.593750 0.950000
0.570000 0.593750 0.950000
0.707500 0.593750 0.950000
0.845000 0.593750 0.950000
0.982500 0.593750 0.950000
1.000000 0.593750 0.950000
0.020000 0.712500 0.950000
0.157500 0.712500 0.950000
0.295000 0.712500 0.950000
0.432500 0.712500 0.950000
0.570000 0.712500 0.950000
0.707500 0.712500 0.950000
0.845000 0.712500 0.950000
0.982500 0.712500 0.950000
1.000000 0.712500 0.950000
0.020000 0.831250 0.950000
0.157500 0.831250 0.950000
0.295000 0.831250 0.950000
0.432500 0.831250 0.950000
0.570000 0.831250 0.950000
0.707500 0.831250 0.950000
0.845000 0.831250 0.950000
0.982500 0.831250 0.950000
1.000000 0.831250 0.950000
0.020000 0.950000 0.950000
0.157500 0.950000 0.950000
0.295000 0.950000 0.950000
0.432500 0.950000 0.950000
0.570000 0.950000 0.950000
0.707500 0.950000 0.950000
0.845000 0.950000 0.950000
0.982500 0.950000 0.950000
1.000000 0.950000 0.950000
