server/assets/luts/moody.cube
TITLE "Moody"
LUT_3D_SIZE 5
0.050000 0.050000 0.050000
0.212500 0.050000 0.050000
0.425000 0.050000 0.050000
0.637500 0.050000 0.050000
0.850000 0.050000 0.050000
0.050000 0.200000 0.050000
0.212500 0.200000 0.050000
0.425000 0.200000 0.050000
0.637500 0.200000 0.050000
0.850000 0.200000 0.050000
0.050000 0.400000 0.050000
0.212500 0.400000 0.050000
0.425000 0.400000 0.050000
0.637500 0.400000 0.050000
0.850000 0.400000 0.050000
0.050000 0.600000 0.050000
0.212500 0.600000 0.050000
0.425000 0.600000 0.050000
0.637500 0.600000 0.050000
0.850000 0.600000 0.050000
0.050000 0.800000 0.050000
0.212500 0.800000 0.050000
0.425000 0.800000 0.050000
0.637500 0.800000 0.050000
0.850000 0.800000 0.050000
0.050000 0.050000 0.212500
0.212500 0.050000 0.212500
0.425000 0.050000 0.212500
0.637500 0.050000 0.212500
0.850000 0.050000 0.212500
0.050000 0.200000 0.212500
0.212500 0.200000 0.212500
0.425000 0.200000 0.212500
0.637500 0.200000 0.212500
0.850000 0.200000 0.212500
0.050000 0.400000 0.212500
0.212500 0.400000 0.212500
0.425000 0.400000 0.212500
0.637500 0.400000 0.212500
0.850000 0.400000 0.212500
0.050000 0.600000 0.212500
0.212500 0.600000 0.212500
0.425000 0.600000 0.212500
0.637500 0.600000 0.212500
0.850000 0.600000 0.212500
0.050000 0.800000 0.212500
0.212500 0.800000 0.212500
0.425000 0.800000 0.212500
0.637500 0.800000 0.212500
0.850000 0.800000 0.212500
0.050000 0.050000 0.425000
0.212500 0.050000 0.425000
0.425000 0.050000 0.425000
0.637500 0.050000 0.425000
0.850000 0.050000 0.425000
0.050000 0.200000 0.425000
0.212500 0.200000 0.425000
0.425000 0.200000 0.425000
0.637500 0.200000 0.425000
0.850000 0.200000 0.425000
0.050000 0.400000 0.425000
0.212500 0.400000 0.425000
0.425000 0.400000 0.425000
0.637500 0.400000 0.425000
0.850000 0.400000 0.425000
0.050000 0.600000 0.425000
0.212500 0.600000 0.425000
0.425000 0.600000 0.425000
0.637500 0.600000 0.425000
0.850000 0.600000 0.425000
0.050000 0.800000 0.425000
0.212500 0.800000 0.425000
0.425000 0.800000 0.425000
0.637500 0.800000 0.425000
0.850000 0.800000 0.425000
0.050000 0.050000 0.637500
0.212500 0.050000 0.637500
0.425000 0.050000 0.637500
0.637500 0.050000 0.637500
0.850000 0.050000 0.637500
0.050000 0.200000 0.637500
0.212500 0.200000 0.637500
0.425000 0.200000 0.637500
0.637500 0.200000 0.637500
0.850000 0.200000 0.637500
0.050000 0.400000 0.637500
0.212500 0.400000 0.637500
0.425000 0.400000 0.637500
0.637500 0.400000 0.637500
0.850000 0.400000 0.637500
0.050000 0.600000 0.637500
0.212500 0.600000 0.637500
0.425000 0.600000 0.637500
0.637500 0.600000 0.637500
0.850000 0.600000 0.637500
0.050000 0.800000 0.637500
0.212500 0.800000 0.637500
0.425000 0.800000 0.637500
0.637500 0.800000 0.637500
0.850000 0.800000 0.637500
0.050000 0.050000 0.850000
0.212500 0.050000 0.850000
0.425000 0.050000 0.850000
0.637500 0.050000 0.850000
0.850000 0.050000 0.850000
0.050000 0.200000 0.850000
0.212500 0.200000 0.850000
0.425000 0.200000 0.850000
0.637500 0.200000 0.850000
0.850000 0.200000 0.850000
0.050000 0.400000 0.850000
0.212500 0.400000 0.850000
0.425000 0.400000 0.850000
0.637500 0.400000 0.850000
0.850000 0.400000 0.850000
0.050000 0.600000 0.850000
0.212500 0.600000 0.850000
0.425000 0.600000 0.850000
0.637500 0.600000 0.850000
0.850000 0.600000 0.850000
0.050000 0.800000 0.850000
0.212500 0.800000 0.850000
0.425000 0.800000 0.850000
0.637500 0.800000 0.850000
0.850000 0.800000 0.850000
