server/assets/luts/moody.cube
TITLE "Moody"
LUT_3D_SIZE 17
0.050000 0.050000 0.050000
0.053125 0.050000 0.050000
0.106250 0.050000 0.050000
0.159375 0.050000 0.050000
0.212500 0.050000 0.050000
0.265625 0.050000 0.050000
0.318750 0.050000 0.050000
0.371875 0.050000 0.050000
0.425000 0.050000 0.050000
0.478125 0.050000 0.050000
0.531250 0.050000 0.050000
0.584375 0.050000 0.050000
0.637500 0.050000 0.050000
0.690625 0.050000 0.050000
0.743750 0.050000 0.050000
0.796875 0.050000 0.050000
0.850000 0.050000 0.050000
0.050000 0.050000 0.050000
0.053125 0.050000 0.050000
0.106250 0.050000 0.050000
0.159375 0.050000 0.050000
0.212500 0.050000 0.050000
0.265625 0.050000 0.050000
0.318750 0.050000 0.050000
0.371875 0.050000 0.050000
0.425000 0.050000 0.050000
0.478125 0.050000 0.050000
0.531250 0.050000 0.050000
0.584375 0.050000 0.050000
0.637500 0.050000 0.050000
0.690625 0.050000 0.050000
0.743750 0.050000 0.050000
0.796875 0.050000 0.050000
0.850000 0.050000 0.050000
0.050000 0.100000 0.050000
0.053125 0.100000 0.050000
0.106250 0.100000 0.050000
0.159375 0.100000 0.050000
0.212500 0.100000 0.050000
0.265625 0.100000 0.050000
0.318750 0.100000 0.050000
0.371875 0.100000 0.050000
0.425000 0.100000 0.050000
0.478125 0.100000 0.050000
0.531250 0.100000 0.050000
0.584375 0.100000 0.050000
0.637500 0.100000 0.050000
0.690625 0.100000 0.050000
0.743750 0.100000 0.050000
0.796875 0.100000 0.050000
0.850000 0.100000 0.050000
0.050000 0.150000 0.050000
0.053125 0.150000 0.050000
0.106250 0.150000 0.050000
0.159375 0.150000 0.050000
0.212500 0.150000 0.050000
0.265625 0.150000 0.050000
0.318750 0.150000 0.050000
0.371875 0.150000 0.050000
0.425000 0.150000 0.050000
0.478125 0.150000 0.050000
0.531250 0.150000 0.050000
0.584375 0.150000 0.050000
0.637500 0.150000 0.050000
0.690625 0.150000 0.050000
0.743750 0.150000 0.050000
0.796875 0.150000 0.050000
0.850000 0.150000 0.050000
0.050000 0.200000 0.050000
0.053125 0.200000 0.050000
0.106250 0.200000 0.050000
0.159375 0.200000 0.050000
0.212500 0.200000 0.050000
0.265625 0.200000 0.050000
0.318750 0.200000 0.050000
0.371875 0.200000 0.050000
0.425000 0.200000 0.050000
0.478125 0.200000 0.050000
0.531250 0.200000 0.050000
0.584375 0.200000 0.050000
0.637500 0.200000 0.050000
0.690625 0.200000 0.050000
0.743750 0.200000 0.050000
0.796875 0.200000 0.050000
0.850000 0.200000 0.050000
0.050000 0.250000 0.050000
0.053125 0.250000 0.050000
0.106250 0.250000 0.050000
0.159375 0.250000 0.050000
0.212500 0.250000 0.050000
0.265625 0.250000 0.050000
0.318750 0.250000 0.050000
0.371875 0.250000 0.050000
0.425000 0.250000 0.050000
0.478125 0.250000 0.050000
0.531250 0.250000 0.050000
0.584375 0.250000 0.050000
0.637500 0.250000 0.050000
0.690625 0.250000 0.050000
0.743750 0.250000 0.050000
0.796875 0.250000 0.050000
0.850000 0.250000 0.050000
0.050000 0.300000 0.050000
0.053125 0.300000 0.050000
0.106250 0.300000 0.050000
0.159375 0.300000 0.050000
0.212500 0.300000 0.050000
0.265625 0.300000 0.050000
0.318750 0.300000 0.050000
0.371875 0.300000 0.050000
0.425000 0.300000 0.050000
0.478125 0.300000 0.050000
0.531250 0.300000 0.050000
0.584375 0.300000 0.050000
0.637500 0.300000 0.050000
0.690625 0.300000 0.050000
0.743750 0.300000 0.050000
0.796875 0.300000 0.050000
0.850000 0.300000 0.050000
0.050000 0.350000 0.050000
0.053125 0.350000 0.050000
0.106250 0.350000 0.050000
0.159375 0.350000 0.050000
0.212500 0.350000 0.050000
0.265625 0.350000 0.050000
0.318750 0.350000 0.050000
0.371875 0.350000 0.050000
0.425000 0.350000 0.050000
0.478125 0.350000 0.050000
0.531250 0.350000 0.050000
0.584375 0.350000 0.050000
0.637500 0.350000 0.050000
0.690625 0.350000 0.050000
0.743750 0.350000 0.050000
0.796875 0.350000 0.050000
0.850000 0.350000 0.050000
0.050000 0.400000 0.050000
0.053125 0.400000 0.050000
0.106250 0.400000 0.050000
0.159375 0.400000 0.050000
0.212500 0.400000 0.050000
0.265625 0.400000 0.050000
0.318750 0.400000 0.050000
0.371875 0.400000 0.050000
0.425000 0.400000 0.050000
0.478125 0.400000 0.050000
0.531250 0.400000 0.050000
0.584375 0.400000 0.050000
0.637500 0.400000 0.050000
0.690625 0.400000 0.050000
0.743750 0.400000 0.050000
0.796875 0.400000 0.050000
0.850000 0.400000 0.050000
0.050000 0.450000 0.050000
0.053125 0.450000 0.050000
0.106250 0.450000 0.050000
0.159375 0.450000 0.050000
0.212500 0.450000 0.050000
0.265625 0.450000 0.050000
0.318750 0.450000 0.050000
0.371875 0.450000 0.050000
0.425000 0.450000 0.050000
0.478125 0.450000 0.050000
0.531250 0.450000 0.050000
0.584375 0.450000 0.050000
0.637500 0.450000 0.050000
0.690625 0.450000 0.050000
0.743750 0.450000 0.050000
0.796875 0.450000 0.050000
0.850000 0.450000 0.050000
0.050000 0.500000 0.050000
0.053125 0.500000 0.050000
0.106250 0.500000 0.050000
0.159375 0.500000 0.050000
0.212500 0.500000 0.050000
0.265625 0.500000 0.050000
0.318750 0.500000 0.050000
0.371875 0.500000 0.050000
0.425000 0.500000 0.050000
0.478125 0.500000 0.050000
0.531250 0.500000 0.050000
0.584375 0.500000 0.050000
0.637500 0.500000 0.050000
0.690625 0.500000 0.050000
0.743750 0.500000 0.050000
0.796875 0.500000 0.050000
0.850000 0.500000 0.050000
0.050000 0.550000 0.050000
0.053125 0.550000 0.050000
0.106250 0.550000 0.050000
0.159375 0.550000 0.050000
0.212500 0.550000 0.050000
0.265625 0.550000 0.050000
0.318750 0.550000 0.050000
0.371875 0.550000 0.050000
0.425000 0.550000 0.050000
0.478125 0.550000 0.050000
0.531250 0.550000 0.050000
0.584375 0.550000 0.050000
0.637500 0.550000 0.050000
0.690625 0.550000 0.050000
0.743750 0.550000 0.050000
0.796875 0.550000 0.050000
0.850000 0.550000 0.050000
0.050000 0.600000 0.050000
0.053125 0.600000 0.050000
0.106250 0.600000 0.050000
0.159375 0.600000 0.050000
0.212500 0.600000 0.050000
0.265625 0.600000 0.050000
0.318750 0.600000 0.050000
0.371875 0.600000 0.050000
0.425000 0.600000 0.050000
0.478125 0.600000 0.050000
0.531250 0.600000 0.050000
0.584375 0.600000 0.050000
0.637500 0.600000 0.050000
0.690625 0.600000 0.050000
0.743750 0.600000 0.050000
0.796875 0.600000 0.050000
0.850000 0.600000 0.050000
0.050000 0.650000 0.050000
0.053125 0.650000 0.050000
0.106250 0.650000 0.050000
0.159375 0.650000 0.050000
0.212500 0.650000 0.050000
0.265625 0.650000 0.050000
0.318750 0.650000 0.050000
0.371875 0.650000 0.050000
0.425000 0.650000 0.050000
0.478125 0.650000 0.050000
0.531250 0.650000 0.050000
0.584375 0.650000 0.050000
0.637500 0.650000 0.050000
0.690625 0.650000 0.050000
0.743750 0.650000 0.050000
0.796875 0.650000 0.050000
0.850000 0.650000 0.050000
0.050000 0.700000 0.050000
0.053125 0.700000 0.050000
0.106250 0.700000 0.050000
0.159375 0.700000 0.050000
0.212500 0.700000 0.050000
0.265625 0.700000 0.050000
0.318750 0.700000 0.050000
0.371875 0.700000 0.050000
0.425000 0.700000 0.050000
0.478125 0.700000 0.050000
0.531250 0.700000 0.050000
0.584375 0.700000 0.050000
0.637500 0.700000 0.050000
0.690625 0.700000 0.050000
0.743750 0.700000 0.050000
0.796875 0.700000 0.050000
0.850000 0.700000 0.050000
0.050000 0.750000 0.050000
0.053125 0.750000 0.050000
0.106250 0.750000 0.050000
0.159375 0.750000 0.050000
0.212500 0.750000 0.050000
0.265625 0.750000 0.050000
0.318750 0.750000 0.050000
0.371875 0.750000 0.050000
0.425000 0.750000 0.050000
0.478125 0.750000 0.050000
0.531250 0.750000 0.050000
0.584375 0.750000 0.050000
0.637500 0.750000 0.050000
0.690625 0.750000 0.050000
0.743750 0.750000 0.050000
0.796875 0.750000 0.050000
0.850000 0.750000 0.050000
0.050000 0.800000 0.050000
0.053125 0.800000 0.050000
0.106250 0.800000 0.050000
0.159375 0.800000 0.050000
0.212500 0.800000 0.050000
0.265625 0.800000 0.050000
0.318750 0.800000 0.050000
0.371875 0.800000 0.050000
0.425000 0.800000 0.050000
0.478125 0.800000 0.050000
0.531250 0.800000 0.050000
0.584375 0.800000 0.050000
0.637500 0.800000 0.050000
0.690625 0.800000 0.050000
0.743750 0.800000 0.050000
0.796875 0.800000 0.050000
0.850000 0.800000 0.050000
0.050000 0.050000 0.053125
0.053125 0.050000 0.053125
0.106250 0.050000 0.053125
0.159375 0.050000 0.053125
0.212500 0.050000 0.053125
0.265625 0.050000 0.053125
0.318750 0.050000 0.053125
0.371875 0.050000 0.053125
0.425000 0.050000 0.053125
0.478125 0.050000 0.053125
0.531250 0.050000 0.053125
0.584375 0.050000 0.053125
0.637500 0.050000 0.053125
0.690625 0.050000 0.053125
0.743750 0.050000 0.053125
0.796875 0.050000 0.053125
0.850000 0.050000 0.053125
0.050000 0.050000 0.053125
0.053125 0.050000 0.053125
0.106250 0.050000 0.053125
0.159375 0.050000 0.053125
0.212500 0.050000 0.053125
0.265625 0.050000 0.053125
0.318750 0.050000 0.053125
0.371875 0.050000 0.053125
0.425000 0.050000 0.053125
0.478125 0.050000 0.053125
0.531250 0.050000 0.053125
0.584375 0.050000 0.053125
0.637500 0.050000 0.053125
0.690625 0.050000 0.053125
0.743750 0.050000 0.053125
0.796875 0.050000 0.053125
0.850000 0.050000 0.053125
0.050000 0.100000 0.053125
0.053125 0.100000 0.053125
0.106250 0.100000 0.053125
0.159375 0.100000 0.053125
0.212500 0.100000 0.053125
0.265625 0.100000 0.053125
0.318750 0.100000 0.053125
0.371875 0.100000 0.053125
0.425000 0.100000 0.053125
0.478125 0.100000 0.053125
0.531250 0.100000 0.053125
0.584375 0.100000 0.053125
0.637500 0.100000 0.053125
0.690625 0.100000 0.053125
0.743750 0.100000 0.053125
0.796875 0.100000 0.053125
0.850000 0.100000 0.053125
0.050000 0.150000 0.053125
0.053125 0.150000 0.053125
0.106250 0.150000 0.053125
0.159375 0.150000 0.053125
0.212500 0.150000 0.053125
0.265625 0.150000 0.053125
0.318750 0.150000 0.053125
0.371875 0.150000 0.053125
0.425000 0.150000 0.053125
0.478125 0.150000 0.053125
0.531250 0.150000 0.053125
0.584375 0.150000 0.053125
0.637500 0.150000 0.053125
0.690625 0.150000 0.053125
0.743750 0.150000 0.053125
0.796875 0.150000 0.053125
0.850000 0.150000 0.053125
0.050000 0.200000 0.053125
0.053125 0.200000 0.053125
0.106250 0.200000 0.053125
0.159375 0.200000 0.053125
0.212500 0.200000 0.053125
0.265625 0.200000 0.053125
0.318750 0.200000 0.053125
0.371875 0.200000 0.053125
0.425000 0.200000 0.053125
0.478125 0.200000 0.053125
0.531250 0.200000 0.053125
0.584375 0.200000 0.053125
0.637500 0.200000 0.053125
0.690625 0.200000 0.053125
0.743750 0.200000 0.053125
0.796875 0.200000 0.053125
0.850000 0.200000 0.053125
0.050000 0.250000 0.053125
0.053125 0.250000 0.053125
0.106250 0.250000 0.053125
0.159375 0.250000 0.053125
0.212500 0.250000 0.053125
0.265625 0.250000 0.053125
0.318750 0.250000 0.053125
0.371875 0.250000 0.053125
0.425000 0.250000 0.053125
0.478125 0.250000 0.053125
0.531250 0.250000 0.053125
0.584375 0.250000 0.053125
0.637500 0.250000 0.053125
0.690625 0.250000 0.053125
0.743750 0.250000 0.053125
0.796875 0.250000 0.053125
0.850000 0.250000 0.053125
0.050000 0.300000 0.053125
0.053125 0.300000 0.053125
0.106250 0.300000 0.053125
0.159375 0.300000 0.053125
0.212500 0.300000 0.053125
0.265625 0.300000 0.053125
0.318750 0.300000 0.053125
0.371875 0.300000 0.053125
0.425000 0.300000 0.053125
0.478125 0.300000 0.053125
0.531250 0.300000 0.053125
0.584375 0.300000 0.053125
0.637500 0.300000 0.053125
0.690625 0.300000 0.053125
0.743750 0.300000 0.053125
0.796875 0.300000 0.053125
0.850000 0.300000 0.053125
0.050000 0.350000 0.053125
0.053125 0.350000 0.053125
0.106250 0.350000 0.053125
0.159375 0.350000 0.053125
0.212500 0.350000 0.053125
0.265625 0.350000 0.053125
0.318750 0.350000 0.053125
0.371875 0.350000 0.053125
0.425000 0.350000 0.053125
0.478125 0.350000 0.053125
0.531250 0.350000 0.053125
0.584375 0.350000 0.053125
0.637500 0.350000 0.053125
0.690625 0.350000 0.053125
0.743750 0.350000 0.053125
0.796875 0.350000 0.053125
0.850000 0.350000 0.053125
0.050000 0.400000 0.053125
0.053125 0.400000 0.053125
0.106250 0.400000 0.053125
0.159375 0.400000 0.053125
0.212500 0.400000 0.053125
0.265625 0.400000 0.053125
0.318750 0.400000 0.053125
0.371875 0.400000 0.053125
0.425000 0.400000 0.053125
0.478125 0.400000 0.053125
0.531250 0.400000 0.053125
0.584375 0.400000 0.053125
0.637500 0.400000 0.053125
0.690625 0.400000 0.053125
0.743750 0.400000 0.053125
0.796875 0.400000 0.053125
0.850000 0.400000 0.053125
0.050000 0.450000 0.053125
0.053125 0.450000 0.053125
0.106250 0.450000 0.053125
0.159375 0.450000 0.053125
0.212500 0.450000 0.053125
0.265625 0.450000 0.053125
0.318750 0.450000 0.053125
0.371875 0.450000 0.053125
0.425000 0.450000 0.053125
0.478125 0.450000 0.053125
0.531250 0.450000 0.053125
0.584375 0.450000 0.053125
0.637500 0.450000 0.053125
0.690625 0.450000 0.053125
0.743750 0.450000 0.053125
0.796875 0.450000 0.053125
0.850000 0.450000 0.053125
0.050000 0.500000 0.053125
0.053125 0.500000 0.053125
0.106250 0.500000 0.053125
0.159375 0.500000 0.053125
0.212500 0.500000 0.053125
0.265625 0.500000 0.053125
0.318750 0.500000 0.053125
0.371875 0.500000 0.053125
0.425000 0.500000 0.053125
0.478125 0.500000 0.053125
0.531250 0.500000 0.053125
0.584375 0.500000 0.053125
0.637500 0.500000 0.053125
0.690625 0.500000 0.053125
0.743750 0.500000 0.053125
0.796875 0.500000 0.053125
0.850000 0.500000 0.053125
0.050000 0.550000 0.053125
0.053125 0.550000 0.053125
0.106250 0.550000 0.053125
0.159375 0.550000 0.053125
0.212500 0.550000 0.053125
0.265625 0.550000 0.053125
0.318750 0.550000 0.053125
0.371875 0.550000 0.053125
0.425000 0.550000 0.053125
0.478125 0.550000 0.053125
0.531250 0.550000 0.053125
0.584375 0.550000 0.053125
0.637500 0.550000 0.053125
0.690625 0.550000 0.053125
0.743750 0.550000 0.053125
0.796875 0.550000 0.053125
0.850000 0.550000 0.053125
0.050000 0.600000 0.053125
0.053125 0.600000 0.053125
0.106250 0.600000 0.053125
0.159375 0.600000 0.053125
0.212500 0.600000 0.053125
0.265625 0.600000 0.053125
0.318750 0.600000 0.053125
0.371875 0.600000 0.053125
0.425000 0.600000 0.053125
0.478125 0.600000 0.053125
0.531250 0.600000 0.053125
0.584375 0.600000 0.053125
0.637500 0.600000 0.053125
0.690625 0.600000 0.053125
0.743750 0.600000 0.053125
0.796875 0.600000 0.053125
0.850000 0.600000 0.053125
0.050000 0.650000 0.053125
0.053125 0.650000 0.053125
0.106250 0.650000 0.053125
0.159375 0.650000 0.053125
0.212500 0.650000 0.053125
0.265625 0.650000 0.053125
0.318750 0.650000 0.053125
0.371875 0.650000 0.053125
0.425000 0.650000 0.053125
0.478125 0.650000 0.053125
0.531250 0.650000 0.053125
0.584375 0.650000 0.053125
0.637500 0.650000 0.053125
0.690625 0.650000 0.053125
0.743750 0.650000 0.053125
0.796875 0.650000 0.053125
0.850000 0.650000 0.053125
0.050000 0.700000 0.053125
0.053125 0.700000 0.053125
0.106250 0.700000 0.053125
0.159375 0.700000 0.053125
0.212500 0.700000 0.053125
0.265625 0.700000 0.053125
0.318750 0.700000 0.053125
0.371875 0.700000 0.053125
0.425000 0.700000 0.053125
0.478125 0.700000 0.053125
0.531250 0.700000 0.053125
0.584375 0.700000 0.053125
0.637500 0.700000 0.053125
0.690625 0.700000 0.053125
0.743750 0.700000 0.053125
0.796875 0.700000 0.053125
0.850000 0.700000 0.053125
0.050000 0.750000 0.053125
0.053125 0.750000 0.053125
0.106250 0.750000 0.053125
0.159375 0.750000 0.053125
0.212500 0.750000 0.053125
0.265625 0.750000 0.053125
0.318750 0.750000 0.053125
0.371875 0.750000 0.053125
0.425000 0.750000 0.053125
0.478125 0.750000 0.053125
0.531250 0.750000 0.053125
0.584375 0.750000 0.053125
0.637500 0.750000 0.053125
0.690625 0.750000 0.053125
0.743750 0.750000 0.053125
0.796875 0.750000 0.053125
0.850000 0.750000 0.053125
0.050000 0.800000 0.053125
0.053125 0.800000 0.053125
0.106250 0.800000 0.053125
0.159375 0.800000 0.053125
0.212500 0.800000 0.053125
0.265625 0.800000 0.053125
0.318750 0.800000 0.053125
0.371875 0.800000 0.053125
0.425000 0.800000 0.053125
0.478125 0.800000 0.053125
0.531250 0.800000 0.053125
0.584375 0.800000 0.053125
0.637500 0.800000 0.053125
0.690625 0.800000 0.053125
0.743750 0.800000 0.053125
0.796875 0.800000 0.053125
0.850000 0.800000 0.053125
0.050000 0.050000 0.106250
0.053125 0.050000 0.106250
0.106250 0.050000 0.106250
0.159375 0.050000 0.106250
0.212500 0.050000 0.106250
0.265625 0.050000 0.106250
0.318750 0.050000 0.106250
0.371875 0.050000 0.106250
0.425000 0.050000 0.106250
0.478125 0.050000 0.106250
0.531250 0.050000 0.106250
0.584375 0.050000 0.106250
0.637500 0.050000 0.106250
0.690625 0.050000 0.106250
0.743750 0.050000 0.106250
0.796875 0.050000 0.106250
0.850000 0.050000 0.106250
0.050000 0.050000 0.106250
0.053125 0.050000 0.106250
0.106250 0.050000 0.106250
0.159375 0.050000 0.106250
0.212500 0.050000 0.106250
0.265625 0.050000 0.106250
0.318750 0.050000 0.106250
0.371875 0.050000 0.106250
0.425000 0.050000 0.106250
0.478125 0.050000 0.106250
0.531250 0.050000 0.106250
0.584375 0.050000 0.106250
0.637500 0.050000 0.106250
0.690625 0.050000 0.106250
0.743750 0.050000 0.106250
0.796875 0.050000 0.106250
0.850000 0.050000 0.106250
0.050000 0.100000 0.106250
0.053125 0.100000 0.106250
0.106250 0.100000 0.106250
0.159375 0.100000 0.106250
0.212500 0.100000 0.106250
0.265625 0.100000 0.106250
0.318750 0.100000 0.106250
0.371875 0.100000 0.106250
0.425000 0.100000 0.106250
0.478125 0.100000 0.106250
0.531250 0.100000 0.106250
0.584375 0.100000 0.106250
0.637500 0.100000 0.106250
0.690625 0.100000 0.106250
0.743750 0.100000 0.106250
0.796875 0.100000 0.106250
0.850000 0.100000 0.106250
0.050000 0.150000 0.106250
0.053125 0.150000 0.106250
0.106250 0.150000 0.106250
0.159375 0.150000 0.106250
0.212500 0.150000 0.106250
0.265625 0.150000 0.106250
0.318750 0.150000 0.106250
0.371875 0.150000 0.106250
0.425000 0.150000 0.106250
0.478125 0.150000 0.106250
0.531250 0.150000 0.106250
0.584375 0.150000 0.106250
0.637500 0.150000 0.106250
0.690625 0.150000 0.106250
0.743750 0.150000 0.106250
0.796875 0.150000 0.106250
0.850000 0.150000 0.106250
0.050000 0.200000 0.106250
0.053125 0.200000 0.106250
0.106250 0.200000 0.106250
0.159375 0.200000 0.106250
0.212500 0.200000 0.106250
0.265625 0.200000 0.106250
0.318750 0.200000 0.106250
0.371875 0.200000 0.106250
0.425000 0.200000 0.106250
0.478125 0.200000 0.106250
0.531250 0.200000 0.106250
0.584375 0.200000 0.106250
0.637500 0.200000 0.106250
0.690625 0.200000 0.106250
0.743750 0.200000 0.106250
0.796875 0.200000 0.106250
0.850000 0.200000 0.106250
0.050000 0.250000 0.106250
0.053125 0.250000 0.106250
0.106250 0.250000 0.106250
0.159375 0.250000 0.106250
0.212500 0.250000 0.106250
0.265625 0.250000 0.106250
0.318750 0.250000 0.106250
0.371875 0.250000 0.106250
0.425000 0.250000 0.106250
0.478125 0.250000 0.106250
0.531250 0.250000 0.106250
0.584375 0.250000 0.106250
0.637500 0.250000 0.106250
0.690625 0.250000 0.106250
0.743750 0.250000 0.106250
0.796875 0.250000 0.106250
0.850000 0.250000 0.106250
0.050000 0.300000 0.106250
0.053125 0.300000 0.106250
0.106250 0.300000 0.106250
0.159375 0.300000 0.106250
0.212500 0.300000 0.106250
0.265625 0.300000 0.106250
0.318750 0.300000 0.106250
0.371875 0.300000 0.106250
0.425000 0.300000 0.106250
0.478125 0.300000 0.106250
0.531250 0.300000 0.106250
0.584375 0.300000 0.106250
0.637500 0.300000 0.106250
0.690625 0.300000 0.106250
0.743750 0.300000 0.106250
0.796875 0.300000 0.106250
0.850000 0.300000 0.106250
0.050000 0.350000 0.106250
0.053125 0.350000 0.106250
0.106250 0.350000 0.106250
0.159375 0.350000 0.106250
0.212500 0.350000 0.106250
0.265625 0.350000 0.106250
0.318750 0.350000 0.106250
0.371875 0.350000 0.106250
0.425000 0.350000 0.106250
0.478125 0.350000 0.106250
0.531250 0.350000 0.106250
0.584375 0.350000 0.106250
0.637500 0.350000 0.106250
0.690625 0.350000 0.106250
0.743750 0.350000 0.106250
0.796875 0.350000 0.106250
0.850000 0.350000 0.106250
0.050000 0.400000 0.106250
0.053125 0.400000 0.106250
0.106250 0.400000 0.106250
0.159375 0.400000 0.106250
0.212500 0.400000 0.106250
0.265625 0.400000 0.106250
0.318750 0.400000 0.106250
0.371875 0.400000 0.106250
0.425000 0.400000 0.106250
0.478125 0.400000 0.106250
0.531250 0.400000 0.106250
0.584375 0.400000 0.106250
0.637500 0.400000 0.106250
0.690625 0.400000 0.106250
0.743750 0.400000 0.106250
0.796875 0.400000 0.106250
0.850000 0.400000 0.106250
0.050000 0.450000 0.106250
0.053125 0.450000 0.106250
0.106250 0.450000 0.106250
0.159375 0.450000 0.106250
0.212500 0.450000 0.106250
0.265625 0.450000 0.106250
0.318750 0.450000 0.106250
0.371875 0.450000 0.106250
0.425000 0.450000 0.106250
0.478125 0.450000 0.106250
0.531250 0.450000 0.106250
0.584375 0.450000 0.106250
0.637500 0.450000 0.106250
0.690625 0.450000 0.106250
0.743750 0.450000 0.106250
0.796875 0.450000 0.106250
0.850000 0.450000 0.106250
0.050000 0.500000 0.106250
0.053125 0.500000 0.106250
0.106250 0.500000 0.106250
0.159375 0.500000 0.106250
0.212500 0.500000 0.106250
0.265625 0.500000 0.106250
0.318750 0.500000 0.106250
0.371875 0.500000 0.106250
0.425000 0.500000 0.106250
0.478125 0.500000 0.106250
0.531250 0.500000 0.106250
0.584375 0.500000 0.106250
0.637500 0.500000 0.106250
0.690625 0.500000 0.106250
0.743750 0.500000 0.106250
0.796875 0.500000 0.106250
0.850000 0.500000 0.106250
0.050000 0.550000 0.106250
0.053125 0.550000 0.106250
0.106250 0.550000 0.106250
0.159375 0.550000 0.106250
0.212500 0.550000 0.106250
0.265625 0.550000 0.106250
0.318750 0.550000 0.106250
0.371875 0.550000 0.106250
0.425000 0.550000 0.106250
0.478125 0.550000 0.106250
0.531250 0.550000 0.106250
0.584375 0.550000 0.106250
0.637500 0.550000 0.106250
0.690625 0.550000 0.106250
0.743750 0.550000 0.106250
0.796875 0.550000 0.106250
0.850000 0.550000 0.106250
0.050000 0.600000 0.106250
0.053125 0.600000 0.106250
0.106250 0.600000 0.106250
0.159375 0.600000 0.106250
0.212500 0.600000 0.106250
0.265625 0.600000 0.106250
0.318750 0.600000 0.106250
0.371875 0.600000 0.106250
0.425000 0.600000 0.106250
0.478125 0.600000 0.106250
0.531250 0.600000 0.106250
0.584375 0.600000 0.106250
0.637500 0.600000 0.106250
0.690625 0.600000 0.106250
0.743750 0.600000 0.106250
0.796875 0.600000 0.106250
0.850000 0.600000 0.106250
0.050000 0.650000 0.106250
0.053125 0.650000 0.106250
0.106250 0.650000 0.106250
0.159375 0.650000 0.106250
0.212500 0.650000 0.106250
0.265625 0.650000 0.106250
0.318750 0.650000 0.106250
0.371875 0.650000 0.106250
0.425000 0.650000 0.106250
0.478125 0.650000 0.106250
0.531250 0.650000 0.106250
0.584375 0.650000 0.106250
0.637500 0.650000 0.106250
0.690625 0.650000 0.106250
0.743750 0.650000 0.106250
0.796875 0.650000 0.106250
0.850000 0.650000 0.106250
0.050000 0.700000 0.106250
0.053125 0.700000 0.106250
0.106250 0.700000 0.106250
0.159375 0.700000 0.106250
0.212500 0.700000 0.106250
0.265625 0.700000 0.106250
0.318750 0.700000 0.106250
0.371875 0.700000 0.106250
0.425000 0.700000 0.106250
0.478125 0.700000 0.106250
0.531250 0.700000 0.106250
0.584375 0.700000 0.106250
0.637500 0.700000 0.106250
0.690625 0.700000 0.106250
0.743750 0.700000 0.106250
0.796875 0.700000 0.106250
0.850000 0.700000 0.106250
0.050000 0.750000 0.106250
0.053125 0.750000 0.106250
0.106250 0.750000 0.106250
0.159375 0.750000 0.106250
0.212500 0.750000 0.106250
0.265625 0.750000 0.106250
0.318750 0.750000 0.106250
0.371875 0.750000 0.106250
0.425000 0.750000 0.106250
0.478125 0.750000 0.106250
0.531250 0.750000 0.106250
0.584375 0.750000 0.106250
0.637500 0.750000 0.106250
0.690625 0.750000 0.106250
0.743750 0.750000 0.106250
0.796875 0.750000 0.106250
0.850000 0.750000 0.106250
0.050000 0.800000 0.106250
0.053125 0.800000 0.106250
0.106250 0.800000 0.106250
0.159375 0.800000 0.106250
0.212500 0.800000 0.106250
0.265625 0.800000 0.106250
0.318750 0.800000 0.106250
0.371875 0.800000 0.106250
0.425000 0.800000 0.106250
0.478125 0.800000 0.106250
0.531250 0.800000 0.106250
0.584375 0.800000 0.106250
0.637500 0.800000 0.106250
0.690625 0.800000 0.106250
0.743750 0.800000 0.106250
0.796875 0.800000 0.106250
0.850000 0.800000 0.106250
0.050000 0.050000 0.159375
0.053125 0.050000 0.159375
0.106250 0.050000 0.159375
0.159375 0.050000 0.159375
0.212500 0.050000 0.159375
0.265625 0.050000 0.159375
0.318750 0.050000 0.159375
0.371875 0.050000 0.159375
0.425000 0.050000 0.159375
0.478125 0.050000 0.159375
0.531250 0.050000 0.159375
0.584375 0.050000 0.159375
0.637500 0.050000 0.159375
0.690625 0.050000 0.159375
0.743750 0.050000 0.159375
0.796875 0.050000 0.159375
0.850000 0.050000 0.159375
0.050000 0.050000 0.159375
0.053125 0.050000 0.159375
0.106250 0.050000 0.159375
