server/assets/luts/moody.cube
TITLE "Moody"
LUT_3D_SIZE 9
0.050000 0.050000 0.050000
0.106250 0.050000 0.050000
0.212500 0.050000 0.050000
0.318750 0.050000 0.050000
0.425000 0.050000 0.050000
0.531250 0.050000 0.050000
0.637500 0.050000 0.050000
0.743750 0.050000 0.050000
0.850000 0.050000 0.050000
0.050000 0.100000 0.050000
0.106250 0.100000 0.050000
0.212500 0.100000 0.050000
0.318750 0.100000 0.050000
0.425000 0.100000 0.050000
0.531250 0.100000 0.050000
0.637500 0.100000 0.050000
0.743750 0.100000 0.050000
0.850000 0.100000 0.050000
0.050000 0.200000 0.050000
0.106250 0.200000 0.050000
0.212500 0.200000 0.050000
0.318750 0.200000 0.050000
0.425000 0.200000 0.050000
0.531250 0.200000 0.050000
0.637500 0.200000 0.050000
0.743750 0.200000 0.050000
0.850000 0.200000 0.050000
0.050000 0.300000 0.050000
0.106250 0.300000 0.050000
0.212500 0.300000 0.050000
0.318750 0.300000 0.050000
0.425000 0.300000 0.050000
0.531250 0.300000 0.050000
0.637500 0.300000 0.050000
0.743750 0.300000 0.050000
0.850000 0.300000 0.050000
0.050000 0.400000 0.050000
0.106250 0.400000 0.050000
0.212500 0.400000 0.050000
0.318750 0.400000 0.050000
0.425000 0.400000 0.050000
0.531250 0.400000 0.050000
0.637500 0.400000 0.050000
0.743750 0.400000 0.050000
0.850000 0.400000 0.050000
0.050000 0.500000 0.050000
0.106250 0.500000 0.050000
0.212500 0.500000 0.050000
0.318750 0.500000 0.050000
0.425000 0.500000 0.050000
0.531250 0.500000 0.050000
0.637500 0.500000 0.050000
0.743750 0.500000 0.050000
0.850000 0.500000 0.050000
0.050000 0.600000 0.050000
0.106250 0.600000 0.050000
0.212500 0.600000 0.050000
0.318750 0.600000 0.050000
0.425000 0.600000 0.050000
0.531250 0.600000 0.050000
0.637500 0.600000 0.050000
0.743750 0.600000 0.050000
0.850000 0.600000 0.050000
0.050000 0.700000 0.050000
0.106250 0.700000 0.050000
0.212500 0.700000 0.050000
0.318750 0.700000 0.050000
0.425000 0.700000 0.050000
0.531250 0.700000 0.050000
0.637500 0.700000 0.050000
0.743750 0.700000 0.050000
0.850000 0.700000 0.050000
0.050000 0.800000 0.050000
0.106250 0.800000 0.050000
0.212500 0.800000 0.050000
0.318750 0.800000 0.050000
0.425000 0.800000 0.050000
0.531250 0.800000 0.050000
0.637500 0.800000 0.050000
0.743750 0.800000 0.050000
0.850000 0.800000 0.050000
0.050000 0.050000 0.106250
0.106250 0.050000 0.106250
0.212500 0.050000 0.106250
0.318750 0.050000 0.106250
0.425000 0.050000 0.106250
0.531250 0.050000 0.106250
0.637500 0.050000 0.106250
0.743750 0.050000 0.106250
0.850000 0.050000 0.106250
0.050000 0.100000 0.106250
0.106250 0.100000 0.106250
0.212500 0.100000 0.106250
0.318750 0.100000 0.106250
0.425000 0.100000 0.106250
0.531250 0.100000 0.106250
0.637500 0.100000 0.106250
0.743750 0.100000 0.106250
0.850000 0.100000 0.106250
0.050000 0.200000 0.106250
0.106250 0.200000 0.106250
0.212500 0.200000 0.106250
0.318750 0.200000 0.106250
0.425000 0.200000 0.106250
0.531250 0.200000 0.106250
0.637500 0.200000 0.106250
0.743750 0.200000 0.106250
0.850000 0.200000 0.106250
0.050000 0.300000 0.106250
0.106250 0.300000 0.106250
0.212500 0.300000 0.106250
0.318750 0.300000 0.106250
0.425000 0.300000 0.106250
0.531250 0.300000 0.106250
0.637500 0.300000 0.106250
0.743750 0.300000 0.106250
0.850000 0.300000 0.106250
0.050000 0.400000 0.106250
0.106250 0.400000 0.106250
0.212500 0.400000 0.106250
0.318750 0.400000 0.106250
0.425000 0.400000 0.106250
0.531250 0.400000 0.106250
0.637500 0.400000 0.106250
0.743750 0.400000 0.106250
0.850000 0.400000 0.106250
0.050000 0.500000 0.106250
0.106250 0.500000 0.106250
0.212500 0.500000 0.106250
0.318750 0.500000 0.106250
0.425000 0.500000 0.106250
0.531250 0.500000 0.106250
0.637500 0.500000 0.106250
0.743750 0.500000 0.106250
0.850000 0.500000 0.106250
0.050000 0.600000 0.106250
0.106250 0.600000 0.106250
0.212500 0.600000 0.106250
0.318750 0.600000 0.106250
0.425000 0.600000 0.106250
0.531250 0.600000 0.106250
0.637500 0.600000 0.106250
0.743750 0.600000 0.106250
0.850000 0.600000 0.106250
0.050000 0.700000 0.106250
0.106250 0.700000 0.106250
0.212500 0.700000 0.106250
0.318750 0.700000 0.106250
0.425000 0.700000 0.106250
0.531250 0.700000 0.106250
0.637500 0.700000 0.106250
0.743750 0.700000 0.106250
0.850000 0.700000 0.106250
0.050000 0.800000 0.106250
0.106250 0.800000 0.106250
0.212500 0.800000 0.106250
0.318750 0.800000 0.106250
0.425000 0.800000 0.106250
0.531250 0.800000 0.106250
0.637500 0.800000 0.106250
0.743750 0.800000 0.106250
0.850000 0.800000 0.106250
0.050000 0.050000 0.212500
0.106250 0.050000 0.212500
0.212500 0.050000 0.212500
0.318750 0.050000 0.212500
0.425000 0.050000 0.212500
0.531250 0.050000 0.212500
0.637500 0.050000 0.212500
0.743750 0.050000 0.212500
0.850000 0.050000 0.212500
0.050000 0.100000 0.212500
0.106250 0.100000 0.212500
0.212500 0.100000 0.212500
0.318750 0.100000 0.212500
0.425000 0.100000 0.212500
0.531250 0.100000 0.212500
0.637500 0.100000 0.212500
0.743750 0.100000 0.212500
0.850000 0.100000 0.212500
0.050000 0.200000 0.212500
0.106250 0.200000 0.212500
0.212500 0.200000 0.212500
0.318750 0.200000 0.212500
0.425000 0.200000 0.212500
0.531250 0.200000 0.212500
0.637500 0.200000 0.212500
0.743750 0.200000 0.212500
0.850000 0.200000 0.212500
0.050000 0.300000 0.212500
0.106250 0.300000 0.212500
0.212500 0.300000 0.212500
0.318750 0.300000 0.212500
0.425000 0.300000 0.212500
0.531250 0.300000 0.212500
0.637500 0.300000 0.212500
0.743750 0.300000 0.212500
0.850000 0.300000 0.212500
0.050000 0.400000 0.212500
0.106250 0.400000 0.212500
0.212500 0.400000 0.212500
0.318750 0.400000 0.212500
0.425000 0.400000 0.212500
0.531250 0.400000 0.212500
0.637500 0.400000 0.212500
0.743750 0.400000 0.212500
0.850000 0.400000 0.212500
0.050000 0.500000 0.212500
0.106250 0.500000 0.212500
0.212500 0.500000 0.212500
0.318750 0.500000 0.212500
0.425000 0.500000 0.212500
0.531250 0.500000 0.212500
0.637500 0.500000 0.212500
0.743750 0.500000 0.212500
0.850000 0.500000 0.212500
0.050000 0.600000 0.212500
0.106250 0.600000 0.212500
0.212500 0.600000 0.212500
0.318750 0.600000 0.212500
0.425000 0.600000 0.212500
0.531250 0.600000 0.212500
0.637500 0.600000 0.212500
0.743750 0.600000 0.212500
0.850000 0.600000 0.212500
0.050000 0.700000 0.212500
0.106250 0.700000 0.212500
0.212500 0.700000 0.212500
0.318750 0.700000 0.212500
0.425000 0.700000 0.212500
0.531250 0.700000 0.212500
0.637500 0.700000 0.212500
0.743750 0.700000 0.212500
0.850000 0.700000 0.212500
0.050000 0.800000 0.212500
0.106250 0.800000 0.212500
0.212500 0.800000 0.212500
0.318750 0.800000 0.212500
0.425000 0.800000 0.212500
0.531250 0.800000 0.212500
0.637500 0.800000 0.212500
0.743750 0.800000 0.212500
0.850000 0.800000 0.212500
0.050000 0.050000 0.318750
0.106250 0.050000 0.318750
0.212500 0.050000 0.318750
0.318750 0.050000 0.318750
0.425000 0.050000 0.318750
0.531250 0.050000 0.318750
0.637500 0.050000 0.318750
0.743750 0.050000 0.318750
0.850000 0.050000 0.318750
0.050000 0.100000 0.318750
0.106250 0.100000 0.318750
0.212500 0.100000 0.318750
0.318750 0.100000 0.318750
0.425000 0.100000 0.318750
0.531250 0.100000 0.318750
0.637500 0.100000 0.318750
0.743750 0.100000 0.318750
0.850000 0.100000 0.318750
0.050000 0.200000 0.318750
0.106250 0.200000 0.318750
0.212500 0.200000 0.318750
0.318750 0.200000 0.318750
0.425000 0.200000 0.318750
0.531250 0.200000 0.318750
0.637500 0.200000 0.318750
0.743750 0.200000 0.318750
0.850000 0.200000 0.318750
0.050000 0.300000 0.318750
0.106250 0.300000 0.318750
0.212500 0.300000 0.318750
0.318750 0.300000 0.318750
0.425000 0.300000 0.318750
0.531250 0.300000 0.318750
0.637500 0.300000 0.318750
0.743750 0.300000 0.318750
0.850000 0.300000 0.318750
0.050000 0.400000 0.318750
0.106250 0.400000 0.318750
0.212500 0.400000 0.318750
0.318750 0.400000 0.318750
0.425000 0.400000 0.318750
0.531250 0.400000 0.318750
0.637500 0.400000 0.318750
0.743750 0.400000 0.318750
0.850000 0.400000 0.318750
0.050000 0.500000 0.318750
0.106250 0.500000 0.318750
0.212500 0.500000 0.318750
0.318750 0.500000 0.318750
0.425000 0.500000 0.318750
0.531250 0.500000 0.318750
0.637500 0.500000 0.318750
0.743750 0.500000 0.318750
0.850000 0.500000 0.318750
0.050000 0.600000 0.318750
0.106250 0.600000 0.318750
0.212500 0.600000 0.318750
0.318750 0.600000 0.318750
0.425000 0.600000 0.318750
0.531250 0.600000 0.318750
0.637500 0.600000 0.318750
0.743750 0.600000 0.318750
0.850000 0.600000 0.318750
0.050000 0.700000 0.318750
0.106250 0.700000 0.318750
0.212500 0.700000 0.318750
0.318750 0.700000 0.318750
0.425000 0.700000 0.318750
0.531250 0.700000 0.318750
0.637500 0.700000 0.318750
0.743750 0.700000 0.318750
0.850000 0.700000 0.318750
0.050000 0.800000 0.318750
0.106250 0.800000 0.318750
0.212500 0.800000 0.318750
0.318750 0.800000 0.318750
0.425000 0.800000 0.318750
0.531250 0.800000 0.318750
0.637500 0.800000 0.318750
0.743750 0.800000 0.318750
0.850000 0.800000 0.318750
0.050000 0.050000 0.425000
0.106250 0.050000 0.425000
0.212500 0.050000 0.425000
0.318750 0.050000 0.425000
0.425000 0.050000 0.425000
0.531250 0.050000 0.425000
0.637500 0.050000 0.425000
0.743750 0.050000 0.425000
0.850000 0.050000 0.425000
0.050000 0.100000 0.425000
0.106250 0.100000 0.425000
0.212500 0.100000 0.425000
0.318750 0.100000 0.425000
0.425000 0.100000 0.425000
0.531250 0.100000 0.425000
0.637500 0.100000 0.425000
0.743750 0.100000 0.425000
0.850000 0.100000 0.425000
0.050000 0.200000 0.425000
0.106250 0.200000 0.425000
0.212500 0.200000 0.425000
0.318750 0.200000 0.425000
0.425000 0.200000 0.425000
0.531250 0.200000 0.425000
0.637500 0.200000 0.425000
0.743750 0.200000 0.425000
0.850000 0.200000 0.425000
0.050000 0.300000 0.425000
0.106250 0.300000 0.425000
0.212500 0.300000 0.425000
0.318750 0.300000 0.425000
0.425000 0.300000 0.425000
0.531250 0.300000 0.425000
0.637500 0.300000 0.425000
0.743750 0.300000 0.425000
0.850000 0.300000 0.425000
0.050000 0.400000 0.425000
0.106250 0.400000 0.425000
0.212500 0.400000 0.425000
0.318750 0.400000 0.425000
0.425000 0.400000 0.425000
0.531250 0.400000 0.425000
0.637500 0.400000 0.425000
0.743750 0.400000 0.425000
0.850000 0.400000 0.425000
0.050000 0.500000 0.425000
0.106250 0.500000 0.425000
0.212500 0.500000 0.425000
0.318750 0.500000 0.425000
0.425000 0.500000 0.425000
0.531250 0.500000 0.425000
0.637500 0.500000 0.425000
0.743750 0.500000 0.425000
0.850000 0.500000 0.425000
0.050000 0.600000 0.425000
0.106250 0.600000 0.425000
0.212500 0.600000 0.425000
0.318750 0.600000 0.425000
0.425000 0.600000 0.425000
0.531250 0.600000 0.425000
0.637500 0.600000 0.425000
0.743750 0.600000 0.425000
0.850000 0.600000 0.425000
0.050000 0.700000 0.425000
0.106250 0.700000 0.425000
0.212500 0.700000 0.425000
0.318750 0.700000 0.425000
0.425000 0.700000 0.425000
0.531250 0.700000 0.425000
0.637500 0.700000 0.425000
0.743750 0.700000 0.425000
0.850000 0.700000 0.425000
0.050000 0.800000 0.425000
0.106250 0.800000 0.425000
0.212500 0.800000 0.425000
0.318750 0.800000 0.425000
0.425000 0.800000 0.425000
0.531250 0.800000 0.425000
0.637500 0.800000 0.425000
0.743750 0.800000 0.425000
0.850000 0.800000 0.425000
0.050000 0.050000 0.531250
0.106250 0.050000 0.531250
0.212500 0.050000 0.531250
0.318750 0.050000 0.531250
0.425000 0.050000 0.531250
0.531250 0.050000 0.531250
0.637500 0.050000 0.531250
0.743750 0.050000 0.531250
0.850000 0.050000 0.531250
0.050000 0.100000 0.531250
0.106250 0.100000 0.531250
0.212500 0.100000 0.531250
0.318750 0.100000 0.531250
0.425000 0.100000 0.531250
0.531250 0.100000 0.531250
0.637500 0.100000 0.531250
0.743750 0.100000 0.531250
0.850000 0.100000 0.531250
0.050000 0.200000 0.531250
0.106250 0.200000 0.531250
0.212500 0.200000 0.531250
0.318750 0.200000 0.531250
0.425000 0.200000 0.531250
0.531250 0.200000 0.531250
0.637500 0.200000 0.531250
0.743750 0.200000 0.531250
0.850000 0.200000 0.531250
0.050000 0.300000 0.531250
0.106250 0.300000 0.531250
0.212500 0.300000 0.531250
0.318750 0.300000 0.531250
0.425000 0.300000 0.531250
0.531250 0.300000 0.531250
0.637500 0.300000 0.531250
0.743750 0.300000 0.531250
0.850000 0.300000 0.531250
0.050000 0.400000 0.531250
0.106250 0.400000 0.531250
0.212500 0.400000 0.531250
0.318750 0.400000 0.531250
0.425000 0.400000 0.531250
0.531250 0.400000 0.531250
0.637500 0.400000 0.531250
0.743750 0.400000 0.531250
0.850000 0.400000 0.531250
0.050000 0.500000 0.531250
0.106250 0.500000 0.531250
0.212500 0.500000 0.531250
0.318750 0.500000 0.531250
0.425000 0.500000 0.531250
0.531250 0.500000 0.531250
0.637500 0.500000 0.531250
0.743750 0.500000 0.531250
0.850000 0.500000 0.531250
0.050000 0.600000 0.531250
0.106250 0.600000 0.531250
0.212500 0.600000 0.531250
0.318750 0.600000 0.531250
0.425000 0.600000 0.531250
0.531250 0.600000 0.531250
0.637500 0.600000 0.531250
0.743750 0.600000 0.531250
0.850000 0.600000 0.531250
0.050000 0.700000 0.531250
0.106250 0.700000 0.531250
0.212500 0.700000 0.531250
0.318750 0.700000 0.531250
0.425000 0.700000 0.531250
0.531250 0.700000 0.531250
0.637500 0.700000 0.531250
0.743750 0.700000 0.531250
0.850000 0.700000 0.531250
0.050000 0.800000 0.531250
0.106250 0.800000 0.531250
0.212500 0.800000 0.531250
0.318750 0.800000 0.531250
0.425000 0.800000 0.531250
0.531250 0.800000 0.531250
0.637500 0.800000 0.531250
0.743750 0.800000 0.531250
0.850000 0.800000 0.531250
0.050000 0.050000 0.637500
0.106250 0.050000 0.637500
0.212500 0.050000 0.637500
0.318750 0.050000 0.637500
0.425000 0.050000 0.637500
0.531250 0.050000 0.637500
0.637500 0.050000 0.637500
0.743750 0.050000 0.637500
0.850000 0.050000 0.637500
0.050000 0.100000 0.637500
0.106250 0.100000 0.637500
0.212500 0.100000 0.637500
0.318750 0.100000 0.637500
0.425000 0.100000 0.637500
0.531250 0.100000 0.637500
0.637500 0.100000 0.637500
0.743750 0.100000 0.637500
0.850000 0.100000 0.637500
0.050000 0.200000 0.637500
0.106250 0.200000 0.637500
0.212500 0.200000 0.637500
0.318750 0.200000 0.637500
0.425000 0.200000 0.637500
0.531250 0.200000 0.637500
0.637500 0.200000 0.637500
0.743750 0.200000 0.637500
0.850000 0.200000 0.637500
0.050000 0.300000 0.637500
0.106250 0.300000 0.637500
0.212500 0.300000 0.637500
0.318750 0.300000 0.637500
0.425000 0.300000 0.637500
0.531250 0.300000 0.637500
0.637500 0.300000 0.637500
0.743750 0.300000 0.637500
0.850000 0.300000 0.637500
0.050000 0.400000 0.637500
0.106250 0.400000 0.637500
0.212500 0.400000 0.637500
0.318750 0.400000 0.637500
0.425000 0.400000 0.637500
0.531250 0.400000 0.637500
0.637500 0.400000 0.637500
0.743750 0.400000 0.637500
0.850000 0.400000 0.637500
0.050000 0.500000 0.637500
0.106250 0.500000 0.637500
0.212500 0.500000 0.637500
0.318750 0.500000 0.637500
0.425000 0.500000 0.637500
0.531250 0.500000 0.637500
0.637500 0.500000 0.637500
0.743750 0.500000 0.637500
0.850000 0.500000 0.637500
0.050000 0.600000 0.637500
0.106250 0.600000 0.637500
0.212500 0.600000 0.637500
0.318750 0.600000 0.637500
0.425000 0.600000 0.637500
0.531250 0.600000 0.637500
0.637500 0.600000 0.637500
0.743750 0.600000 0.637500
0.850000 0.600000 0.637500
0.050000 0.700000 0.637500
0.106250 0.700000 0.637500
0.212500 0.700000 0.637500
0.318750 0.700000 0.637500
0.425000 0.700000 0.637500
0.531250 0.700000 0.637500
0.637500 0.700000 0.637500
0.743750 0.700000 0.637500
0.850000 0.700000 0.637500
0.050000 0.800000 0.637500
0.106250 0.800000 0.637500
0.212500 0.800000 0.637500
0.318750 0.800000 0.637500
0.425000 0.800000 0.637500
0.531250 0.800000 0.637500
0.637500 0.800000 0.637500
0.743750 0.800000 0.637500
0.850000 0.800000 0.637500
0.050000 0.050000 0.743750
0.106250 0.050000 0.743750
0.212500 0.050000 0.743750
0.318750 0.050000 0.743750
0.425000 0.050000 0.743750
0.531250 0.050000 0.743750
0.637500 0.050000 0.743750
0.743750 0.050000 0.743750
0.850000 0.050000 0.743750
0.050000 0.100000 0.743750
0.106250 0.100000 0.743750
0.212500 0.100000 0.743750
0.318750 0.100000 0.743750
0.425000 0.100000 0.743750
0.531250 0.100000 0.743750
0.637500 0.100000 0.743750
0.743750 0.100000 0.743750
0.850000 0.100000 0.743750
0.050000 0.200000 0.743750
0.106250 0.200000 0.743750
0.212500 0.200000 0.743750
0.318750 0.200000 0.743750
0.425000 0.200000 0.743750
0.531250 0.200000 0.743750
0.637500 0.200000 0.743750
0.743750 0.200000 0.743750
0.850000 0.200000 0.743750
0.050000 0.300000 0.743750
0.106250 0.300000 0.743750
0.212500 0.300000 0.743750
0.318750 0.300000 0.743750
0.425000 0.300000 0.743750
0.531250 0.300000 0.743750
0.637500 0.300000 0.743750
0.743750 0.300000 0.743750
0.850000 0.300000 0.743750
0.050000 0.400000 0.743750
0.106250 0.400000 0.743750
0.212500 0.400000 0.743750
0.318750 0.400000 0.743750
0.425000 0.400000 0.743750
0.531250 0.400000 0.743750
0.637500 0.400000 0.743750
0.743750 0.400000 0.743750
0.850000 0.400000 0.743750
0.050000 0.500000 0.743750
0.106250 0.500000 0.743750
0.212500 0.500000 0.743750
0.318750 0.500000 0.743750
0.425000 0.500000 0.743750
0.531250 0.500000 0.743750
0.637500 0.500000 0.743750
0.743750 0.500000 0.743750
0.850000 0.500000 0.743750
0.050000 0.600000 0.743750
0.106250 0.600000 0.743750
0.212500 0.600000 0.743750
0.318750 0.600000 0.743750
0.425000 0.600000 0.743750
0.531250 0.600000 0.743750
0.637500 0.600000 0.743750
0.743750 0.600000 0.743750
0.850000 0.600000 0.743750
0.050000 0.700000 0.743750
0.106250 0.700000 0.743750
0.212500 0.700000 0.743750
0.318750 0.700000 0.743750
0.425000 0.700000 0.743750
0.531250 0.700000 0.743750
0.637500 0.700000 0.743750
0.743750 0.700000 0.743750
0.850000 0.700000 0.743750
0.050000 0.800000 0.743750
0.106250 0.800000 0.743750
0.212500 0.800000 0.743750
0.318750 0.800000 0.743750
0.425000 0.800000 0.743750
0.531250 0.800000 0.743750
0.637500 0.800000 0.743750
0.743750 0.800000 0.743750
0.850000 0.800000 0.743750
0.050000 0.050000 0.850000
0.106250 0.050000 0.850000
0.212500 0.050000 0.850000
0.318750 0.050000 0.850000
0.425000 0.050000 0.850000
0.531250 0.050000 0.850000
0.637500 0.050000 0.850000
0.743750 0.050000 0.850000
0.850000 0.050000 0.850000
0.050000 0.100000 0.850000
0.106250 0.100000 0.850000
0.212500 0.100000 0.850000
0.318750 0.100000 0.850000
0.425000 0.100000 0.850000
0.531250 0.100000 0.850000
0.637500 0.100000 0.850000
0.743750 0.100000 0.850000
0.850000 0.100000 0.850000
0.050000 0.200000 0.850000
0.106250 0.200000 0.850000
0.212500 0.200000 0.850000
0.318750 0.200000 0.850000
0.425000 0.200000 0.850000
0.531250 0.200000 0.850000
0.637500 0.200000 0.850000
0.743750 0.200000 0.850000
0.850000 0.200000 0.850000
0.050000 0.300000 0.850000
0.106250 0.300000 0.850000
0.212500 0.300000 0.850000
0.318750 0.300000 0.850000
0.425000 0.300000 0.850000
0.531250 0.300000 0.850000
0.637500 0.300000 0.850000
0.743750 0.300000 0.850000
0.850000 0.300000 0.850000
0.050000 0.400000 0.850000
0.106250 0.400000 0.850000
0.212500 0.400000 0.850000
0.318750 0.400000 0.850000
0.425000 0.400000 0.850000
0.531250 0.400000 0.850000
0.637500 0.400000 0.850000
0.743750 0.400000 0.850000
0.850000 0.400000 0.850000
0.050000 0.500000 0.850000
0.106250 0.500000 0.850000
0.212500 0.500000 0.850000
0.318750 0.500000 0.850000
0.425000 0.500000 0.850000
0.531250 0.500000 0.850000
0.637500 0.500000 0.850000
0.743750 0.500000 0.850000
0.850000 0.500000 0.850000
0.050000 0.600000 0.850000
0.106250 0.600000 0.850000
0.212500 0.600000 0.850000
0.318750 0.600000 0.850000
0.425000 0.600000 0.850000
0.531250 0.600000 0.850000
0.637500 0.600000 0.850000
0.743750 0.600000 0.850000
0.850000 0.600000 0.850000
0.050000 0.700000 0.850000
0.106250 0.700000 0.850000
0.212500 0.700000 0.850000
0.318750 0.700000 0.850000
0.425000 0.700000 0.850000
0.531250 0.700000 0.850000
0.637500 0.700000 0.850000
0.743750 0.700000 0.850000
0.850000 0.700000 0.850000
0.050000 0.800000 0.850000
0.106250 0.800000 0.850000
0.212500 0.800000 0.850000
0.318750 0.800000 0.850000
0.425000 0.800000 0.850000
0.531250 0.800000 0.850000
0.637500 0.800000 0.850000
0.743750 0.800000 0.850000
0.850000 0.800000 0.850000
