server/assets/luts/vintage.cube
TITLE "Vintage"
LUT_3D_SIZE 9
0.100000 0.080000 0.060000
0.212500 0.080000 0.060000
0.325000 0.080000 0.060000
0.437500 0.080000 0.060000
0.550000 0.080000 0.060000
0.662500 0.080000 0.060000
0.775000 0.080000 0.060000
0.887500 0.080000 0.060000
1.000000 0.080000 0.060000
0.100000 0.186250 0.060000
0.212500 0.186250 0.060000
0.325000 0.186250 0.060000
0.437500 0.186250 0.060000
0.550000 0.186250 0.060000
0.662500 0.186250 0.060000
0.775000 0.186250 0.060000
0.887500 0.186250 0.060000
1.000000 0.186250 0.060000
0.100000 0.292500 0.060000
0.212500 0.292500 0.060000
0.325000 0.292500 0.060000
0.437500 0.292500 0.060000
0.550000 0.292500 0.060000
0.662500 0.292500 0.060000
0.775000 0.292500 0.060000
0.887500 0.292500 0.060000
1.000000 0.292500 0.060000
0.100000 0.398750 0.060000
0.212500 0.398750 0.060000
0.325000 0.398750 0.060000
0.437500 0.398750 0.060000
0.550000 0.398750 0.060000
0.662500 0.398750 0.060000
0.775000 0.398750 0.060000
0.887500 0.398750 0.060000
1.000000 0.398750 0.060000
0.100000 0.505000 0.060000
0.212500 0.505000 0.060000
0.325000 0.505000 0.060000
0.437500 0.505000 0.060000
0.550000 0.505000 0.060000
0.662500 0.505000 0.060000
0.775000 0.505000 0.060000
0.887500 0.505000 0.060000
1.000000 0.505000 0.060000
0.100000 0.611250 0.060000
0.212500 0.611250 0.060000
0.325000 0.611250 0.060000
0.437500 0.611250 0.060000
0.550000 0.611250 0.060000
0.662500 0.611250 0.060000
0.775000 0.611250 0.060000
0.887500 0.611250 0.060000
1.000000 0.611250 0.060000
0.100000 0.717500 0.060000
0.212500 0.717500 0.060000
0.325000 0.717500 0.060000
0.437500 0.717500 0.060000
0.550000 0.717500 0.060000
0.662500 0.717500 0.060000
0.775000 0.717500 0.060000
0.887500 0.717500 0.060000
1.000000 0.717500 0.060000
0.100000 0.823750 0.060000
0.212500 0.823750 0.060000
0.325000 0.823750 0.060000
0.437500 0.823750 0.060000
0.550000 0.823750 0.060000
0.662500 0.823750 0.060000
0.775000 0.823750 0.060000
0.887500 0.823750 0.060000
1.000000 0.823750 0.060000
0.100000 0.930000 0.060000
0.212500 0.930000 0.060000
0.325000 0.930000 0.060000
0.437500 0.930000 0.060000
0.550000 0.930000 0.060000
0.662500 0.930000 0.060000
0.775000 0.930000 0.060000
0.887500 0.930000 0.060000
1.000000 0.930000 0.060000
0.100000 0.080000 0.153750
0.212500 0.080000 0.153750
0.325000 0.080000 0.153750
0.437500 0.080000 0.153750
0.550000 0.080000 0.153750
0.662500 0.080000 0.153750
0.775000 0.080000 0.153750
0.887500 0.080000 0.153750
1.000000 0.080000 0.153750
0.100000 0.186250 0.153750
0.212500 0.186250 0.153750
0.325000 0.186250 0.153750
0.437500 0.186250 0.153750
0.550000 0.186250 0.153750
0.662500 0.186250 0.153750
0.775000 0.186250 0.153750
0.887500 0.186250 0.153750
1.000000 0.186250 0.153750
0.100000 0.292500 0.153750
0.212500 0.292500 0.153750
0.325000 0.292500 0.153750
0.437500 0.292500 0.153750
0.550000 0.292500 0.153750
0.662500 0.292500 0.153750
0.775000 0.292500 0.153750
0.887500 0.292500 0.153750
1.000000 0.292500 0.153750
0.100000 0.398750 0.153750
0.212500 0.398750 0.153750
0.325000 0.398750 0.153750
0.437500 0.398750 0.153750
0.550000 0.398750 0.153750
0.662500 0.398750 0.153750
0.775000 0.398750 0.153750
0.887500 0.398750 0.153750
1.000000 0.398750 0.153750
0.100000 0.505000 0.153750
0.212500 0.505000 0.153750
0.325000 0.505000 0.153750
0.437500 0.505000 0.153750
0.550000 0.505000 0.153750
0.662500 0.505000 0.153750
0.775000 0.505000 0.153750
0.887500 0.505000 0.153750
1.000000 0.505000 0.153750
0.100000 0.611250 0.153750
0.212500 0.611250 0.153750
0.325000 0.611250 0.153750
0.437500 0.611250 0.153750
0.550000 0.611250 0.153750
0.662500 0.611250 0.153750
0.775000 0.611250 0.153750
0.887500 0.611250 0.153750
1.000000 0.611250 0.153750
0.100000 0.717500 0.153750
0.212500 0.717500 0.153750
0.325000 0.717500 0.153750
0.437500 0.717500 0.153750
0.550000 0.717500 0.153750
0.662500 0.717500 0.153750
0.775000 0.717500 0.153750
0.887500 0.717500 0.153750
1.000000 0.717500 0.153750
0.100000 0.823750 0.153750
0.212500 0.823750 0.153750
0.325000 0.823750 0.153750
0.437500 0.823750 0.153750
0.550000 0.823750 0.153750
0.662500 0.823750 0.153750
0.775000 0.823750 0.153750
0.887500 0.823750 0.153750
1.000000 0.823750 0.153750
0.100000 0.930000 0.153750
0.212500 0.930000 0.153750
0.325000 0.930000 0.153750
0.437500 0.930000 0.153750
0.550000 0.930000 0.153750
0.662500 0.930000 0.153750
0.775000 0.930000 0.153750
0.887500 0.930000 0.153750
1.000000 0.930000 0.153750
0.100000 0.080000 0.247500
0.212500 0.080000 0.247500
0.325000 0.080000 0.247500
0.437500 0.080000 0.247500
0.550000 0.080000 0.247500
0.662500 0.080000 0.247500
0.775000 0.080000 0.247500
0.887500 0.080000 0.247500
1.000000 0.080000 0.247500
0.100000 0.186250 0.247500
0.212500 0.186250 0.247500
0.325000 0.186250 0.247500
0.437500 0.186250 0.247500
0.550000 0.186250 0.247500
0.662500 0.186250 0.247500
0.775000 0.186250 0.247500
0.887500 0.186250 0.247500
1.000000 0.186250 0.247500
0.100000 0.292500 0.247500
0.212500 0.292500 0.247500
0.325000 0.292500 0.247500
0.437500 0.292500 0.247500
0.550000 0.292500 0.247500
0.662500 0.292500 0.247500
0.775000 0.292500 0.247500
0.887500 0.292500 0.247500
1.000000 0.292500 0.247500
0.100000 0.398750 0.247500
0.212500 0.398750 0.247500
0.325000 0.398750 0.247500
0.437500 0.398750 0.247500
0.550000 0.398750 0.247500
0.662500 0.398750 0.247500
0.775000 0.398750 0.247500
0.887500 0.398750 0.247500
1.000000 0.398750 0.247500
0.100000 0.505000 0.247500
0.212500 0.505000 0.247500
0.325000 0.505000 0.247500
0.437500 0.505000 0.247500
0.550000 0.505000 0.247500
0.662500 0.505000 0.247500
0.775000 0.505000 0.247500
0.887500 0.505000 0.247500
1.000000 0.505000 0.247500
0.100000 0.611250 0.247500
0.212500 0.611250 0.247500
0.325000 0.611250 0.247500
0.437500 0.611250 0.247500
0.550000 0.611250 0.247500
0.662500 0.611250 0.247500
0.775000 0.611250 0.247500
0.887500 0.611250 0.247500
1.000000 0.611250 0.247500
0.100000 0.717500 0.247500
0.212500 0.717500 0.247500
0.325000 0.717500 0.247500
0.437500 0.717500 0.247500
0.550000 0.717500 0.247500
0.662500 0.717500 0.247500
0.775000 0.717500 0.247500
0.887500 0.717500 0.247500
1.000000 0.717500 0.247500
0.100000 0.823750 0.247500
0.212500 0.823750 0.247500
0.325000 0.823750 0.247500
0.437500 0.823750 0.247500
0.550000 0.823750 0.247500
0.662500 0.823750 0.247500
0.775000 0.823750 0.247500
0.887500 0.823750 0.247500
1.000000 0.823750 0.247500
0.100000 0.930000 0.247500
0.212500 0.930000 0.247500
0.325000 0.930000 0.247500
0.437500 0.930000 0.247500
0.550000 0.930000 0.247500
0.662500 0.930000 0.247500
0.775000 0.930000 0.247500
0.887500 0.930000 0.247500
1.000000 0.930000 0.247500
0.100000 0.080000 0.341250
0.212500 0.080000 0.341250
0.325000 0.080000 0.341250
0.437500 0.080000 0.341250
0.550000 0.080000 0.341250
0.662500 0.080000 0.341250
0.775000 0.080000 0.341250
0.887500 0.080000 0.341250
1.000000 0.080000 0.341250
0.100000 0.186250 0.341250
0.212500 0.186250 0.341250
0.325000 0.186250 0.341250
0.437500 0.186250 0.341250
0.550000 0.186250 0.341250
0.662500 0.186250 0.341250
0.775000 0.186250 0.341250
0.887500 0.186250 0.341250
1.000000 0.186250 0.341250
0.100000 0.292500 0.341250
0.212500 0.292500 0.341250
0.325000 0.292500 0.341250
0.437500 0.292500 0.341250
0.550000 0.292500 0.341250
0.662500 0.292500 0.341250
0.775000 0.292500 0.341250
0.887500 0.292500 0.341250
1.000000 0.292500 0.341250
0.100000 0.398750 0.341250
0.212500 0.398750 0.341250
0.325000 0.398750 0.341250
0.437500 0.398750 0.341250
0.550000 0.398750 0.341250
0.662500 0.398750 0.341250
0.775000 0.398750 0.341250
0.887500 0.398750 0.341250
1.000000 0.398750 0.341250
0.100000 0.505000 0.341250
0.212500 0.505000 0.341250
0.325000 0.505000 0.341250
0.437500 0.505000 0.341250
0.550000 0.505000 0.341250
0.662500 0.505000 0.341250
0.775000 0.505000 0.341250
0.887500 0.505000 0.341250
1.000000 0.505000 0.341250
0.100000 0.611250 0.341250
0.212500 0.611250 0.341250
0.325000 0.611250 0.341250
0.437500 0.611250 0.341250
0.550000 0.611250 0.341250
0.662500 0.611250 0.341250
0.775000 0.611250 0.341250
0.887500 0.611250 0.341250
1.000000 0.611250 0.341250
0.100000 0.717500 0.341250
0.212500 0.717500 0.341250
0.325000 0.717500 0.341250
0.437500 0.717500 0.341250
0.550000 0.717500 0.341250
0.662500 0.717500 0.341250
0.775000 0.717500 0.341250
0.887500 0.717500 0.341250
1.000000 0.717500 0.341250
0.100000 0.823750 0.341250
0.212500 0.823750 0.341250
0.325000 0.823750 0.341250
0.437500 0.823750 0.341250
0.550000 0.823750 0.341250
0.662500 0.823750 0.341250
0.775000 0.823750 0.341250
0.887500 0.823750 0.341250
1.000000 0.823750 0.341250
0.100000 0.930000 0.341250
0.212500 0.930000 0.341250
0.325000 0.930000 0.341250
0.437500 0.930000 0.341250
0.550000 0.930000 0.341250
0.662500 0.930000 0.341250
0.775000 0.930000 0.341250
0.887500 0.930000 0.341250
1.000000 0.930000 0.341250
0.100000 0.080000 0.435000
0.212500 0.080000 0.435000
0.325000 0.080000 0.435000
0.437500 0.080000 0.435000
0.550000 0.080000 0.435000
0.662500 0.080000 0.435000
0.775000 0.080000 0.435000
0.887500 0.080000 0.435000
1.000000 0.080000 0.435000
0.100000 0.186250 0.435000
0.212500 0.186250 0.435000
0.325000 0.186250 0.435000
0.437500 0.186250 0.435000
0.550000 0.186250 0.435000
0.662500 0.186250 0.435000
0.775000 0.186250 0.435000
0.887500 0.186250 0.435000
1.000000 0.186250 0.435000
0.100000 0.292500 0.435000
0.212500 0.292500 0.435000
0.325000 0.292500 0.435000
0.437500 0.292500 0.435000
0.550000 0.292500 0.435000
0.662500 0.292500 0.435000
0.775000 0.292500 0.435000
0.887500 0.292500 0.435000
1.000000 0.292500 0.435000
0.100000 0.398750 0.435000
0.212500 0.398750 0.435000
0.325000 0.398750 0.435000
0.437500 0.398750 0.435000
0.550000 0.398750 0.435000
0.662500 0.398750 0.435000
0.775000 0.398750 0.435000
0.887500 0.398750 0.435000
1.000000 0.398750 0.435000
0.100000 0.505000 0.435000
0.212500 0.505000 0.435000
0.325000 0.505000 0.435000
0.437500 0.505000 0.435000
0.550000 0.505000 0.435000
0.662500 0.505000 0.435000
0.775000 0.505000 0.435000
0.887500 0.505000 0.435000
1.000000 0.505000 0.435000
0.100000 0.611250 0.435000
0.212500 0.611250 0.435000
0.325000 0.611250 0.435000
0.437500 0.611250 0.435000
0.550000 0.611250 0.435000
0.662500 0.611250 0.435000
0.775000 0.611250 0.435000
0.887500 0.611250 0.435000
1.000000 0.611250 0.435000
0.100000 0.717500 0.435000
0.212500 0.717500 0.435000
0.325000 0.717500 0.435000
0.437500 0.717500 0.435000
0.550000 0.717500 0.435000
0.662500 0.717500 0.435000
0.775000 0.717500 0.435000
0.887500 0.717500 0.435000
1.000000 0.717500 0.435000
0.100000 0.823750 0.435000
0.212500 0.823750 0.435000
0.325000 0.823750 0.435000
0.437500 0.823750 0.435000
0.550000 0.823750 0.435000
0.662500 0.823750 0.435000
0.775000 0.823750 0.435000
0.887500 0.823750 0.435000
1.000000 0.823750 0.435000
0.100000 0.930000 0.435000
0.212500 0.930000 0.435000
0.325000 0.930000 0.435000
0.437500 0.930000 0.435000
0.550000 0.930000 0.435000
0.662500 0.930000 0.435000
0.775000 0.930000 0.435000
0.887500 0.930000 0.435000
1.000000 0.930000 0.435000
0.100000 0.080000 0.528750
0.212500 0.080000 0.528750
0.325000 0.080000 0.528750
0.437500 0.080000 0.528750
0.550000 0.080000 0.528750
0.662500 0.080000 0.528750
0.775000 0.080000 0.528750
0.887500 0.080000 0.528750
1.000000 0.080000 0.528750
0.100000 0.186250 0.528750
0.212500 0.186250 0.528750
0.325000 0.186250 0.528750
0.437500 0.186250 0.528750
0.550000 0.186250 0.528750
0.662500 0.186250 0.528750
0.775000 0.186250 0.528750
0.887500 0.186250 0.528750
1.000000 0.186250 0.528750
0.100000 0.292500 0.528750
0.212500 0.292500 0.528750
0.325000 0.292500 0.528750
0.437500 0.292500 0.528750
0.550000 0.292500 0.528750
0.662500 0.292500 0.528750
0.775000 0.292500 0.528750
0.887500 0.292500 0.528750
1.000000 0.292500 0.528750
0.100000 0.398750 0.528750
0.212500 0.398750 0.528750
0.325000 0.398750 0.528750
0.437500 0.398750 0.528750
0.550000 0.398750 0.528750
0.662500 0.398750 0.528750
0.775000 0.398750 0.528750
0.887500 0.398750 0.528750
1.000000 0.398750 0.528750
0.100000 0.505000 0.528750
0.212500 0.505000 0.528750
0.325000 0.505000 0.528750
0.437500 0.505000 0.528750
0.550000 0.505000 0.528750
0.662500 0.505000 0.528750
0.775000 0.505000 0.528750
0.887500 0.505000 0.528750
1.000000 0.505000 0.528750
0.100000 0.611250 0.528750
0.212500 0.611250 0.528750
0.325000 0.611250 0.528750
0.437500 0.611250 0.528750
0.550000 0.611250 0.528750
0.662500 0.611250 0.528750
0.775000 0.611250 0.528750
0.887500 0.611250 0.528750
1.000000 0.611250 0.528750
0.100000 0.717500 0.528750
0.212500 0.717500 0.528750
0.325000 0.717500 0.528750
0.437500 0.717500 0.528750
0.550000 0.717500 0.528750
0.662500 0.717500 0.528750
0.775000 0.717500 0.528750
0.887500 0.717500 0.528750
1.000000 0.717500 0.528750
0.100000 0.823750 0.528750
0.212500 0.823750 0.528750
0.325000 0.823750 0.528750
0.437500 0.823750 0.528750
0.550000 0.823750 0.528750
0.662500 0.823750 0.528750
0.775000 0.823750 0.528750
0.887500 0.823750 0.528750
1.000000 0.823750 0.528750
0.100000 0.930000 0.528750
0.212500 0.930000 0.528750
0.325000 0.930000 0.528750
0.437500 0.930000 0.528750
0.550000 0.930000 0.528750
0.662500 0.930000 0.528750
0.775000 0.930000 0.528750
0.887500 0.930000 0.528750
1.000000 0.930000 0.528750
0.100000 0.080000 0.622500
0.212500 0.080000 0.622500
0.325000 0.080000 0.622500
0.437500 0.080000 0.622500
0.550000 0.080000 0.622500
0.662500 0.080000 0.622500
0.775000 0.080000 0.622500
0.887500 0.080000 0.622500
1.000000 0.080000 0.622500
0.100000 0.186250 0.622500
0.212500 0.186250 0.622500
0.325000 0.186250 0.622500
0.437500 0.186250 0.622500
0.550000 0.186250 0.622500
0.662500 0.186250 0.622500
0.775000 0.186250 0.622500
0.887500 0.186250 0.622500
1.000000 0.186250 0.622500
0.100000 0.292500 0.622500
0.212500 0.292500 0.622500
0.325000 0.292500 0.622500
0.437500 0.292500 0.622500
0.550000 0.292500 0.622500
0.662500 0.292500 0.622500
0.775000 0.292500 0.622500
0.887500 0.292500 0.622500
1.000000 0.292500 0.622500
0.100000 0.398750 0.622500
0.212500 0.398750 0.622500
0.325000 0.398750 0.622500
0.437500 0.398750 0.622500
0.550000 0.398750 0.622500
0.662500 0.398750 0.622500
0.775000 0.398750 0.622500
0.887500 0.398750 0.622500
1.000000 0.398750 0.622500
0.100000 0.505000 0.622500
0.212500 0.505000 0.622500
0.325000 0.505000 0.622500
0.437500 0.505000 0.622500
0.550000 0.505000 0.622500
0.662500 0.505000 0.622500
0.775000 0.505000 0.622500
0.887500 0.505000 0.622500
1.000000 0.505000 0.622500
0.100000 0.611250 0.622500
0.212500 0.611250 0.622500
0.325000 0.611250 0.622500
0.437500 0.611250 0.622500
0.550000 0.611250 0.622500
0.662500 0.611250 0.622500
0.775000 0.611250 0.622500
0.887500 0.611250 0.622500
1.000000 0.611250 0.622500
0.100000 0.717500 0.622500
0.212500 0.717500 0.622500
0.325000 0.717500 0.622500
0.437500 0.717500 0.622500
0.550000 0.717500 0.622500
0.662500 0.717500 0.622500
0.775000 0.717500 0.622500
0.887500 0.717500 0.622500
1.000000 0.717500 0.622500
0.100000 0.823750 0.622500
0.212500 0.823750 0.622500
0.325000 0.823750 0.622500
0.437500 0.823750 0.622500
0.550000 0.823750 0.622500
0.662500 0.823750 0.622500
0.775000 0.823750 0.622500
0.887500 0.823750 0.622500
1.000000 0.823750 0.622500
0.100000 0.930000 0.622500
0.212500 0.930000 0.622500
0.325000 0.930000 0.622500
0.437500 0.930000 0.622500
0.550000 0.930000 0.622500
0.662500 0.930000 0.622500
0.775000 0.930000 0.622500
0.887500 0.930000 0.622500
1.000000 0.930000 0.622500
0.100000 0.080000 0.716250
0.212500 0.080000 0.716250
0.325000 0.080000 0.716250
0.437500 0.080000 0.716250
0.550000 0.080000 0.716250
0.662500 0.080000 0.716250
0.775000 0.080000 0.716250
0.887500 0.080000 0.716250
1.000000 0.080000 0.716250
0.100000 0.186250 0.716250
0.212500 0.186250 0.716250
0.325000 0.186250 0.716250
0.437500 0.186250 0.716250
0.550000 0.186250 0.716250
0.662500 0.186250 0.716250
0.775000 0.186250 0.716250
0.887500 0.186250 0.716250
1.000000 0.186250 0.716250
0.100000 0.292500 0.716250
0.212500 0.292500 0.716250
0.325000 0.292500 0.716250
0.437500 0.292500 0.716250
0.550000 0.292500 0.716250
0.662500 0.292500 0.716250
0.775000 0.292500 0.716250
0.887500 0.292500 0.716250
1.000000 0.292500 0.716250
0.100000 0.398750 0.716250
0.212500 0.398750 0.716250
0.325000 0.398750 0.716250
0.437500 0.398750 0.716250
0.550000 0.398750 0.716250
0.662500 0.398750 0.716250
0.775000 0.398750 0.716250
0.887500 0.398750 0.716250
1.000000 0.398750 0.716250
0.100000 0.505000 0.716250
0.212500 0.505000 0.716250
0.325000 0.505000 0.716250
0.437500 0.505000 0.716250
0.550000 0.505000 0.716250
0.662500 0.505000 0.716250
0.775000 0.505000 0.716250
0.887500 0.505000 0.716250
1.000000 0.505000 0.716250
0.100000 0.611250 0.716250
0.212500 0.611250 0.716250
0.325000 0.611250 0.716250
0.437500 0.611250 0.716250
0.550000 0.611250 0.716250
0.662500 0.611250 0.716250
0.775000 0.611250 0.716250
0.887500 0.611250 0.716250
1.000000 0.611250 0.716250
0.100000 0.717500 0.716250
0.212500 0.717500 0.716250
0.325000 0.717500 0.716250
0.437500 0.717500 0.716250
0.550000 0.717500 0.716250
0.662500 0.717500 0.716250
0.775000 0.717500 0.716250
0.887500 0.717500 0.716250
1.000000 0.717500 0.716250
0.100000 0.823750 0.716250
0.212500 0.823750 0.716250
0.325000 0.823750 0.716250
0.437500 0.823750 0.716250
0.550000 0.823750 0.716250
0.662500 0.823750 0.716250
0.775000 0.823750 0.716250
0.887500 0.823750 0.716250
1.000000 0.823750 0.716250
0.100000 0.930000 0.716250
0.212500 0.930000 0.716250
0.325000 0.930000 0.716250
0.437500 0.930000 0.716250
0.550000 0.930000 0.716250
0.662500 0.930000 0.716250
0.775000 0.930000 0.716250
0.887500 0.930000 0.716250
1.000000 0.930000 0.716250
0.100000 0.080000 0.810000
0.212500 0.080000 0.810000
0.325000 0.080000 0.810000
0.437500 0.080000 0.810000
0.550000 0.080000 0.810000
0.662500 0.080000 0.810000
0.775000 0.080000 0.810000
0.887500 0.080000 0.810000
1.000000 0.080000 0.810000
0.100000 0.186250 0.810000
0.212500 0.186250 0.810000
0.325000 0.186250 0.810000
0.437500 0.186250 0.810000
0.550000 0.186250 0.810000
0.662500 0.186250 0.810000
0.775000 0.186250 0.810000
0.887500 0.186250 0.810000
1.000000 0.186250 0.810000
0.100000 0.292500 0.810000
0.212500 0.292500 0.810000
0.325000 0.292500 0.810000
0.437500 0.292500 0.810000
0.550000 0.292500 0.810000
0.662500 0.292500 0.810000
0.775000 0.292500 0.810000
0.887500 0.292500 0.810000
1.000000 0.292500 0.810000
0.100000 0.398750 0.810000
0.212500 0.398750 0.810000
0.325000 0.398750 0.810000
0.437500 0.398750 0.810000
0.550000 0.398750 0.810000
0.662500 0.398750 0.810000
0.775000 0.398750 0.810000
0.887500 0.398750 0.810000
1.000000 0.398750 0.810000
0.100000 0.505000 0.810000
0.212500 0.505000 0.810000
0.325000 0.505000 0.810000
0.437500 0.505000 0.810000
0.550000 0.505000 0.810000
0.662500 0.505000 0.810000
0.775000 0.505000 0.810000
0.887500 0.505000 0.810000
1.000000 0.505000 0.810000
0.100000 0.611250 0.810000
0.212500 0.611250 0.810000
0.325000 0.611250 0.810000
0.437500 0.611250 0.810000
0.550000 0.611250 0.810000
0.662500 0.611250 0.810000
0.775000 0.611250 0.810000
0.887500 0.611250 0.810000
1.000000 0.611250 0.810000
0.100000 0.717500 0.810000
0.212500 0.717500 0.810000
0.325000 0.717500 0.810000
0.437500 0.717500 0.810000
0.550000 0.717500 0.810000
0.662500 0.717500 0.810000
0.775000 0.717500 0.810000
0.887500 0.717500 0.810000
1.000000 0.717500 0.810000
0.100000 0.823750 0.810000
0.212500 0.823750 0.810000
0.325000 0.823750 0.810000
0.437500 0.823750 0.810000
0.550000 0.823750 0.810000
0.662500 0.823750 0.810000
0.775000 0.823750 0.810000
0.887500 0.823750 0.810000
1.000000 0.823750 0.810000
0.100000 0.930000 0.810000
0.212500 0.930000 0.810000
0.325000 0.930000 0.810000
0.437500 0.930000 0.810000
0.550000 0.930000 0.810000
0.662500 0.930000 0.810000
0.775000 0.930000 0.810000
0.887500 0.930000 0.810000
1.000000 0.930000 0.810000
