server/assets/luts/vintage.cube
TITLE "Vintage"
LUT_3D_SIZE 17
0.100000 0.080000 0.060000
0.156250 0.080000 0.060000
0.212500 0.080000 0.060000
0.268750 0.080000 0.060000
0.325000 0.080000 0.060000
0.381250 0.080000 0.060000
0.437500 0.080000 0.060000
0.493750 0.080000 0.060000
0.550000 0.080000 0.060000
0.606250 0.080000 0.060000
0.662500 0.080000 0.060000
0.718750 0.080000 0.060000
0.775000 0.080000 0.060000
0.831250 0.080000 0.060000
0.887500 0.080000 0.060000
0.943750 0.080000 0.060000
1.000000 0.080000 0.060000
0.100000 0.133125 0.060000
0.156250 0.133125 0.060000
0.212500 0.133125 0.060000
0.268750 0.133125 0.060000
0.325000 0.133125 0.060000
0.381250 0.133125 0.060000
0.437500 0.133125 0.060000
0.493750 0.133125 0.060000
0.550000 0.133125 0.060000
0.606250 0.133125 0.060000
0.662500 0.133125 0.060000
0.718750 0.133125 0.060000
0.775000 0.133125 0.060000
0.831250 0.133125 0.060000
0.887500 0.133125 0.060000
0.943750 0.133125 0.060000
1.000000 0.133125 0.060000
0.100000 0.186250 0.060000
0.156250 0.186250 0.060000
0.212500 0.186250 0.060000
0.268750 0.186250 0.060000
0.325000 0.186250 0.060000
0.381250 0.186250 0.060000
0.437500 0.186250 0.060000
0.493750 0.186250 0.060000
0.550000 0.186250 0.060000
0.606250 0.186250 0.060000
0.662500 0.186250 0.060000
0.718750 0.186250 0.060000
0.775000 0.186250 0.060000
0.831250 0.186250 0.060000
0.887500 0.186250 0.060000
0.943750 0.186250 0.060000
1.000000 0.186250 0.060000
0.100000 0.239375 0.060000
0.156250 0.239375 0.060000
0.212500 0.239375 0.060000
0.268750 0.239375 0.060000
0.325000 0.239375 0.060000
0.381250 0.239375 0.060000
0.437500 0.239375 0.060000
0.493750 0.239375 0.060000
0.550000 0.239375 0.060000
0.606250 0.239375 0.060000
0.662500 0.239375 0.060000
0.718750 0.239375 0.060000
0.775000 0.239375 0.060000
0.831250 0.239375 0.060000
0.887500 0.239375 0.060000
0.943750 0.239375 0.060000
1.000000 0.239375 0.060000
0.100000 0.292500 0.060000
0.156250 0.292500 0.060000
0.212500 0.292500 0.060000
0.268750 0.292500 0.060000
0.325000 0.292500 0.060000
0.381250 0.292500 0.060000
0.437500 0.292500 0.060000
0.493750 0.292500 0.060000
0.550000 0.292500 0.060000
0.606250 0.292500 0.060000
0.662500 0.292500 0.060000
0.718750 0.292500 0.060000
0.775000 0.292500 0.060000
0.831250 0.292500 0.060000
0.887500 0.292500 0.060000
0.943750 0.292500 0.060000
1.000000 0.292500 0.060000
0.100000 0.345625 0.060000
0.156250 0.345625 0.060000
0.212500 0.345625 0.060000
0.268750 0.345625 0.060000
0.325000 0.345625 0.060000
0.381250 0.345625 0.060000
0.437500 0.345625 0.060000
0.493750 0.345625 0.060000
0.550000 0.345625 0.060000
0.606250 0.345625 0.060000
0.662500 0.345625 0.060000
0.718750 0.345625 0.060000
0.775000 0.345625 0.060000
0.831250 0.345625 0.060000
0.887500 0.345625 0.060000
0.943750 0.345625 0.060000
1.000000 0.345625 0.060000
0.100000 0.398750 0.060000
0.156250 0.398750 0.060000
0.212500 0.398750 0.060000
0.268750 0.398750 0.060000
0.325000 0.398750 0.060000
0.381250 0.398750 0.060000
0.437500 0.398750 0.060000
0.493750 0.398750 0.060000
0.550000 0.398750 0.060000
0.606250 0.398750 0.060000
0.662500 0.398750 0.060000
0.718750 0.398750 0.060000
0.775000 0.398750 0.060000
0.831250 0.398750 0.060000
0.887500 0.398750 0.060000
0.943750 0.398750 0.060000
1.000000 0.398750 0.060000
0.100000 0.451875 0.060000
0.156250 0.451875 0.060000
0.212500 0.451875 0.060000
0.268750 0.451875 0.060000
0.325000 0.451875 0.060000
0.381250 0.451875 0.060000
0.437500 0.451875 0.060000
0.493750 0.451875 0.060000
0.550000 0.451875 0.060000
0.606250 0.451875 0.060000
0.662500 0.451875 0.060000
0.718750 0.451875 0.060000
0.775000 0.451875 0.060000
0.831250 0.451875 0.060000
0.887500 0.451875 0.060000
0.943750 0.451875 0.060000
1.000000 0.451875 0.060000
0.100000 0.505000 0.060000
0.156250 0.505000 0.060000
0.212500 0.505000 0.060000
0.268750 0.505000 0.060000
0.325000 0.505000 0.060000
0.381250 0.505000 0.060000
0.437500 0.505000 0.060000
0.493750 0.505000 0.060000
0.550000 0.505000 0.060000
0.606250 0.505000 0.060000
0.662500 0.505000 0.060000
0.718750 0.505000 0.060000
0.775000 0.505000 0.060000
0.831250 0.505000 0.060000
0.887500 0.505000 0.060000
0.943750 0.505000 0.060000
1.000000 0.505000 0.060000
0.100000 0.558125 0.060000
0.156250 0.558125 0.060000
0.212500 0.558125 0.060000
0.268750 0.558125 0.060000
0.325000 0.558125 0.060000
0.381250 0.558125 0.060000
0.437500 0.558125 0.060000
0.493750 0.558125 0.060000
0.550000 0.558125 0.060000
0.606250 0.558125 0.060000
0.662500 0.558125 0.060000
0.718750 0.558125 0.060000
0.775000 0.558125 0.060000
0.831250 0.558125 0.060000
0.887500 0.558125 0.060000
0.943750 0.558125 0.060000
1.000000 0.558125 0.060000
0.100000 0.611250 0.060000
0.156250 0.611250 0.060000
0.212500 0.611250 0.060000
0.268750 0.611250 0.060000
0.325000 0.611250 0.060000
0.381250 0.611250 0.060000
0.437500 0.611250 0.060000
0.493750 0.611250 0.060000
0.550000 0.611250 0.060000
0.606250 0.611250 0.060000
0.662500 0.611250 0.060000
0.718750 0.611250 0.060000
0.775000 0.611250 0.060000
0.831250 0.611250 0.060000
0.887500 0.611250 0.060000
0.943750 0.611250 0.060000
1.000000 0.611250 0.060000
0.100000 0.664375 0.060000
0.156250 0.664375 0.060000
0.212500 0.664375 0.060000
0.268750 0.664375 0.060000
0.325000 0.664375 0.060000
0.381250 0.664375 0.060000
0.437500 0.664375 0.060000
0.493750 0.664375 0.060000
0.550000 0.664375 0.060000
0.606250 0.664375 0.060000
0.662500 0.664375 0.060000
0.718750 0.664375 0.060000
0.775000 0.664375 0.060000
0.831250 0.664375 0.060000
0.887500 0.664375 0.060000
0.943750 0.664375 0.060000
1.000000 0.664375 0.060000
0.100000 0.717500 0.060000
0.156250 0.717500 0.060000
0.212500 0.717500 0.060000
0.268750 0.717500 0.060000
0.325000 0.717500 0.060000
0.381250 0.717500 0.060000
0.437500 0.717500 0.060000
0.493750 0.717500 0.060000
0.550000 0.717500 0.060000
0.606250 0.717500 0.060000
0.662500 0.717500 0.060000
0.718750 0.717500 0.060000
0.775000 0.717500 0.060000
0.831250 0.717500 0.060000
0.887500 0.717500 0.060000
0.943750 0.717500 0.060000
1.000000 0.717500 0.060000
0.100000 0.770625 0.060000
0.156250 0.770625 0.060000
0.212500 0.770625 0.060000
0.268750 0.770625 0.060000
0.325000 0.770625 0.060000
0.381250 0.770625 0.060000
0.437500 0.770625 0.060000
0.493750 0.770625 0.060000
0.550000 0.770625 0.060000
0.606250 0.770625 0.060000
0.662500 0.770625 0.060000
0.718750 0.770625 0.060000
0.775000 0.770625 0.060000
0.831250 0.770625 0.060000
0.887500 0.770625 0.060000
0.943750 0.770625 0.060000
1.000000 0.770625 0.060000
0.100000 0.823750 0.060000
0.156250 0.823750 0.060000
0.212500 0.823750 0.060000
0.268750 0.823750 0.060000
0.325000 0.823750 0.060000
0.381250 0.823750 0.060000
0.437500 0.823750 0.060000
0.493750 0.823750 0.060000
0.550000 0.823750 0.060000
0.606250 0.823750 0.060000
0.662500 0.823750 0.060000
0.718750 0.823750 0.060000
0.775000 0.823750 0.060000
0.831250 0.823750 0.060000
0.887500 0.823750 0.060000
0.943750 0.823750 0.060000
1.000000 0.823750 0.060000
0.100000 0.876875 0.060000
0.156250 0.876875 0.060000
0.212500 0.876875 0.060000
0.268750 0.876875 0.060000
0.325000 0.876875 0.060000
0.381250 0.876875 0.060000
0.437500 0.876875 0.060000
0.493750 0.876875 0.060000
0.550000 0.876875 0.060000
0.606250 0.876875 0.060000
0.662500 0.876875 0.060000
0.718750 0.876875 0.060000
0.775000 0.876875 0.060000
0.831250 0.876875 0.060000
0.887500 0.876875 0.060000
0.943750 0.876875 0.060000
1.000000 0.876875 0.060000
0.100000 0.930000 0.060000
0.156250 0.930000 0.060000
0.212500 0.930000 0.060000
0.268750 0.930000 0.060000
0.325000 0.930000 0.060000
0.381250 0.930000 0.060000
0.437500 0.930000 0.060000
0.493750 0.930000 0.060000
0.550000 0.930000 0.060000
0.606250 0.930000 0.060000
0.662500 0.930000 0.060000
0.718750 0.930000 0.060000
0.775000 0.930000 0.060000
0.831250 0.930000 0.060000
0.887500 0.930000 0.060000
0.943750 0.930000 0.060000
1.000000 0.930000 0.060000
0.100000 0.080000 0.106875
0.156250 0.080000 0.106875
0.212500 0.080000 0.106875
0.268750 0.080000 0.106875
0.325000 0.080000 0.106875
0.381250 0.080000 0.106875
0.437500 0.080000 0.106875
0.493750 0.080000 0.106875
0.550000 0.080000 0.106875
0.606250 0.080000 0.106875
0.662500 0.080000 0.106875
0.718750 0.080000 0.106875
0.775000 0.080000 0.106875
0.831250 0.080000 0.106875
0.887500 0.080000 0.106875
0.943750 0.080000 0.106875
1.000000 0.080000 0.106875
0.100000 0.133125 0.106875
0.156250 0.133125 0.106875
0.212500 0.133125 0.106875
0.268750 0.133125 0.106875
0.325000 0.133125 0.106875
0.381250 0.133125 0.106875
0.437500 0.133125 0.106875
0.493750 0.133125 0.106875
0.550000 0.133125 0.106875
0.606250 0.133125 0.106875
0.662500 0.133125 0.106875
0.718750 0.133125 0.106875
0.775000 0.133125 0.106875
0.831250 0.133125 0.106875
0.887500 0.133125 0.106875
0.943750 0.133125 0.106875
1.000000 0.133125 0.106875
0.100000 0.186250 0.106875
0.156250 0.186250 0.106875
0.212500 0.186250 0.106875
0.268750 0.186250 0.106875
0.325000 0.186250 0.106875
0.381250 0.186250 0.106875
0.437500 0.186250 0.106875
0.493750 0.186250 0.106875
0.550000 0.186250 0.106875
0.606250 0.186250 0.106875
0.662500 0.186250 0.106875
0.718750 0.186250 0.106875
0.775000 0.186250 0.106875
0.831250 0.186250 0.106875
0.887500 0.186250 0.106875
0.943750 0.186250 0.106875
1.000000 0.186250 0.106875
0.100000 0.239375 0.106875
0.156250 0.239375 0.106875
0.212500 0.239375 0.106875
0.268750 0.239375 0.106875
0.325000 0.239375 0.106875
0.381250 0.239375 0.106875
0.437500 0.239375 0.106875
0.493750 0.239375 0.106875
0.550000 0.239375 0.106875
0.606250 0.239375 0.106875
0.662500 0.239375 0.106875
0.718750 0.239375 0.106875
0.775000 0.239375 0.106875
0.831250 0.239375 0.106875
0.887500 0.239375 0.106875
0.943750 0.239375 0.106875
1.000000 0.239375 0.106875
0.100000 0.292500 0.106875
0.156250 0.292500 0.106875
0.212500 0.292500 0.106875
0.268750 0.292500 0.106875
0.325000 0.292500 0.106875
0.381250 0.292500 0.106875
0.437500 0.292500 0.106875
0.493750 0.292500 0.106875
0.550000 0.292500 0.106875
0.606250 0.292500 0.106875
0.662500 0.292500 0.106875
0.718750 0.292500 0.106875
0.775000 0.292500 0.106875
0.831250 0.292500 0.106875
0.887500 0.292500 0.106875
0.943750 0.292500 0.106875
1.000000 0.292500 0.106875
0.100000 0.345625 0.106875
0.156250 0.345625 0.106875
0.212500 0.345625 0.106875
0.268750 0.345625 0.106875
0.325000 0.345625 0.106875
0.381250 0.345625 0.106875
0.437500 0.345625 0.106875
0.493750 0.345625 0.106875
0.550000 0.345625 0.106875
0.606250 0.345625 0.106875
0.662500 0.345625 0.106875
0.718750 0.345625 0.106875
0.775000 0.345625 0.106875
0.831250 0.345625 0.106875
0.887500 0.345625 0.106875
0.943750 0.345625 0.106875
1.000000 0.345625 0.106875
0.100000 0.398750 0.106875
0.156250 0.398750 0.106875
0.212500 0.398750 0.106875
0.268750 0.398750 0.106875
0.325000 0.398750 0.106875
0.381250 0.398750 0.106875
0.437500 0.398750 0.106875
0.493750 0.398750 0.106875
0.550000 0.398750 0.106875
0.606250 0.398750 0.106875
0.662500 0.398750 0.106875
0.718750 0.398750 0.106875
0.775000 0.398750 0.106875
0.831250 0.398750 0.106875
0.887500 0.398750 0.106875
0.943750 0.398750 0.106875
1.000000 0.398750 0.106875
0.100000 0.451875 0.106875
0.156250 0.451875 0.106875
0.212500 0.451875 0.106875
0.268750 0.451875 0.106875
0.325000 0.451875 0.106875
0.381250 0.451875 0.106875
0.437500 0.451875 0.106875
0.493750 0.451875 0.106875
0.550000 0.451875 0.106875
0.606250 0.451875 0.106875
0.662500 0.451875 0.106875
0.718750 0.451875 0.106875
0.775000 0.451875 0.106875
0.831250 0.451875 0.106875
0.887500 0.451875 0.106875
0.943750 0.451875 0.106875
1.000000 0.451875 0.106875
0.100000 0.505000 0.106875
0.156250 0.505000 0.106875
0.212500 0.505000 0.106875
0.268750 0.505000 0.106875
0.325000 0.505000 0.106875
0.381250 0.505000 0.106875
0.437500 0.505000 0.106875
0.493750 0.505000 0.106875
0.550000 0.505000 0.106875
0.606250 0.505000 0.106875
0.662500 0.505000 0.106875
0.718750 0.505000 0.106875
0.775000 0.505000 0.106875
0.831250 0.505000 0.106875
0.887500 0.505000 0.106875
0.943750 0.505000 0.106875
1.000000 0.505000 0.106875
0.100000 0.558125 0.106875
0.156250 0.558125 0.106875
0.212500 0.558125 0.106875
0.268750 0.558125 0.106875
0.325000 0.558125 0.106875
0.381250 0.558125 0.106875
0.437500 0.558125 0.106875
0.493750 0.558125 0.106875
0.550000 0.558125 0.106875
0.606250 0.558125 0.106875
0.662500 0.558125 0.106875
0.718750 0.558125 0.106875
0.775000 0.558125 0.106875
0.831250 0.558125 0.106875
0.887500 0.558125 0.106875
0.943750 0.558125 0.106875
1.000000 0.558125 0.106875
0.100000 0.611250 0.106875
0.156250 0.611250 0.106875
0.212500 0.611250 0.106875
0.268750 0.611250 0.106875
0.325000 0.611250 0.106875
0.381250 0.611250 0.106875
0.437500 0.611250 0.106875
0.493750 0.611250 0.106875
0.550000 0.611250 0.106875
0.606250 0.611250 0.106875
0.662500 0.611250 0.106875
0.718750 0.611250 0.106875
0.775000 0.611250 0.106875
0.831250 0.611250 0.106875
0.887500 0.611250 0.106875
0.943750 0.611250 0.106875
1.000000 0.611250 0.106875
0.100000 0.664375 0.106875
0.156250 0.664375 0.106875
0.212500 0.664375 0.106875
0.268750 0.664375 0.106875
0.325000 0.664375 0.106875
0.381250 0.664375 0.106875
0.437500 0.664375 0.106875
0.493750 0.664375 0.106875
0.550000 0.664375 0.106875
0.606250 0.664375 0.106875
0.662500 0.664375 0.106875
0.718750 0.664375 0.106875
0.775000 0.664375 0.106875
0.831250 0.664375 0.106875
0.887500 0.664375 0.106875
0.943750 0.664375 0.106875
1.000000 0.664375 0.106875
0.100000 0.717500 0.106875
0.156250 0.717500 0.106875
0.212500 0.717500 0.106875
0.268750 0.717500 0.106875
0.325000 0.717500 0.106875
0.381250 0.717500 0.106875
0.437500 0.717500 0.106875
0.493750 0.717500 0.106875
0.550000 0.717500 0.106875
0.606250 0.717500 0.106875
0.662500 0.717500 0.106875
0.718750 0.717500 0.106875
0.775000 0.717500 0.106875
0.831250 0.717500 0.106875
0.887500 0.717500 0.106875
0.943750 0.717500 0.106875
1.000000 0.717500 0.106875
0.100000 0.770625 0.106875
0.156250 0.770625 0.106875
0.212500 0.770625 0.106875
0.268750 0.770625 0.106875
0.325000 0.770625 0.106875
0.381250 0.770625 0.106875
0.437500 0.770625 0.106875
0.493750 0.770625 0.106875
0.550000 0.770625 0.106875
0.606250 0.770625 0.106875
0.662500 0.770625 0.106875
0.718750 0.770625 0.106875
0.775000 0.770625 0.106875
0.831250 0.770625 0.106875
0.887500 0.770625 0.106875
0.943750 0.770625 0.106875
1.000000 0.770625 0.106875
0.100000 0.823750 0.106875
0.156250 0.823750 0.106875
0.212500 0.823750 0.106875
0.268750 0.823750 0.106875
0.325000 0.823750 0.106875
0.381250 0.823750 0.106875
0.437500 0.823750 0.106875
0.493750 0.823750 0.106875
0.550000 0.823750 0.106875
0.606250 0.823750 0.106875
0.662500 0.823750 0.106875
0.718750 0.823750 0.106875
0.775000 0.823750 0.106875
0.831250 0.823750 0.106875
0.887500 0.823750 0.106875
0.943750 0.823750 0.106875
1.000000 0.823750 0.106875
0.100000 0.876875 0.106875
0.156250 0.876875 0.106875
0.212500 0.876875 0.106875
0.268750 0.876875 0.106875
0.325000 0.876875 0.106875
0.381250 0.876875 0.106875
0.437500 0.876875 0.106875
0.493750 0.876875 0.106875
0.550000 0.876875 0.106875
0.606250 0.876875 0.106875
0.662500 0.876875 0.106875
0.718750 0.876875 0.106875
0.775000 0.876875 0.106875
0.831250 0.876875 0.106875
0.887500 0.876875 0.106875
0.943750 0.876875 0.106875
1.000000 0.876875 0.106875
0.100000 0.930000 0.106875
0.156250 0.930000 0.106875
0.212500 0.930000 0.106875
0.268750 0.930000 0.106875
0.325000 0.930000 0.106875
0.381250 0.930000 0.106875
0.437500 0.930000 0.106875
0.493750 0.930000 0.106875
0.550000 0.930000 0.106875
0.606250 0.930000 0.106875
0.662500 0.930000 0.106875
0.718750 0.930000 0.106875
0.775000 0.930000 0.106875
0.831250 0.930000 0.106875
0.887500 0.930000 0.106875
0.943750 0.930000 0.106875
1.000000 0.930000 0.106875
0.100000 0.080000 0.153750
0.156250 0.080000 0.153750
0.212500 0.080000 0.153750
0.268750 0.080000 0.153750
0.325000 0.080000 0.153750
0.381250 0.080000 0.153750
0.437500 0.080000 0.153750
0.493750 0.080000 0.153750
0.550000 0.080000 0.153750
0.606250 0.080000 0.153750
0.662500 0.080000 0.153750
0.718750 0.080000 0.153750
0.775000 0.080000 0.153750
0.831250 0.080000 0.153750
0.887500 0.080000 0.153750
0.943750 0.080000 0.153750
1.000000 0.080000 0.153750
0.100000 0.133125 0.153750
0.156250 0.133125 0.153750
0.212500 0.133125 0.153750
0.268750 0.133125 0.153750
0.325000 0.133125 0.153750
0.381250 0.133125 0.153750
0.437500 0.133125 0.153750
0.493750 0.133125 0.153750
0.550000 0.133125 0.153750
0.606250 0.133125 0.153750
0.662500 0.133125 0.153750
0.718750 0.133125 0.153750
0.775000 0.133125 0.153750
0.831250 0.133125 0.153750
0.887500 0.133125 0.153750
0.943750 0.133125 0.153750
1.000000 0.133125 0.153750
0.100000 0.186250 0.153750
0.156250 0.186250 0.153750
0.212500 0.186250 0.153750
0.268750 0.186250 0.153750
0.325000 0.186250 0.153750
0.381250 0.186250 0.153750
0.437500 0.186250 0.153750
0.493750 0.186250 0.153750
0.550000 0.186250 0.153750
0.606250 0.186250 0.153750
0.662500 0.186250 0.153750
0.718750 0.186250 0.153750
0.775000 0.186250 0.153750
0.831250 0.186250 0.153750
0.887500 0.186250 0.153750
0.943750 0.186250 0.153750
1.000000 0.186250 0.153750
0.100000 0.239375 0.153750
0.156250 0.239375 0.153750
0.212500 0.239375 0.153750
0.268750 0.239375 0.153750
0.325000 0.239375 0.153750
0.381250 0.239375 0.153750
0.437500 0.239375 0.153750
0.493750 0.239375 0.153750
0.550000 0.239375 0.153750
0.606250 0.239375 0.153750
0.662500 0.239375 0.153750
0.718750 0.239375 0.153750
0.775000 0.239375 0.153750
0.831250 0.239375 0.153750
0.887500 0.239375 0.153750
0.943750 0.239375 0.153750
1.000000 0.239375 0.153750
0.100000 0.292500 0.153750
0.156250 0.292500 0.153750
0.212500 0.292500 0.153750
0.268750 0.292500 0.153750
0.325000 0.292500 0.153750
0.381250 0.292500 0.153750
0.437500 0.292500 0.153750
0.493750 0.292500 0.153750
0.550000 0.292500 0.153750
0.606250 0.292500 0.153750
0.662500 0.292500 0.153750
0.718750 0.292500 0.153750
0.775000 0.292500 0.153750
0.831250 0.292500 0.153750
0.887500 0.292500 0.153750
0.943750 0.292500 0.153750
1.000000 0.292500 0.153750
0.100000 0.345625 0.153750
0.156250 0.345625 0.153750
0.212500 0.345625 0.153750
0.268750 0.345625 0.153750
0.325000 0.345625 0.153750
0.381250 0.345625 0.153750
0.437500 0.345625 0.153750
0.493750 0.345625 0.153750
0.550000 0.345625 0.153750
0.606250 0.345625 0.153750
0.662500 0.345625 0.153750
0.718750 0.345625 0.153750
0.775000 0.345625 0.153750
0.831250 0.345625 0.153750
0.887500 0.345625 0.153750
0.943750 0.345625 0.153750
1.000000 0.345625 0.153750
0.100000 0.398750 0.153750
0.156250 0.398750 0.153750
0.212500 0.398750 0.153750
0.268750 0.398750 0.153750
0.325000 0.398750 0.153750
0.381250 0.398750 0.153750
0.437500 0.398750 0.153750
0.493750 0.398750 0.153750
0.550000 0.398750 0.153750
0.606250 0.398750 0.153750
0.662500 0.398750 0.153750
0.718750 0.398750 0.153750
0.775000 0.398750 0.153750
0.831250 0.398750 0.153750
0.887500 0.398750 0.153750
0.943750 0.398750 0.153750
1.000000 0.398750 0.153750
0.100000 0.451875 0.153750
0.156250 0.451875 0.153750
0.212500 0.451875 0.153750
0.268750 0.451875 0.153750
0.325000 0.451875 0.153750
0.381250 0.451875 0.153750
0.437500 0.451875 0.153750
0.493750 0.451875 0.153750
0.550000 0.451875 0.153750
0.606250 0.451875 0.153750
0.662500 0.451875 0.153750
0.718750 0.451875 0.153750
0.775000 0.451875 0.153750
0.831250 0.451875 0.153750
0.887500 0.451875 0.153750
0.943750 0.451875 0.153750
1.000000 0.451875 0.153750
0.100000 0.505000 0.153750
0.156250 0.505000 0.153750
0.212500 0.505000 0.153750
0.268750 0.505000 0.153750
0.325000 0.505000 0.153750
0.381250 0.505000 0.153750
0.437500 0.505000 0.153750
0.493750 0.505000 0.153750
0.550000 0.505000 0.153750
0.606250 0.505000 0.153750
0.662500 0.505000 0.153750
0.718750 0.505000 0.153750
0.775000 0.505000 0.153750
0.831250 0.505000 0.153750
0.887500 0.505000 0.153750
0.943750 0.505000 0.153750
1.000000 0.505000 0.153750
0.100000 0.558125 0.153750
0.156250 0.558125 0.153750
0.212500 0.558125 0.153750
0.268750 0.558125 0.153750
0.325000 0.558125 0.153750
0.381250 0.558125 0.153750
0.437500 0.558125 0.153750
0.493750 0.558125 0.153750
0.550000 0.558125 0.153750
0.606250 0.558125 0.153750
0.662500 0.558125 0.153750
0.718750 0.558125 0.153750
0.775000 0.558125 0.153750
0.831250 0.558125 0.153750
0.887500 0.558125 0.153750
0.943750 0.558125 0.153750
1.000000 0.558125 0.153750
0.100000 0.611250 0.153750
0.156250 0.611250 0.153750
0.212500 0.611250 0.153750
0.268750 0.611250 0.153750
0.325000 0.611250 0.153750
0.381250 0.611250 0.153750
0.437500 0.611250 0.153750
0.493750 0.611250 0.153750
0.550000 0.611250 0.153750
0.606250 0.611250 0.153750
0.662500 0.611250 0.153750
0.718750 0.611250 0.153750
0.775000 0.611250 0.153750
0.831250 0.611250 0.153750
0.887500 0.611250 0.153750
0.943750 0.611250 0.153750
1.000000 0.611250 0.153750
0.100000 0.664375 0.153750
0.156250 0.664375 0.153750
0.212500 0.664375 0.153750
0.268750 0.664375 0.153750
0.325000 0.664375 0.153750
0.381250 0.664375 0.153750
0.437500 0.664375 0.153750
0.493750 0.664375 0.153750
0.550000 0.664375 0.153750
0.606250 0.664375 0.153750
0.662500 0.664375 0.153750
0.718750 0.664375 0.153750
0.775000 0.664375 0.153750
0.831250 0.664375 0.153750
0.887500 0.664375 0.153750
0.943750 0.664375 0.153750
1.000000 0.664375 0.153750
0.100000 0.717500 0.153750
0.156250 0.717500 0.153750
0.212500 0.717500 0.153750
0.268750 0.717500 0.153750
0.325000 0.717500 0.153750
0.381250 0.717500 0.153750
0.437500 0.717500 0.153750
0.493750 0.717500 0.153750
0.550000 0.717500 0.153750
0.606250 0.717500 0.153750
0.662500 0.717500 0.153750
0.718750 0.717500 0.153750
0.775000 0.717500 0.153750
0.831250 0.717500 0.153750
0.887500 0.717500 0.153750
0.943750 0.717500 0.153750
1.000000 0.717500 0.153750
0.100000 0.770625 0.153750
0.156250 0.770625 0.153750
0.212500 0.770625 0.153750
0.268750 0.770625 0.153750
0.325000 0.770625 0.153750
0.381250 0.770625 0.153750
0.437500 0.770625 0.153750
0.493750 0.770625 0.153750
0.550000 0.770625 0.153750
0.606250 0.770625 0.153750
0.662500 0.770625 0.153750
0.718750 0.770625 0.153750
0.775000 0.770625 0.153750
0.831250 0.770625 0.153750
0.887500 0.770625 0.153750
0.943750 0.770625 0.153750
1.000000 0.770625 0.153750
0.100000 0.823750 0.153750
0.156250 0.823750 0.153750
0.212500 0.823750 0.153750
0.268750 0.823750 0.153750
0.325000 0.823750 0.153750
0.381250 0.823750 0.153750
0.437500 0.823750 0.153750
0.493750 0.823750 0.153750
0.550000 0.823750 0.153750
0.606250 0.823750 0.153750
0.662500 0.823750 0.153750
0.718750 0.823750 0.153750
0.775000 0.823750 0.153750
0.831250 0.823750 0.153750
0.887500 0.823750 0.153750
0.943750 0.823750 0.153750
1.000000 0.823750 0.153750
0.100000 0.876875 0.153750
0.156250 0.876875 0.153750
0.212500 0.876875 0.153750
0.268750 0.876875 0.153750
0.325000 0.876875 0.153750
0.381250 0.876875 0.153750
0.437500 0.876875 0.153750
0.493750 0.876875 0.153750
0.550000 0.876875 0.153750
0.606250 0.876875 0.153750
0.662500 0.876875 0.153750
0.718750 0.876875 0.153750
0.775000 0.876875 0.153750
0.831250 0.876875 0.153750
0.887500 0.876875 0.153750
0.943750 0.876875 0.153750
1.000000 0.876875 0.153750
0.100000 0.930000 0.153750
0.156250 0.930000 0.153750
0.212500 0.930000 0.153750
0.268750 0.930000 0.153750
0.325000 0.930000 0.153750
0.381250 0.930000 0.153750
0.437500 0.930000 0.153750
0.493750 0.930000 0.153750
0.550000 0.930000 0.153750
0.606250 0.930000 0.153750
0.662500 0.930000 0.153750
0.718750 0.930000 0.153750
0.775000 0.930000 0.153750
0.831250 0.930000 0.153750
0.887500 0.930000 0.153750
0.943750 0.930000 0.153750
1.000000 0.930000 0.153750
0.100000 0.080000 0.200625
0.156250 0.080000 0.200625
0.212500 0.080000 0.200625
0.268750 0.080000 0.200625
0.325000 0.080000 0.200625
0.381250 0.080000 0.200625
0.437500 0.080000 0.200625
0.493750 0.080000 0.200625
0.550000 0.080000 0.200625
0.606250 0.080000 0.200625
0.662500 0.080000 0.200625
0.718750 0.080000 0.200625
0.775000 0.080000 0.200625
0.831250 0.080000 0.200625
0.887500 0.080000 0.200625
0.943750 0.080000 0.200625
1.000000 0.080000 0.200625
0.100000 0.133125 0.200625
0.156250 0.133125 0.200625
0.212500 0.133125 0.200625
