server/assets/luts/vintage.cube
TITLE "Vintage"
LUT_3D_SIZE 5
0.100000 0.080000 0.060000
0.325000 0.080000 0.060000
0.550000 0.080000 0.060000
0.775000 0.080000 0.060000
1.000000 0.080000 0.060000
0.100000 0.292500 0.060000
0.325000 0.292500 0.060000
0.550000 0.292500 0.060000
0.775000 0.292500 0.060000
1.000000 0.292500 0.060000
0.100000 0.505000 0.060000
0.325000 0.505000 0.060000
0.550000 0.505000 0.060000
0.775000 0.505000 0.060000
1.000000 0.505000 0.060000
0.100000 0.717500 0.060000
0.325000 0.717500 0.060000
0.550000 0.717500 0.060000
0.775000 0.717500 0.060000
1.000000 0.717500 0.060000
0.100000 0.930000 0.060000
0.325000 0.930000 0.060000
0.550000 0.930000 0.060000
0.775000 0.930000 0.060000
1.000000 0.930000 0.060000
0.100000 0.080000 0.247500
0.325000 0.080000 0.247500
0.550000 0.080000 0.247500
0.775000 0.080000 0.247500
1.000000 0.080000 0.247500
0.100000 0.292500 0.247500
0.325000 0.292500 0.247500
0.550000 0.292500 0.247500
0.775000 0.292500 0.247500
1.000000 0.292500 0.247500
0.100000 0.505000 0.247500
0.325000 0.505000 0.247500
0.550000 0.505000 0.247500
0.775000 0.505000 0.247500
1.000000 0.505000 0.247500
0.100000 0.717500 0.247500
0.325000 0.717500 0.247500
0.550000 0.717500 0.247500
0.775000 0.717500 0.247500
1.000000 0.717500 0.247500
0.100000 0.930000 0.247500
0.325000 0.930000 0.247500
0.550000 0.930000 0.247500
0.775000 0.930000 0.247500
1.000000 0.930000 0.247500
0.100000 0.080000 0.435000
0.325000 0.080000 0.435000
0.550000 0.080000 0.435000
0.775000 0.080000 0.435000
1.000000 0.080000 0.435000
0.100000 0.292500 0.435000
0.325000 0.292500 0.435000
0.550000 0.292500 0.435000
0.775000 0.292500 0.435000
1.000000 0.292500 0.435000
0.100000 0.505000 0.435000
0.325000 0.505000 0.435000
0.550000 0.505000 0.435000
0.775000 0.505000 0.435000
1.000000 0.505000 0.435000
0.100000 0.717500 0.435000
0.325000 0.717500 0.435000
0.550000 0.717500 0.435000
0.775000 0.717500 0.435000
1.000000 0.717500 0.435000
0.100000 0.930000 0.435000
0.325000 0.930000 0.435000
0.550000 0.930000 0.435000
0.775000 0.930000 0.435000
1.000000 0.930000 0.435000
0.100000 0.080000 0.622500
0.325000 0.080000 0.622500
0.550000 0.080000 0.622500
0.775000 0.080000 0.622500
1.000000 0.080000 0.622500
0.100000 0.292500 0.622500
0.325000 0.292500 0.622500
0.550000 0.292500 0.622500
0.775000 0.292500 0.622500
1.000000 0.292500 0.622500
0.100000 0.505000 0.622500
0.325000 0.505000 0.622500
0.550000 0.505000 0.622500
0.775000 0.505000 0.622500
1.000000 0.505000 0.622500
0.100000 0.717500 0.622500
0.325000 0.717500 0.622500
0.550000 0.717500 0.622500
0.775000 0.717500 0.622500
1.000000 0.717500 0.622500
0.100000 0.930000 0.622500
0.325000 0.930000 0.622500
0.550000 0.930000 0.622500
0.775000 0.930000 0.622500
1.000000 0.930000 0.622500
0.100000 0.080000 0.810000
0.325000 0.080000 0.810000
0.550000 0.080000 0.810000
0.775000 0.080000 0.810000
1.000000 0.080000 0.810000
0.100000 0.292500 0.810000
0.325000 0.292500 0.810000
0.550000 0.292500 0.810000
0.775000 0.292500 0.810000
1.000000 0.292500 0.810000
0.100000 0.505000 0.810000
0.325000 0.505000 0.810000
0.550000 0.505000 0.810000
0.775000 0.505000 0.810000
1.000000 0.505000 0.810000
0.100000 0.717500 0.810000
0.325000 0.717500 0.810000
0.550000 0.717500 0.810000
0.775000 0.717500 0.810000
1.000000 0.717500 0.810000
0.100000 0.930000 0.810000
0.325000 0.930000 0.810000
0.550000 0.930000 0.810000
0.775000 0.930000 0.810000
1.000000 0.930000 0.810000
